custom_nodes/comfyui-vrgamedevgirl/LUTS/Bright_Muted_Cool_Cinematic.cube
#Created by: Adobe Photoshop Export Color Lookup Plugin
TITLE "NOLUT.png"
#LUT size
LUT_3D_SIZE 5
#data domain
DOMAIN_MIN 0.0 0.0 0.0
DOMAIN_MAX 1.0 1.0 1.0
#LUT data points
0.049591 0.050934 0.046051
0.295471 0.060760 0.087952
0.569397 0.075806 0.129242
0.744110 0.086975 0.153809
0.928467 0.099945 0.178040
0.097534 0.334656 0.047180
0.326630 0.314667 0.046539
0.582123 0.255920 0.047485
0.760895 0.233673 0.043457
0.948669 0.212280 0.033295
0.143646 0.629242 0.030640
0.402924 0.626831 0.027466
0.612274 0.557404 0.027893
0.772522 0.514343 0.029785
0.964813 0.489319 0.026611
0.167786 0.811646 0.039185
0.433716 0.806335 0.033295
0.716187 0.808807 0.034271
0.788330 0.700623 0.031708
0.968811 0.663422 0.031799
0.195038 1.000000 0.052765
0.465088 0.993896 0.039673
0.749878 0.995331 0.039917
0.931000 0.997467 0.040894
0.971649 0.845795 0.036957
0.073303 0.104553 0.347565
0.251526 0.060699 0.351685
0.573639 0.077362 0.433319
0.747955 0.088501 0.458801
0.931671 0.101624 0.484192
0.065216 0.376648 0.348816
0.311920 0.351135 0.363037
0.591736 0.348846 0.408722
0.772400 0.355713 0.440186
0.963684 0.363556 0.472717
0.033905 0.632477 0.287354
0.313965 0.626465 0.320984
0.616882 0.612885 0.371948
0.777283 0.569733 0.374115
0.969147 0.544037 0.376007
0.038971 0.811310 0.257294
0.324432 0.807312 0.305481
0.667969 0.810486 0.374756
0.792725 0.756134 0.375092
0.973083 0.718781 0.377472
0.045105 0.998688 0.218933
0.354614 0.996552 0.306091
0.701813 0.997803 0.375885
0.883026 1.000000 0.375824
0.976288 0.901978 0.376923
0.105774 0.144958 0.598083
0.225586 0.060822 0.606567
0.486481 0.074280 0.607727
0.752594 0.089752 0.714478
0.935699 0.103058 0.740570
0.101532 0.423584 0.606812
0.325867 0.399323 0.622467
0.546692 0.348755 0.624939
0.777252 0.356567 0.697296
0.968018 0.364624 0.730286
0.073578 0.654968 0.563019
0.324310 0.661774 0.608490
0.605530 0.644165 0.634766
0.786469 0.640259 0.663635
0.979309 0.647003 0.697968
0.039825 0.812225 0.525055
0.321472 0.805664 0.557648
0.607819 0.812653 0.608032
0.801147 0.805969 0.641052
0.981079 0.768768 0.643799
0.044556 0.998199 0.497986
0.317780 0.995148 0.534821
0.615997 0.999573 0.589111
0.848358 1.000000 0.656036
0.983765 0.951660 0.645874
0.127502 0.167633 0.744446
0.216888 0.058167 0.754150
0.469635 0.074860 0.759674
0.638519 0.083984 0.756439
0.938782 0.103607 0.890778
0.124268 0.445770 0.753021
0.336365 0.426697 0.773926
0.528473 0.350067 0.776855
0.703705 0.355072 0.778564
0.971161 0.365021 0.881165
0.106598 0.736359 0.766327
0.335297 0.710083 0.780609
0.612427 0.673004 0.788330
0.758301 0.640167 0.789429
0.982361 0.647369 0.849426
0.073151 0.821045 0.682068
0.329926 0.825195 0.725006
0.612793 0.833710 0.776703
0.794464 0.824158 0.795135
0.987366 0.824738 0.827606
0.045349 0.999054 0.652954
0.324982 0.993347 0.686584
0.613892 0.999176 0.736176
0.803345 1.000000 0.776398
0.989075 0.980957 0.801331
0.150879 0.189850 0.891754
0.211670 0.054047 0.900482
0.453644 0.075165 0.911865
0.620880 0.084808 0.910400
0.799469 0.095306 0.905151
0.148499 0.467682 0.900208
0.348663 0.453613 0.926270
0.511627 0.350739 0.929413
0.684998 0.356415 0.932190
0.870850 0.362122 0.933197
0.135223 0.756226 0.911987
0.347412 0.737183 0.933350
0.620270 0.701782 0.942841
0.739044 0.641724 0.943573
0.927155 0.646149 0.945465
0.115906 0.941010 0.923462
0.344147 0.914948 0.938110
0.621185 0.877838 0.946350
0.801239 0.853394 0.950562
0.960663 0.824280 0.951691
0.065826 0.991760 0.799774
0.334442 0.990814 0.837860
0.618866 0.998596 0.889221
0.809479 1.000000 0.923187
1.000000 1.000000 1.000000
