custom_nodes/comfyui-vrgamedevgirl/LUTS/Bright_High_Contrast_Muted_Cool.cube
#Created by: Adobe Photoshop Export Color Lookup Plugin
TITLE "NOLUT.png"
#LUT size
LUT_3D_SIZE 65
#data domain
DOMAIN_MIN 0.0 0.0 0.0
DOMAIN_MAX 1.0 1.0 1.0
#LUT data points
0.012726 0.107544 0.212402
0.012848 0.107544 0.212402
0.013153 0.107544 0.212402
0.013885 0.107544 0.212402
0.014954 0.107544 0.212402
0.016449 0.107544 0.212402
0.018555 0.107544 0.212402
0.021332 0.107544 0.212402
0.024841 0.107544 0.212402
0.029388 0.107544 0.212402
0.034943 0.107544 0.212402
0.041901 0.107544 0.212402
0.050354 0.107544 0.212402
0.060394 0.107544 0.212402
0.072113 0.107544 0.212402
0.085876 0.107544 0.212402
0.101379 0.107544 0.212402
0.119019 0.107544 0.212402
0.138123 0.107544 0.212402
0.158630 0.107544 0.212402
0.180115 0.107544 0.212402
0.201691 0.107544 0.212402
0.222382 0.107544 0.212402
0.241211 0.107544 0.212402
0.258820 0.107544 0.212402
0.278046 0.107544 0.212402
0.302185 0.107544 0.212402
0.333130 0.107544 0.212372
0.370300 0.107544 0.212433
0.411530 0.107544 0.212402
0.455048 0.107544 0.212402
0.497009 0.107544 0.212372
0.537567 0.107544 0.212402
0.580322 0.107544 0.212433
0.628937 0.107544 0.212402
0.681427 0.107544 0.212433
0.734222 0.107544 0.212433
0.783813 0.107544 0.212433
0.826447 0.107544 0.212402
0.862854 0.107544 0.212402
0.893646 0.107544 0.212433
0.920044 0.107544 0.212402
0.943176 0.107544 0.212372
0.963806 0.107544 0.212402
0.982910 0.107544 0.212372
1.000000 0.107544 0.212280
1.000000 0.107544 0.212494
1.000000 0.107544 0.212280
1.000000 0.107544 0.212372
1.000000 0.107544 0.212372
1.000000 0.107544 0.212372
1.000000 0.107544 0.212372
1.000000 0.107544 0.212372
1.000000 0.107544 0.212372
1.000000 0.107544 0.212372
1.000000 0.107544 0.212372
1.000000 0.107544 0.212372
1.000000 0.107544 0.212372
1.000000 0.107544 0.212372
1.000000 0.107544 0.212372
1.000000 0.107544 0.212372
1.000000 0.107544 0.212372
1.000000 0.107544 0.212372
1.000000 0.107544 0.212372
1.000000 0.107544 0.212372
0.012726 0.107910 0.212402
0.012848 0.107910 0.212402
0.013153 0.107910 0.212402
0.013885 0.107910 0.212402
0.014954 0.107910 0.212402
0.016449 0.107910 0.212402
0.018555 0.107910 0.212402
0.021332 0.107910 0.212402
0.024841 0.107910 0.212402
0.029388 0.107910 0.212402
0.034943 0.107910 0.212402
0.041901 0.107910 0.212402
0.050354 0.107910 0.212402
0.060394 0.107910 0.212402
0.072113 0.107910 0.212402
0.085876 0.107910 0.212402
0.101379 0.107910 0.212402
0.119019 0.107910 0.212402
0.138123 0.107910 0.212402
0.158630 0.107910 0.212402
0.180115 0.107910 0.212402
0.201691 0.107910 0.212402
0.222382 0.107910 0.212402
0.241211 0.107910 0.212402
0.258820 0.107910 0.212402
0.278046 0.107910 0.212372
0.302185 0.107910 0.212402
0.333130 0.107910 0.212402
0.370300 0.107910 0.212402
0.411530 0.107910 0.212372
0.455048 0.107910 0.212402
0.497009 0.107910 0.212372
0.537567 0.107910 0.212402
0.580322 0.107910 0.212402
0.628937 0.107910 0.212372
0.681427 0.107910 0.212372
0.734222 0.107910 0.212372
0.783813 0.107910 0.212463
0.826447 0.107910 0.212402
0.862854 0.107910 0.212402
0.893646 0.107910 0.212402
0.920044 0.107910 0.212372
0.943176 0.107910 0.212280
0.963806 0.107910 0.212280
0.982910 0.107910 0.212463
1.000000 0.107910 0.212402
1.000000 0.107910 0.212372
1.000000 0.107910 0.212402
1.000000 0.107910 0.212402
1.000000 0.107910 0.212402
1.000000 0.107910 0.212402
1.000000 0.107910 0.212402
1.000000 0.107910 0.212402
1.000000 0.107910 0.212402
1.000000 0.107910 0.212402
1.000000 0.107910 0.212402
1.000000 0.107910 0.212402
1.000000 0.107910 0.212402
1.000000 0.107910 0.212402
1.000000 0.107910 0.212402
1.000000 0.107910 0.212402
1.000000 0.107910 0.212402
1.000000 0.107910 0.212402
1.000000 0.107910 0.212402
1.000000 0.107910 0.212402
0.012726 0.109528 0.212402
0.012848 0.109528 0.212402
0.013153 0.109528 0.212402
0.013885 0.109528 0.212402
0.014954 0.109528 0.212402
0.016449 0.109528 0.212402
0.018555 0.109558 0.212402
0.021332 0.109528 0.212402
0.024841 0.109528 0.212402
0.029388 0.109528 0.212402
0.034943 0.109528 0.212402
0.041901 0.109528 0.212402
0.050354 0.109528 0.212402
0.060394 0.109528 0.212402
0.072113 0.109528 0.212402
0.085876 0.109528 0.212402
0.101379 0.109528 0.212402
0.119019 0.109528 0.212402
0.138123 0.109528 0.212402
0.158630 0.109528 0.212402
0.180115 0.109528 0.212402
0.201691 0.109528 0.212402
0.222382 0.109528 0.212402
0.241211 0.109528 0.212402
0.258820 0.109528 0.212402
0.278046 0.109528 0.212402
0.302185 0.109528 0.212402
0.333130 0.109528 0.212402
0.370300 0.109528 0.212402
0.411530 0.109528 0.212402
0.455048 0.109528 0.212402
0.497009 0.109528 0.212402
0.537567 0.109528 0.212372
0.580322 0.109528 0.212402
0.628937 0.109528 0.212433
0.681427 0.109528 0.212372
0.734222 0.109528 0.212433
0.783813 0.109528 0.212280
0.826447 0.109528 0.212372
0.862854 0.109528 0.212433
0.893646 0.109528 0.212402
0.920044 0.109528 0.212463
0.943176 0.109528 0.212372
0.963806 0.109528 0.212280
0.982910 0.109528 0.212402
1.000000 0.109528 0.212494
1.000000 0.109528 0.212402
1.000000 0.109528 0.212402
1.000000 0.109528 0.212372
1.000000 0.109528 0.212372
1.000000 0.109528 0.212372
1.000000 0.109528 0.212372
1.000000 0.109528 0.212372
1.000000 0.109528 0.212372
1.000000 0.109528 0.212372
1.000000 0.109528 0.212372
1.000000 0.109528 0.212372
1.000000 0.109528 0.212372
1.000000 0.109528 0.212372
1.000000 0.109528 0.212372
1.000000 0.109528 0.212372
1.000000 0.109528 0.212372
1.000000 0.109528 0.212372
1.000000 0.109528 0.212372
1.000000 0.109528 0.212372
0.012726 0.112183 0.212402
0.012848 0.112183 0.212402
0.013153 0.112183 0.212402
0.013885 0.112183 0.212402
0.014954 0.112183 0.212402
0.016449 0.112183 0.212402
0.018555 0.112183 0.212402
0.021332 0.112183 0.212402
0.024841 0.112183 0.212402
0.029388 0.112183 0.212402
0.034943 0.112183 0.212402
0.041901 0.112183 0.212402
0.050354 0.112183 0.212402
0.060394 0.112183 0.212402
0.072113 0.112183 0.212402
0.085876 0.112183 0.212402
0.101379 0.112183 0.212402
0.119019 0.112183 0.212402
0.138123 0.112183 0.212402
0.158630 0.112183 0.212402
0.180115 0.112183 0.212402
0.201691 0.112183 0.212402
0.222382 0.112183 0.212402
0.241211 0.112183 0.212402
0.258820 0.112183 0.212402
0.278046 0.112183 0.212372
0.302185 0.112183 0.212402
0.333130 0.112183 0.212402
0.370300 0.112183 0.212402
0.411530 0.112183 0.212402
0.455048 0.112183 0.212372
0.497009 0.112183 0.212433
0.537567 0.112183 0.212402
0.580322 0.112183 0.212433
0.628937 0.112183 0.212433
0.681427 0.112183 0.212402
0.734222 0.112183 0.212433
0.783813 0.112183 0.212402
0.826447 0.112183 0.212433
0.862854 0.112183 0.212433
0.893646 0.112183 0.212433
0.920044 0.112183 0.212402
0.943176 0.112183 0.212372
0.963806 0.112183 0.212433
0.982910 0.112183 0.212433
1.000000 0.112183 0.212402
1.000000 0.112183 0.212433
1.000000 0.112183 0.212280
1.000000 0.112183 0.212494
1.000000 0.112183 0.212494
1.000000 0.112183 0.212494
1.000000 0.112183 0.212494
1.000000 0.112183 0.212494
1.000000 0.112183 0.212494
1.000000 0.112183 0.212494
1.000000 0.112183 0.212494
1.000000 0.112183 0.212494
1.000000 0.112183 0.212494
1.000000 0.112183 0.212494
1.000000 0.112183 0.212494
1.000000 0.112183 0.212494
1.000000 0.112183 0.212494
1.000000 0.112183 0.212494
1.000000 0.112183 0.212494
1.000000 0.112183 0.212494
0.012726 0.115967 0.212402
0.012848 0.115997 0.212402
0.013153 0.115967 0.212402
0.013885 0.115967 0.212402
0.014954 0.115967 0.212402
0.016449 0.115906 0.212402
0.018555 0.115967 0.212402
0.021332 0.115967 0.212402
0.024841 0.115967 0.212402
0.029388 0.115967 0.212402
0.034943 0.115967 0.212402
0.041901 0.115967 0.212402
0.050354 0.115967 0.212402
0.060394 0.115967 0.212402
0.072113 0.115967 0.212402
0.085876 0.115967 0.212402
0.101379 0.115967 0.212402
0.119019 0.115967 0.212402
0.138123 0.115967 0.212402
0.158630 0.115967 0.212402
0.180115 0.115967 0.212402
0.201691 0.115967 0.212402
0.222382 0.115967 0.212402
0.241211 0.115967 0.212402
0.258820 0.115967 0.212402
0.278046 0.115967 0.212402
0.302185 0.115967 0.212402
0.333130 0.115967 0.212372
0.370300 0.115967 0.212402
0.411530 0.115967 0.212402
0.455048 0.115967 0.212433
0.497009 0.115967 0.212433
0.537567 0.115967 0.212402
0.580322 0.115967 0.212372
0.628937 0.115967 0.212433
0.681427 0.115967 0.212433
0.734222 0.115967 0.212280
0.783813 0.115967 0.212372
0.826447 0.115967 0.212402
0.862854 0.115967 0.212372
0.893646 0.115967 0.212372
0.920044 0.115967 0.212280
0.943176 0.115967 0.212280
0.963806 0.115967 0.212402
0.982910 0.115967 0.212463
1.000000 0.115967 0.212219
1.000000 0.115967 0.212402
1.000000 0.115967 0.212402
1.000000 0.115967 0.212463
1.000000 0.115967 0.212463
1.000000 0.115967 0.212463
1.000000 0.115967 0.212463
1.000000 0.115967 0.212463
1.000000 0.115967 0.212463
1.000000 0.115967 0.212463
1.000000 0.115967 0.212463
1.000000 0.115967 0.212463
1.000000 0.115967 0.212463
1.000000 0.115967 0.212463
1.000000 0.115967 0.212463
1.000000 0.115967 0.212463
1.000000 0.115967 0.212463
1.000000 0.115967 0.212463
1.000000 0.115967 0.212463
1.000000 0.115967 0.212463
0.012726 0.120911 0.212402
0.012848 0.120911 0.212402
0.013153 0.120880 0.212402
0.013885 0.120911 0.212402
0.014954 0.120911 0.212402
0.016449 0.120911 0.212402
0.018555 0.120911 0.212402
0.021332 0.120911 0.212402
0.024841 0.120972 0.212402
0.029388 0.120880 0.212402
0.034943 0.120972 0.212402
0.041901 0.120911 0.212402
0.050354 0.120911 0.212402
0.060394 0.120911 0.212402
0.072113 0.120911 0.212402
0.085876 0.120911 0.212402
0.101379 0.120911 0.212402
0.119019 0.120911 0.212402
0.138123 0.120911 0.212402
0.158630 0.120911 0.212402
0.180115 0.120911 0.212402
0.201691 0.120911 0.212402
0.222382 0.120911 0.212402
0.241211 0.120911 0.212402
0.258820 0.120911 0.212402
0.278046 0.120911 0.212402
0.302185 0.120911 0.212402
0.333130 0.120911 0.212402
0.370300 0.120911 0.212372
0.411530 0.120911 0.212372
0.455048 0.120911 0.212433
0.497009 0.120911 0.212372
0.537567 0.120911 0.212402
0.580322 0.120911 0.212402
0.628937 0.120911 0.212433
0.681427 0.120911 0.212433
0.734222 0.120911 0.212372
0.783813 0.120911 0.212433
0.826447 0.120911 0.212372
0.862854 0.120911 0.212433
0.893646 0.120911 0.212372
0.920044 0.120911 0.212463
0.943176 0.120911 0.212433
0.963806 0.120911 0.212280
0.982910 0.120911 0.212372
1.000000 0.120911 0.212402
1.000000 0.120911 0.212280
1.000000 0.120911 0.212372
1.000000 0.120911 0.212280
1.000000 0.120911 0.212280
1.000000 0.120911 0.212280
1.000000 0.120911 0.212280
1.000000 0.120911 0.212280
1.000000 0.120911 0.212280
1.000000 0.120911 0.212280
1.000000 0.120911 0.212280
1.000000 0.120911 0.212280
1.000000 0.120911 0.212280
1.000000 0.120911 0.212280
1.000000 0.120911 0.212280
1.000000 0.120911 0.212280
1.000000 0.120911 0.212280
1.000000 0.120911 0.212280
1.000000 0.120911 0.212280
1.000000 0.120911 0.212280
0.012726 0.127808 0.212402
0.012848 0.127869 0.212402
0.013153 0.127808 0.212402
0.013885 0.127808 0.212402
0.014954 0.127808 0.212402
0.016449 0.127808 0.212402
0.018555 0.127808 0.212402
0.021332 0.127808 0.212402
0.024841 0.127808 0.212402
0.029388 0.127808 0.212402
0.034943 0.127808 0.212402
0.041901 0.127808 0.212402
0.050354 0.127808 0.212402
0.060394 0.127808 0.212402
0.072113 0.127808 0.212402
0.085876 0.127808 0.212402
0.101379 0.127808 0.212402
0.119019 0.127808 0.212402
0.138123 0.127808 0.212402
0.158630 0.127808 0.212402
0.180115 0.127808 0.212402
0.201691 0.127808 0.212402
0.222382 0.127808 0.212402
0.241211 0.127808 0.212402
0.258820 0.127808 0.212402
0.278046 0.127808 0.212402
0.302185 0.127808 0.212402
0.333130 0.127808 0.212433
0.370300 0.127808 0.212433
0.411530 0.127808 0.212372
0.455048 0.127808 0.212372
0.497009 0.127808 0.212402
0.537567 0.127808 0.212402
0.580322 0.127808 0.212402
0.628937 0.127808 0.212402
0.681427 0.127808 0.212433
0.734222 0.127808 0.212433
0.783813 0.127808 0.212433
0.826447 0.127808 0.212372
0.862854 0.127808 0.212433
0.893646 0.127808 0.212402
0.920044 0.127808 0.212402
0.943176 0.127808 0.212433
0.963806 0.127808 0.212433
0.982910 0.127808 0.212402
1.000000 0.127808 0.212402
1.000000 0.127808 0.212219
1.000000 0.127808 0.212219
1.000000 0.127808 0.212402
1.000000 0.127808 0.212402
1.000000 0.127808 0.212402
1.000000 0.127808 0.212402
1.000000 0.127808 0.212402
1.000000 0.127808 0.212402
1.000000 0.127808 0.212402
1.000000 0.127808 0.212402
1.000000 0.127808 0.212402
1.000000 0.127808 0.212402
1.000000 0.127808 0.212402
1.000000 0.127808 0.212402
1.000000 0.127808 0.212402
1.000000 0.127808 0.212402
1.000000 0.127808 0.212402
1.000000 0.127808 0.212402
1.000000 0.127808 0.212402
0.012726 0.135742 0.212402
0.012848 0.135712 0.212402
0.013153 0.135803 0.212402
0.013885 0.135742 0.212402
0.014954 0.135742 0.212402
0.016449 0.135803 0.212402
0.018555 0.135742 0.212402
0.021332 0.135742 0.212402
0.024841 0.135742 0.212402
0.029388 0.135742 0.212402
0.034943 0.135742 0.212402
0.041901 0.135742 0.212402
0.050354 0.135742 0.212402
0.060394 0.135742 0.212402
0.072113 0.135742 0.212402
0.085876 0.135742 0.212402
0.101379 0.135742 0.212402
0.119019 0.135742 0.212402
0.138123 0.135742 0.212402
0.158630 0.135742 0.212402
0.180115 0.135742 0.212402
0.201691 0.135742 0.212402
0.222382 0.135742 0.212402
0.241211 0.135742 0.212402
0.258820 0.135742 0.212402
0.278046 0.135742 0.212402
0.302185 0.135742 0.212402
0.333130 0.135742 0.212402
0.370300 0.135742 0.212402
0.411530 0.135742 0.212372
0.455048 0.135742 0.212402
0.497009 0.135742 0.212402
0.537567 0.135742 0.212402
0.580322 0.135742 0.212372
0.628937 0.135742 0.212402
0.681427 0.135742 0.212402
0.734222 0.135742 0.212463
0.783813 0.135742 0.212372
0.826447 0.135742 0.212433
0.862854 0.135742 0.212433
0.893646 0.135742 0.212402
0.920044 0.135742 0.212372
0.943176 0.135742 0.212402
0.963806 0.135742 0.212402
0.982910 0.135742 0.212433
1.000000 0.135742 0.212372
1.000000 0.135742 0.212372
1.000000 0.135742 0.212494
1.000000 0.135742 0.212463
1.000000 0.135742 0.212463
1.000000 0.135742 0.212463
1.000000 0.135742 0.212463
1.000000 0.135742 0.212463
1.000000 0.135742 0.212463
1.000000 0.135742 0.212463
1.000000 0.135742 0.212463
1.000000 0.135742 0.212463
1.000000 0.135742 0.212463
1.000000 0.135742 0.212463
1.000000 0.135742 0.212463
1.000000 0.135742 0.212463
1.000000 0.135742 0.212463
1.000000 0.135742 0.212463
1.000000 0.135742 0.212463
1.000000 0.135742 0.212463
0.012726 0.145294 0.212402
0.012848 0.145294 0.212402
0.013153 0.145294 0.212402
0.013885 0.145294 0.212402
0.014954 0.145294 0.212402
0.016449 0.145294 0.212402
0.018555 0.145294 0.212402
0.021332 0.145294 0.212402
0.024841 0.145294 0.212402
0.029388 0.145294 0.212402
0.034943 0.145294 0.212402
0.041901 0.145294 0.212402
0.050354 0.145294 0.212402
0.060394 0.145294 0.212402
0.072113 0.145294 0.212402
0.085876 0.145294 0.212402
0.101379 0.145294 0.212402
0.119019 0.145294 0.212402
0.138123 0.145294 0.212402
0.158630 0.145294 0.212402
0.180115 0.145294 0.212402
0.201691 0.145294 0.212402
0.222382 0.145294 0.212402
0.241211 0.145294 0.212402
0.258820 0.145294 0.212402
0.278046 0.145294 0.212402
0.302185 0.145294 0.212402
0.333130 0.145294 0.212372
0.370300 0.145294 0.212402
0.411530 0.145294 0.212402
0.455048 0.145294 0.212433
0.497009 0.145294 0.212433
0.537567 0.145294 0.212433
0.580322 0.145294 0.212372
0.628937 0.145294 0.212433
0.681427 0.145294 0.212372
0.734222 0.145294 0.212402
0.783813 0.145294 0.212372
0.826447 0.145294 0.212402
0.862854 0.145294 0.212372
0.893646 0.145294 0.212280
0.920044 0.145294 0.212372
0.943176 0.145294 0.212280
0.963806 0.145294 0.212280
0.982910 0.145294 0.212372
1.000000 0.145294 0.212463
1.000000 0.145294 0.212280
1.000000 0.145294 0.212280
1.000000 0.145294 0.212280
1.000000 0.145294 0.212280
1.000000 0.145294 0.212280
1.000000 0.145294 0.212280
1.000000 0.145294 0.212280
1.000000 0.145294 0.212280
1.000000 0.145294 0.212280
1.000000 0.145294 0.212280
1.000000 0.145294 0.212280
1.000000 0.145294 0.212280
1.000000 0.145294 0.212280
1.000000 0.145294 0.212280
1.000000 0.145294 0.212280
1.000000 0.145294 0.212280
1.000000 0.145294 0.212280
1.000000 0.145294 0.212280
1.000000 0.145294 0.212280
0.012726 0.155975 0.212402
0.012848 0.156036 0.212402
0.013153 0.156036 0.212402
0.013885 0.155975 0.212402
0.014954 0.156036 0.212402
0.016449 0.156036 0.212402
0.018555 0.156036 0.212402
0.021332 0.156036 0.212402
0.024841 0.155975 0.212402
0.029388 0.156036 0.212402
0.034943 0.155975 0.212402
0.041901 0.156036 0.212402
0.050354 0.156036 0.212402
0.060394 0.156036 0.212402
0.072113 0.156036 0.212402
0.085876 0.156036 0.212402
0.101379 0.156036 0.212402
0.119019 0.156036 0.212402
0.138123 0.156036 0.212402
0.158630 0.156036 0.212402
0.180115 0.156036 0.212402
0.201691 0.156036 0.212402
0.222382 0.156036 0.212402
0.241211 0.156036 0.212402
0.258820 0.156036 0.212402
0.278046 0.156036 0.212402
0.302185 0.156036 0.212402
0.333130 0.156036 0.212402
0.370300 0.156036 0.212402
0.411530 0.156036 0.212402
0.455048 0.156036 0.212402
0.497009 0.156036 0.212433
0.537567 0.156036 0.212402
0.580322 0.156036 0.212433
0.628937 0.156036 0.212372
0.681427 0.156036 0.212433
0.734222 0.156036 0.212372
0.783813 0.156036 0.212372
0.826447 0.156036 0.212402
0.862854 0.156036 0.212402
0.893646 0.156036 0.212433
0.920044 0.156036 0.212463
0.943176 0.156036 0.212463
0.963806 0.156036 0.212372
0.982910 0.156036 0.212463
1.000000 0.156036 0.212372
1.000000 0.156036 0.212402
1.000000 0.156036 0.212433
1.000000 0.156036 0.212433
1.000000 0.156036 0.212433
1.000000 0.156036 0.212433
1.000000 0.156036 0.212433
1.000000 0.156036 0.212433
1.000000 0.156036 0.212433
1.000000 0.156036 0.212433
1.000000 0.156036 0.212433
1.000000 0.156036 0.212433
1.000000 0.156036 0.212433
1.000000 0.156036 0.212433
1.000000 0.156036 0.212433
1.000000 0.156036 0.212433
1.000000 0.156036 0.212433
1.000000 0.156036 0.212433
1.000000 0.156036 0.212433
1.000000 0.156036 0.212433
0.012726 0.168152 0.212402
0.012848 0.168152 0.212402
0.013153 0.168152 0.212402
0.013885 0.168152 0.212402
0.014954 0.168152 0.212402
0.016449 0.168213 0.212402
0.018555 0.168152 0.212402
0.021332 0.168152 0.212402
0.024841 0.168213 0.212402
0.029388 0.168152 0.212402
0.034943 0.168152 0.212402
0.041901 0.168152 0.212402
0.050354 0.168152 0.212402
0.060394 0.168152 0.212402
0.072113 0.168152 0.212402
0.085876 0.168152 0.212402
0.101379 0.168152 0.212402
0.119019 0.168152 0.212402
0.138123 0.168152 0.212402
0.158630 0.168152 0.212402
0.180115 0.168152 0.212402
0.201691 0.168152 0.212402
0.222382 0.168152 0.212402
0.241211 0.168152 0.212402
0.258820 0.168152 0.212402
0.278046 0.168152 0.212402
0.302185 0.168152 0.212402
0.333130 0.168152 0.212402
0.370300 0.168152 0.212402
0.411530 0.168152 0.212372
0.455048 0.168152 0.212433
0.497009 0.168152 0.212433
0.537567 0.168152 0.212372
0.580322 0.168152 0.212433
0.628937 0.168152 0.212372
0.681427 0.168152 0.212433
0.734222 0.168152 0.212372
0.783813 0.168152 0.212402
0.826447 0.168152 0.212433
0.862854 0.168152 0.212372
0.893646 0.168152 0.212402
0.920044 0.168152 0.212463
0.943176 0.168152 0.212402
0.963806 0.168152 0.212433
0.982910 0.168152 0.212402
1.000000 0.168152 0.212372
1.000000 0.168152 0.212219
1.000000 0.168152 0.212463
1.000000 0.168152 0.212463
1.000000 0.168152 0.212463
1.000000 0.168152 0.212463
1.000000 0.168152 0.212463
1.000000 0.168152 0.212463
1.000000 0.168152 0.212463
1.000000 0.168152 0.212463
1.000000 0.168152 0.212463
1.000000 0.168152 0.212463
1.000000 0.168152 0.212463
1.000000 0.168152 0.212463
1.000000 0.168152 0.212463
1.000000 0.168152 0.212463
1.000000 0.168152 0.212463
1.000000 0.168152 0.212463
1.000000 0.168152 0.212463
1.000000 0.168152 0.212463
0.012726 0.181335 0.212402
0.012848 0.181335 0.212402
0.013153 0.181335 0.212402
0.013885 0.181335 0.212402
0.014954 0.181335 0.212402
0.016449 0.181335 0.212402
0.018555 0.181335 0.212402
0.021332 0.181274 0.212402
0.024841 0.181366 0.212402
0.029388 0.181274 0.212402
0.034943 0.181335 0.212402
0.041901 0.181335 0.212402
0.050354 0.181335 0.212402
0.060394 0.181335 0.212402
0.072113 0.181335 0.212402
0.085876 0.181335 0.212402
0.101379 0.181335 0.212402
0.119019 0.181335 0.212402
0.138123 0.181335 0.212402
0.158630 0.181335 0.212402
0.180115 0.181335 0.212402
0.201691 0.181335 0.212402
0.222382 0.181335 0.212402
0.241211 0.181335 0.212402
0.258820 0.181335 0.212402
0.278046 0.181335 0.212402
0.302185 0.181335 0.212402
0.333130 0.181335 0.212402
0.370300 0.181335 0.212402
0.411530 0.181335 0.212433
0.455048 0.181335 0.212433
0.497009 0.181335 0.212402
0.537567 0.181335 0.212433
0.580322 0.181335 0.212372
0.628937 0.181335 0.212402
0.681427 0.181335 0.212433
0.734222 0.181335 0.212372
0.783813 0.181335 0.212433
0.826447 0.181335 0.212433
0.862854 0.181335 0.212463
0.893646 0.181335 0.212372
0.920044 0.181335 0.212280
0.943176 0.181335 0.212402
0.963806 0.181335 0.212280
0.982910 0.181335 0.212402
1.000000 0.181335 0.212280
1.000000 0.181335 0.212219
1.000000 0.181335 0.212372
1.000000 0.181335 0.212463
1.000000 0.181335 0.212463
1.000000 0.181335 0.212463
1.000000 0.181335 0.212463
1.000000 0.181335 0.212463
1.000000 0.181335 0.212463
1.000000 0.181335 0.212463
1.000000 0.181335 0.212463
1.000000 0.181335 0.212463
1.000000 0.181335 0.212463
1.000000 0.181335 0.212463
1.000000 0.181335 0.212463
1.000000 0.181335 0.212463
1.000000 0.181335 0.212463
1.000000 0.181335 0.212463
1.000000 0.181335 0.212463
1.000000 0.181335 0.212463
0.012726 0.195435 0.212402
0.012848 0.195404 0.212402
0.013153 0.195404 0.212402
0.013885 0.195404 0.212402
0.014954 0.195404 0.212402
0.016449 0.195404 0.212402
0.018555 0.195404 0.212402
0.021332 0.195404 0.212402
0.024841 0.195404 0.212402
0.029388 0.195343 0.212402
0.034943 0.195404 0.212402
0.041901 0.195404 0.212402
0.050354 0.195404 0.212402
0.060394 0.195404 0.212402
0.072113 0.195404 0.212402
0.085876 0.195404 0.212402
0.101379 0.195404 0.212402
0.119019 0.195404 0.212402
0.138123 0.195404 0.212402
0.158630 0.195404 0.212402
0.180115 0.195404 0.212402
0.201691 0.195404 0.212402
0.222382 0.195404 0.212402
0.241211 0.195404 0.212402
0.258820 0.195404 0.212402
0.278046 0.195404 0.212402
0.302185 0.195404 0.212402
0.333130 0.195404 0.212402
0.370300 0.195404 0.212372
0.411530 0.195404 0.212402
0.455048 0.195404 0.212402
0.497009 0.195404 0.212402
0.537567 0.195404 0.212433
0.580322 0.195404 0.212402
0.628937 0.195404 0.212402
0.681427 0.195404 0.212433
0.734222 0.195404 0.212372
0.783813 0.195404 0.212372
0.826447 0.195404 0.212280
0.862854 0.195404 0.212402
0.893646 0.195404 0.212433
0.920044 0.195404 0.212402
0.943176 0.195404 0.212372
0.963806 0.195404 0.212372
0.982910 0.195404 0.212433
1.000000 0.195404 0.212433
1.000000 0.195404 0.212372
1.000000 0.195404 0.212402
1.000000 0.195404 0.212433
1.000000 0.195404 0.212433
1.000000 0.195404 0.212433
1.000000 0.195404 0.212433
1.000000 0.195404 0.212433
1.000000 0.195404 0.212433
1.000000 0.195404 0.212433
1.000000 0.195404 0.212433
1.000000 0.195404 0.212433
1.000000 0.195404 0.212433
1.000000 0.195404 0.212433
1.000000 0.195404 0.212433
1.000000 0.195404 0.212433
1.000000 0.195404 0.212433
1.000000 0.195404 0.212433
1.000000 0.195404 0.212433
1.000000 0.195404 0.212433
0.012726 0.209839 0.212402
0.012848 0.209839 0.212402
0.013153 0.209808 0.212402
0.013885 0.209808 0.212402
0.014954 0.209808 0.212402
0.016449 0.209778 0.212402
0.018555 0.209808 0.212402
0.021332 0.209808 0.212402
0.024841 0.209808 0.212402
0.029388 0.209808 0.212402
0.034943 0.209808 0.212402
0.041901 0.209808 0.212402
0.050354 0.209808 0.212402
0.060394 0.209808 0.212402
0.072113 0.209808 0.212402
0.085876 0.209808 0.212402
0.101379 0.209808 0.212402
0.119019 0.209808 0.212402
0.138123 0.209808 0.212402
0.158630 0.209808 0.212402
0.180115 0.209808 0.212402
0.201691 0.209808 0.212402
0.222382 0.209808 0.212402
0.241211 0.209808 0.212402
0.258820 0.209808 0.212402
0.278046 0.209808 0.212402
0.302185 0.209808 0.212402
0.333130 0.209808 0.212402
0.370300 0.209808 0.212402
0.411530 0.209808 0.212402
0.455048 0.209808 0.212402
0.497009 0.209808 0.212402
0.537567 0.209808 0.212372
0.580322 0.209808 0.212372
0.628937 0.209808 0.212402
0.681427 0.209808 0.212372
0.734222 0.209808 0.212402
