custom_nodes/comfyui-vrgamedevgirl/LUTS/Bright_High_Contrast_Muted_Cool.cube
#Created by: Adobe Photoshop Export Color Lookup Plugin
TITLE "NOLUT.png"
#LUT size
LUT_3D_SIZE 5
#data domain
DOMAIN_MIN 0.0 0.0 0.0
DOMAIN_MAX 1.0 1.0 1.0
#LUT data points
0.012726 0.107544 0.212402
0.101379 0.107544 0.212402
0.537567 0.107544 0.212402
1.000000 0.107544 0.212372
1.000000 0.107544 0.212372
0.012726 0.250610 0.212433
0.101379 0.250610 0.212402
0.537567 0.250610 0.212402
1.000000 0.250458 0.212402
1.000000 0.250458 0.212402
0.012726 0.732544 0.212372
0.101379 0.732544 0.212402
0.537567 0.732544 0.212402
1.000000 0.732513 0.212402
1.000000 0.732513 0.212402
0.012726 1.000000 0.212433
0.101379 1.000000 0.212372
0.537598 1.000000 0.212402
1.000000 1.000000 0.212402
1.000000 1.000000 0.212402
0.012726 1.000000 0.212433
0.101379 1.000000 0.212372
0.537598 1.000000 0.212402
1.000000 1.000000 0.212402
1.000000 1.000000 0.212402
0.012726 0.107544 0.351807
0.101379 0.107605 0.351807
0.537567 0.107544 0.351868
1.000000 0.107544 0.351807
1.000000 0.107544 0.351807
0.012726 0.250610 0.351807
0.101379 0.250549 0.351807
0.537567 0.250610 0.351807
1.000000 0.250610 0.351929
1.000000 0.250610 0.351929
0.012726 0.732544 0.351715
0.101379 0.732544 0.351776
0.537598 0.732544 0.351807
1.000000 0.732605 0.351807
1.000000 0.732605 0.351807
0.012726 1.000000 0.351715
0.101379 1.000000 0.351685
0.537659 1.000000 0.351807
1.000000 1.000000 0.351807
1.000000 1.000000 0.351807
0.012726 1.000000 0.351715
0.101379 1.000000 0.351685
0.537659 1.000000 0.351807
1.000000 1.000000 0.351807
1.000000 1.000000 0.351807
0.012726 0.107513 0.828949
0.101379 0.107544 0.828949
0.537537 0.107544 0.828949
1.000000 0.107544 0.828949
1.000000 0.107544 0.828949
0.012726 0.250671 0.828949
0.101379 0.250671 0.828949
0.537567 0.250610 0.828949
1.000000 0.250610 0.828949
1.000000 0.250610 0.828949
0.012726 0.732422 0.828949
0.101379 0.732635 0.828949
0.537567 0.732513 0.828949
1.000000 0.732544 0.828918
1.000000 0.732544 0.828918
0.012726 1.000000 0.828857
0.101379 1.000000 0.829071
0.537567 1.000000 0.828918
1.000000 1.000000 0.828949
1.000000 1.000000 0.828949
0.012726 1.000000 0.828857
0.101379 1.000000 0.829071
0.537567 1.000000 0.828918
1.000000 1.000000 0.828949
1.000000 1.000000 0.828949
0.012726 0.107452 1.000000
0.101379 0.107544 1.000000
0.537659 0.107544 1.000000
1.000000 0.107544 1.000000
1.000000 0.107544 1.000000
0.012726 0.250671 1.000000
0.101379 0.250763 1.000000
0.537476 0.250610 1.000000
1.000000 0.250610 1.000000
1.000000 0.250610 1.000000
0.012726 0.732605 1.000000
0.101379 0.732605 1.000000
0.537567 0.732635 1.000000
1.000000 0.732544 1.000000
1.000000 0.732544 1.000000
0.012726 1.000000 1.000000
0.101379 1.000000 1.000000
0.537567 1.000000 1.000000
1.000000 1.000000 1.000000
1.000000 1.000000 1.000000
0.012726 1.000000 1.000000
0.101379 1.000000 1.000000
0.537567 1.000000 1.000000
1.000000 1.000000 1.000000
1.000000 1.000000 1.000000
0.012726 0.107452 1.000000
0.101379 0.107544 1.000000
0.537659 0.107544 1.000000
1.000000 0.107544 1.000000
1.000000 0.107544 1.000000
0.012726 0.250671 1.000000
0.101379 0.250763 1.000000
0.537476 0.250610 1.000000
1.000000 0.250610 1.000000
1.000000 0.250610 1.000000
0.012726 0.732605 1.000000
0.101379 0.732605 1.000000
0.537567 0.732635 1.000000
1.000000 0.732544 1.000000
1.000000 0.732544 1.000000
0.012726 1.000000 1.000000
0.101379 1.000000 1.000000
0.537567 1.000000 1.000000
1.000000 1.000000 1.000000
1.000000 1.000000 1.000000
0.012726 1.000000 1.000000
0.101379 1.000000 1.000000
0.537567 1.000000 1.000000
1.000000 1.000000 1.000000
1.000000 1.000000 1.000000
