custom_nodes/comfyui-vrgamedevgirl/LUTS/Bright_Muted_Cool_Magenta_Tint_Cool_Bright.cube
TITLE "Cool_Bright"
LUT_3D_SIZE 65
DOMAIN_MIN 0 0 0
DOMAIN_MAX 1 1 1
0.000000 0.000000 0.020000
0.022883 0.000000 0.020000
0.043296 0.000000 0.020000
0.062872 0.000000 0.020000
0.081922 0.000000 0.020000
0.100590 0.000000 0.020000
0.118961 0.000000 0.020000
0.137086 0.000000 0.020000
0.155005 0.000000 0.020000
0.172746 0.000000 0.020000
0.190328 0.000000 0.020000
0.207771 0.000000 0.020000
0.225087 0.000000 0.020000
0.242288 0.000000 0.020000
0.259383 0.000000 0.020000
0.276381 0.000000 0.020000
0.293288 0.000000 0.020000
0.310111 0.000000 0.020000
0.326854 0.000000 0.020000
0.343524 0.000000 0.020000
0.360123 0.000000 0.020000
0.376657 0.000000 0.020000
0.393127 0.000000 0.020000
0.409537 0.000000 0.020000
0.425891 0.000000 0.020000
0.442190 0.000000 0.020000
0.458437 0.000000 0.020000
0.474633 0.000000 0.020000
0.490783 0.000000 0.020000
0.506886 0.000000 0.020000
0.522944 0.000000 0.020000
0.538960 0.000000 0.020000
0.554934 0.000000 0.020000
0.570869 0.000000 0.020000
0.586765 0.000000 0.020000
0.602624 0.000000 0.020000
0.618446 0.000000 0.020000
0.634234 0.000000 0.020000
0.649987 0.000000 0.020000
0.665707 0.000000 0.020000
0.681395 0.000000 0.020000
0.697052 0.000000 0.020000
0.712678 0.000000 0.020000
0.728274 0.000000 0.020000
0.743841 0.000000 0.020000
0.759380 0.000000 0.020000
0.774892 0.000000 0.020000
0.790376 0.000000 0.020000
0.805834 0.000000 0.020000
0.821267 0.000000 0.020000
0.836674 0.000000 0.020000
0.852056 0.000000 0.020000
0.867415 0.000000 0.020000
0.882750 0.000000 0.020000
0.898061 0.000000 0.020000
0.913350 0.000000 0.020000
0.928617 0.000000 0.020000
0.943862 0.000000 0.020000
0.959086 0.000000 0.020000
0.974288 0.000000 0.020000
0.989471 0.000000 0.020000
1.000000 0.000000 0.020000
1.000000 0.000000 0.020000
1.000000 0.000000 0.020000
1.000000 0.000000 0.020000
0.000000 0.021257 0.020000
0.022883 0.021257 0.020000
0.043296 0.021257 0.020000
0.062872 0.021257 0.020000
0.081922 0.021257 0.020000
0.100590 0.021257 0.020000
0.118961 0.021257 0.020000
0.137086 0.021257 0.020000
0.155005 0.021257 0.020000
0.172746 0.021257 0.020000
0.190328 0.021257 0.020000
0.207771 0.021257 0.020000
0.225087 0.021257 0.020000
0.242288 0.021257 0.020000
0.259383 0.021257 0.020000
0.276381 0.021257 0.020000
0.293288 0.021257 0.020000
0.310111 0.021257 0.020000
0.326854 0.021257 0.020000
0.343524 0.021257 0.020000
0.360123 0.021257 0.020000
0.376657 0.021257 0.020000
0.393127 0.021257 0.020000
0.409537 0.021257 0.020000
0.425891 0.021257 0.020000
0.442190 0.021257 0.020000
0.458437 0.021257 0.020000
0.474633 0.021257 0.020000
0.490783 0.021257 0.020000
0.506886 0.021257 0.020000
0.522944 0.021257 0.020000
0.538960 0.021257 0.020000
0.554934 0.021257 0.020000
0.570869 0.021257 0.020000
0.586765 0.021257 0.020000
0.602624 0.021257 0.020000
0.618446 0.021257 0.020000
0.634234 0.021257 0.020000
0.649987 0.021257 0.020000
0.665707 0.021257 0.020000
0.681395 0.021257 0.020000
0.697052 0.021257 0.020000
0.712678 0.021257 0.020000
0.728274 0.021257 0.020000
0.743841 0.021257 0.020000
0.759380 0.021257 0.020000
0.774892 0.021257 0.020000
0.790376 0.021257 0.020000
0.805834 0.021257 0.020000
0.821267 0.021257 0.020000
0.836674 0.021257 0.020000
0.852056 0.021257 0.020000
0.867415 0.021257 0.020000
0.882750 0.021257 0.020000
0.898061 0.021257 0.020000
0.913350 0.021257 0.020000
0.928617 0.021257 0.020000
0.943862 0.021257 0.020000
0.959086 0.021257 0.020000
0.974288 0.021257 0.020000
0.989471 0.021257 0.020000
1.000000 0.021257 0.020000
1.000000 0.021257 0.020000
1.000000 0.021257 0.020000
1.000000 0.021257 0.020000
0.000000 0.040782 0.020000
0.022883 0.040782 0.020000
0.043296 0.040782 0.020000
0.062872 0.040782 0.020000
0.081922 0.040782 0.020000
0.100590 0.040782 0.020000
0.118961 0.040782 0.020000
0.137086 0.040782 0.020000
0.155005 0.040782 0.020000
0.172746 0.040782 0.020000
0.190328 0.040782 0.020000
0.207771 0.040782 0.020000
0.225087 0.040782 0.020000
0.242288 0.040782 0.020000
0.259383 0.040782 0.020000
0.276381 0.040782 0.020000
0.293288 0.040782 0.020000
0.310111 0.040782 0.020000
0.326854 0.040782 0.020000
0.343524 0.040782 0.020000
0.360123 0.040782 0.020000
0.376657 0.040782 0.020000
0.393127 0.040782 0.020000
0.409537 0.040782 0.020000
0.425891 0.040782 0.020000
0.442190 0.040782 0.020000
0.458437 0.040782 0.020000
0.474633 0.040782 0.020000
0.490783 0.040782 0.020000
0.506886 0.040782 0.020000
0.522944 0.040782 0.020000
0.538960 0.040782 0.020000
0.554934 0.040782 0.020000
0.570869 0.040782 0.020000
0.586765 0.040782 0.020000
0.602624 0.040782 0.020000
0.618446 0.040782 0.020000
0.634234 0.040782 0.020000
0.649987 0.040782 0.020000
0.665707 0.040782 0.020000
0.681395 0.040782 0.020000
0.697052 0.040782 0.020000
0.712678 0.040782 0.020000
0.728274 0.040782 0.020000
0.743841 0.040782 0.020000
0.759380 0.040782 0.020000
0.774892 0.040782 0.020000
0.790376 0.040782 0.020000
0.805834 0.040782 0.020000
0.821267 0.040782 0.020000
0.836674 0.040782 0.020000
0.852056 0.040782 0.020000
0.867415 0.040782 0.020000
0.882750 0.040782 0.020000
0.898061 0.040782 0.020000
0.913350 0.040782 0.020000
0.928617 0.040782 0.020000
0.943862 0.040782 0.020000
0.959086 0.040782 0.020000
0.974288 0.040782 0.020000
0.989471 0.040782 0.020000
1.000000 0.040782 0.020000
1.000000 0.040782 0.020000
1.000000 0.040782 0.020000
1.000000 0.040782 0.020000
0.000000 0.059702 0.020000
0.022883 0.059702 0.020000
0.043296 0.059702 0.020000
0.062872 0.059702 0.020000
0.081922 0.059702 0.020000
0.100590 0.059702 0.020000
0.118961 0.059702 0.020000
0.137086 0.059702 0.020000
0.155005 0.059702 0.020000
0.172746 0.059702 0.020000
0.190328 0.059702 0.020000
0.207771 0.059702 0.020000
0.225087 0.059702 0.020000
0.242288 0.059702 0.020000
0.259383 0.059702 0.020000
0.276381 0.059702 0.020000
0.293288 0.059702 0.020000
0.310111 0.059702 0.020000
0.326854 0.059702 0.020000
0.343524 0.059702 0.020000
0.360123 0.059702 0.020000
0.376657 0.059702 0.020000
0.393127 0.059702 0.020000
0.409537 0.059702 0.020000
0.425891 0.059702 0.020000
0.442190 0.059702 0.020000
0.458437 0.059702 0.020000
0.474633 0.059702 0.020000
0.490783 0.059702 0.020000
0.506886 0.059702 0.020000
0.522944 0.059702 0.020000
0.538960 0.059702 0.020000
0.554934 0.059702 0.020000
0.570869 0.059702 0.020000
0.586765 0.059702 0.020000
0.602624 0.059702 0.020000
0.618446 0.059702 0.020000
0.634234 0.059702 0.020000
0.649987 0.059702 0.020000
0.665707 0.059702 0.020000
0.681395 0.059702 0.020000
0.697052 0.059702 0.020000
0.712678 0.059702 0.020000
0.728274 0.059702 0.020000
0.743841 0.059702 0.020000
0.759380 0.059702 0.020000
0.774892 0.059702 0.020000
0.790376 0.059702 0.020000
0.805834 0.059702 0.020000
0.821267 0.059702 0.020000
0.836674 0.059702 0.020000
0.852056 0.059702 0.020000
0.867415 0.059702 0.020000
0.882750 0.059702 0.020000
0.898061 0.059702 0.020000
0.913350 0.059702 0.020000
0.928617 0.059702 0.020000
0.943862 0.059702 0.020000
0.959086 0.059702 0.020000
0.974288 0.059702 0.020000
0.989471 0.059702 0.020000
1.000000 0.059702 0.020000
1.000000 0.059702 0.020000
1.000000 0.059702 0.020000
1.000000 0.059702 0.020000
0.000000 0.078241 0.020000
0.022883 0.078241 0.020000
0.043296 0.078241 0.020000
0.062872 0.078241 0.020000
0.081922 0.078241 0.020000
0.100590 0.078241 0.020000
0.118961 0.078241 0.020000
0.137086 0.078241 0.020000
0.155005 0.078241 0.020000
0.172746 0.078241 0.020000
0.190328 0.078241 0.020000
0.207771 0.078241 0.020000
0.225087 0.078241 0.020000
0.242288 0.078241 0.020000
0.259383 0.078241 0.020000
0.276381 0.078241 0.020000
0.293288 0.078241 0.020000
0.310111 0.078241 0.020000
0.326854 0.078241 0.020000
0.343524 0.078241 0.020000
0.360123 0.078241 0.020000
0.376657 0.078241 0.020000
0.393127 0.078241 0.020000
0.409537 0.078241 0.020000
0.425891 0.078241 0.020000
0.442190 0.078241 0.020000
0.458437 0.078241 0.020000
0.474633 0.078241 0.020000
0.490783 0.078241 0.020000
0.506886 0.078241 0.020000
0.522944 0.078241 0.020000
0.538960 0.078241 0.020000
0.554934 0.078241 0.020000
0.570869 0.078241 0.020000
0.586765 0.078241 0.020000
0.602624 0.078241 0.020000
0.618446 0.078241 0.020000
0.634234 0.078241 0.020000
0.649987 0.078241 0.020000
0.665707 0.078241 0.020000
0.681395 0.078241 0.020000
0.697052 0.078241 0.020000
0.712678 0.078241 0.020000
0.728274 0.078241 0.020000
0.743841 0.078241 0.020000
0.759380 0.078241 0.020000
0.774892 0.078241 0.020000
0.790376 0.078241 0.020000
0.805834 0.078241 0.020000
0.821267 0.078241 0.020000
0.836674 0.078241 0.020000
0.852056 0.078241 0.020000
0.867415 0.078241 0.020000
0.882750 0.078241 0.020000
0.898061 0.078241 0.020000
0.913350 0.078241 0.020000
0.928617 0.078241 0.020000
0.943862 0.078241 0.020000
0.959086 0.078241 0.020000
0.974288 0.078241 0.020000
0.989471 0.078241 0.020000
1.000000 0.078241 0.020000
1.000000 0.078241 0.020000
1.000000 0.078241 0.020000
1.000000 0.078241 0.020000
0.000000 0.096500 0.020000
0.022883 0.096500 0.020000
0.043296 0.096500 0.020000
0.062872 0.096500 0.020000
0.081922 0.096500 0.020000
0.100590 0.096500 0.020000
0.118961 0.096500 0.020000
0.137086 0.096500 0.020000
0.155005 0.096500 0.020000
0.172746 0.096500 0.020000
0.190328 0.096500 0.020000
0.207771 0.096500 0.020000
0.225087 0.096500 0.020000
0.242288 0.096500 0.020000
0.259383 0.096500 0.020000
0.276381 0.096500 0.020000
0.293288 0.096500 0.020000
0.310111 0.096500 0.020000
0.326854 0.096500 0.020000
0.343524 0.096500 0.020000
0.360123 0.096500 0.020000
0.376657 0.096500 0.020000
0.393127 0.096500 0.020000
0.409537 0.096500 0.020000
0.425891 0.096500 0.020000
0.442190 0.096500 0.020000
0.458437 0.096500 0.020000
0.474633 0.096500 0.020000
0.490783 0.096500 0.020000
0.506886 0.096500 0.020000
0.522944 0.096500 0.020000
0.538960 0.096500 0.020000
0.554934 0.096500 0.020000
0.570869 0.096500 0.020000
0.586765 0.096500 0.020000
0.602624 0.096500 0.020000
0.618446 0.096500 0.020000
0.634234 0.096500 0.020000
0.649987 0.096500 0.020000
0.665707 0.096500 0.020000
0.681395 0.096500 0.020000
0.697052 0.096500 0.020000
0.712678 0.096500 0.020000
0.728274 0.096500 0.020000
0.743841 0.096500 0.020000
0.759380 0.096500 0.020000
0.774892 0.096500 0.020000
0.790376 0.096500 0.020000
0.805834 0.096500 0.020000
0.821267 0.096500 0.020000
0.836674 0.096500 0.020000
0.852056 0.096500 0.020000
0.867415 0.096500 0.020000
0.882750 0.096500 0.020000
0.898061 0.096500 0.020000
0.913350 0.096500 0.020000
0.928617 0.096500 0.020000
0.943862 0.096500 0.020000
0.959086 0.096500 0.020000
0.974288 0.096500 0.020000
0.989471 0.096500 0.020000
1.000000 0.096500 0.020000
1.000000 0.096500 0.020000
1.000000 0.096500 0.020000
1.000000 0.096500 0.020000
0.000000 0.114540 0.020000
0.022883 0.114540 0.020000
0.043296 0.114540 0.020000
0.062872 0.114540 0.020000
0.081922 0.114540 0.020000
0.100590 0.114540 0.020000
0.118961 0.114540 0.020000
0.137086 0.114540 0.020000
0.155005 0.114540 0.020000
0.172746 0.114540 0.020000
0.190328 0.114540 0.020000
0.207771 0.114540 0.020000
0.225087 0.114540 0.020000
0.242288 0.114540 0.020000
0.259383 0.114540 0.020000
0.276381 0.114540 0.020000
0.293288 0.114540 0.020000
0.310111 0.114540 0.020000
0.326854 0.114540 0.020000
0.343524 0.114540 0.020000
0.360123 0.114540 0.020000
0.376657 0.114540 0.020000
0.393127 0.114540 0.020000
0.409537 0.114540 0.020000
0.425891 0.114540 0.020000
0.442190 0.114540 0.020000
0.458437 0.114540 0.020000
0.474633 0.114540 0.020000
0.490783 0.114540 0.020000
0.506886 0.114540 0.020000
0.522944 0.114540 0.020000
0.538960 0.114540 0.020000
0.554934 0.114540 0.020000
0.570869 0.114540 0.020000
0.586765 0.114540 0.020000
0.602624 0.114540 0.020000
0.618446 0.114540 0.020000
0.634234 0.114540 0.020000
0.649987 0.114540 0.020000
0.665707 0.114540 0.020000
0.681395 0.114540 0.020000
0.697052 0.114540 0.020000
0.712678 0.114540 0.020000
0.728274 0.114540 0.020000
0.743841 0.114540 0.020000
0.759380 0.114540 0.020000
0.774892 0.114540 0.020000
0.790376 0.114540 0.020000
0.805834 0.114540 0.020000
0.821267 0.114540 0.020000
0.836674 0.114540 0.020000
0.852056 0.114540 0.020000
0.867415 0.114540 0.020000
0.882750 0.114540 0.020000
0.898061 0.114540 0.020000
0.913350 0.114540 0.020000
0.928617 0.114540 0.020000
0.943862 0.114540 0.020000
0.959086 0.114540 0.020000
0.974288 0.114540 0.020000
0.989471 0.114540 0.020000
1.000000 0.114540 0.020000
1.000000 0.114540 0.020000
1.000000 0.114540 0.020000
1.000000 0.114540 0.020000
0.000000 0.132400 0.020000
0.022883 0.132400 0.020000
0.043296 0.132400 0.020000
0.062872 0.132400 0.020000
0.081922 0.132400 0.020000
0.100590 0.132400 0.020000
0.118961 0.132400 0.020000
0.137086 0.132400 0.020000
0.155005 0.132400 0.020000
0.172746 0.132400 0.020000
0.190328 0.132400 0.020000
0.207771 0.132400 0.020000
0.225087 0.132400 0.020000
0.242288 0.132400 0.020000
0.259383 0.132400 0.020000
0.276381 0.132400 0.020000
0.293288 0.132400 0.020000
0.310111 0.132400 0.020000
0.326854 0.132400 0.020000
0.343524 0.132400 0.020000
0.360123 0.132400 0.020000
0.376657 0.132400 0.020000
0.393127 0.132400 0.020000
0.409537 0.132400 0.020000
0.425891 0.132400 0.020000
0.442190 0.132400 0.020000
0.458437 0.132400 0.020000
0.474633 0.132400 0.020000
0.490783 0.132400 0.020000
0.506886 0.132400 0.020000
0.522944 0.132400 0.020000
0.538960 0.132400 0.020000
0.554934 0.132400 0.020000
0.570869 0.132400 0.020000
0.586765 0.132400 0.020000
0.602624 0.132400 0.020000
0.618446 0.132400 0.020000
0.634234 0.132400 0.020000
0.649987 0.132400 0.020000
0.665707 0.132400 0.020000
0.681395 0.132400 0.020000
0.697052 0.132400 0.020000
0.712678 0.132400 0.020000
0.728274 0.132400 0.020000
0.743841 0.132400 0.020000
0.759380 0.132400 0.020000
0.774892 0.132400 0.020000
0.790376 0.132400 0.020000
0.805834 0.132400 0.020000
0.821267 0.132400 0.020000
0.836674 0.132400 0.020000
0.852056 0.132400 0.020000
0.867415 0.132400 0.020000
0.882750 0.132400 0.020000
0.898061 0.132400 0.020000
0.913350 0.132400 0.020000
0.928617 0.132400 0.020000
0.943862 0.132400 0.020000
0.959086 0.132400 0.020000
0.974288 0.132400 0.020000
0.989471 0.132400 0.020000
1.000000 0.132400 0.020000
1.000000 0.132400 0.020000
1.000000 0.132400 0.020000
1.000000 0.132400 0.020000
0.000000 0.150107 0.020000
0.022883 0.150107 0.020000
0.043296 0.150107 0.020000
0.062872 0.150107 0.020000
0.081922 0.150107 0.020000
0.100590 0.150107 0.020000
0.118961 0.150107 0.020000
0.137086 0.150107 0.020000
0.155005 0.150107 0.020000
0.172746 0.150107 0.020000
0.190328 0.150107 0.020000
0.207771 0.150107 0.020000
0.225087 0.150107 0.020000
0.242288 0.150107 0.020000
0.259383 0.150107 0.020000
0.276381 0.150107 0.020000
0.293288 0.150107 0.020000
0.310111 0.150107 0.020000
0.326854 0.150107 0.020000
0.343524 0.150107 0.020000
0.360123 0.150107 0.020000
0.376657 0.150107 0.020000
0.393127 0.150107 0.020000
0.409537 0.150107 0.020000
0.425891 0.150107 0.020000
0.442190 0.150107 0.020000
0.458437 0.150107 0.020000
0.474633 0.150107 0.020000
0.490783 0.150107 0.020000
0.506886 0.150107 0.020000
0.522944 0.150107 0.020000
0.538960 0.150107 0.020000
0.554934 0.150107 0.020000
0.570869 0.150107 0.020000
0.586765 0.150107 0.020000
0.602624 0.150107 0.020000
0.618446 0.150107 0.020000
0.634234 0.150107 0.020000
0.649987 0.150107 0.020000
0.665707 0.150107 0.020000
0.681395 0.150107 0.020000
0.697052 0.150107 0.020000
0.712678 0.150107 0.020000
0.728274 0.150107 0.020000
0.743841 0.150107 0.020000
0.759380 0.150107 0.020000
0.774892 0.150107 0.020000
0.790376 0.150107 0.020000
0.805834 0.150107 0.020000
0.821267 0.150107 0.020000
0.836674 0.150107 0.020000
0.852056 0.150107 0.020000
0.867415 0.150107 0.020000
0.882750 0.150107 0.020000
0.898061 0.150107 0.020000
0.913350 0.150107 0.020000
0.928617 0.150107 0.020000
0.943862 0.150107 0.020000
0.959086 0.150107 0.020000
0.974288 0.150107 0.020000
0.989471 0.150107 0.020000
1.000000 0.150107 0.020000
1.000000 0.150107 0.020000
1.000000 0.150107 0.020000
1.000000 0.150107 0.020000
0.000000 0.167681 0.020000
0.022883 0.167681 0.020000
0.043296 0.167681 0.020000
0.062872 0.167681 0.020000
0.081922 0.167681 0.020000
0.100590 0.167681 0.020000
0.118961 0.167681 0.020000
0.137086 0.167681 0.020000
0.155005 0.167681 0.020000
0.172746 0.167681 0.020000
0.190328 0.167681 0.020000
0.207771 0.167681 0.020000
0.225087 0.167681 0.020000
0.242288 0.167681 0.020000
0.259383 0.167681 0.020000
0.276381 0.167681 0.020000
0.293288 0.167681 0.020000
0.310111 0.167681 0.020000
0.326854 0.167681 0.020000
0.343524 0.167681 0.020000
0.360123 0.167681 0.020000
0.376657 0.167681 0.020000
0.393127 0.167681 0.020000
0.409537 0.167681 0.020000
0.425891 0.167681 0.020000
0.442190 0.167681 0.020000
0.458437 0.167681 0.020000
0.474633 0.167681 0.020000
0.490783 0.167681 0.020000
0.506886 0.167681 0.020000
0.522944 0.167681 0.020000
0.538960 0.167681 0.020000
0.554934 0.167681 0.020000
0.570869 0.167681 0.020000
0.586765 0.167681 0.020000
0.602624 0.167681 0.020000
0.618446 0.167681 0.020000
0.634234 0.167681 0.020000
0.649987 0.167681 0.020000
0.665707 0.167681 0.020000
0.681395 0.167681 0.020000
0.697052 0.167681 0.020000
0.712678 0.167681 0.020000
0.728274 0.167681 0.020000
0.743841 0.167681 0.020000
0.759380 0.167681 0.020000
0.774892 0.167681 0.020000
0.790376 0.167681 0.020000
0.805834 0.167681 0.020000
0.821267 0.167681 0.020000
0.836674 0.167681 0.020000
0.852056 0.167681 0.020000
0.867415 0.167681 0.020000
0.882750 0.167681 0.020000
0.898061 0.167681 0.020000
0.913350 0.167681 0.020000
0.928617 0.167681 0.020000
0.943862 0.167681 0.020000
0.959086 0.167681 0.020000
0.974288 0.167681 0.020000
0.989471 0.167681 0.020000
1.000000 0.167681 0.020000
1.000000 0.167681 0.020000
1.000000 0.167681 0.020000
1.000000 0.167681 0.020000
0.000000 0.185138 0.020000
0.022883 0.185138 0.020000
0.043296 0.185138 0.020000
0.062872 0.185138 0.020000
0.081922 0.185138 0.020000
0.100590 0.185138 0.020000
0.118961 0.185138 0.020000
0.137086 0.185138 0.020000
0.155005 0.185138 0.020000
0.172746 0.185138 0.020000
0.190328 0.185138 0.020000
0.207771 0.185138 0.020000
0.225087 0.185138 0.020000
0.242288 0.185138 0.020000
0.259383 0.185138 0.020000
0.276381 0.185138 0.020000
0.293288 0.185138 0.020000
0.310111 0.185138 0.020000
0.326854 0.185138 0.020000
0.343524 0.185138 0.020000
0.360123 0.185138 0.020000
0.376657 0.185138 0.020000
0.393127 0.185138 0.020000
0.409537 0.185138 0.020000
0.425891 0.185138 0.020000
0.442190 0.185138 0.020000
0.458437 0.185138 0.020000
0.474633 0.185138 0.020000
0.490783 0.185138 0.020000
0.506886 0.185138 0.020000
0.522944 0.185138 0.020000
0.538960 0.185138 0.020000
0.554934 0.185138 0.020000
0.570869 0.185138 0.020000
0.586765 0.185138 0.020000
0.602624 0.185138 0.020000
0.618446 0.185138 0.020000
0.634234 0.185138 0.020000
0.649987 0.185138 0.020000
0.665707 0.185138 0.020000
0.681395 0.185138 0.020000
0.697052 0.185138 0.020000
0.712678 0.185138 0.020000
0.728274 0.185138 0.020000
0.743841 0.185138 0.020000
0.759380 0.185138 0.020000
0.774892 0.185138 0.020000
0.790376 0.185138 0.020000
0.805834 0.185138 0.020000
0.821267 0.185138 0.020000
0.836674 0.185138 0.020000
0.852056 0.185138 0.020000
0.867415 0.185138 0.020000
0.882750 0.185138 0.020000
0.898061 0.185138 0.020000
0.913350 0.185138 0.020000
0.928617 0.185138 0.020000
0.943862 0.185138 0.020000
0.959086 0.185138 0.020000
0.974288 0.185138 0.020000
0.989471 0.185138 0.020000
1.000000 0.185138 0.020000
1.000000 0.185138 0.020000
1.000000 0.185138 0.020000
1.000000 0.185138 0.020000
0.000000 0.202491 0.020000
0.022883 0.202491 0.020000
0.043296 0.202491 0.020000
0.062872 0.202491 0.020000
0.081922 0.202491 0.020000
0.100590 0.202491 0.020000
0.118961 0.202491 0.020000
0.137086 0.202491 0.020000
0.155005 0.202491 0.020000
0.172746 0.202491 0.020000
0.190328 0.202491 0.020000
0.207771 0.202491 0.020000
0.225087 0.202491 0.020000
0.242288 0.202491 0.020000
0.259383 0.202491 0.020000
0.276381 0.202491 0.020000
0.293288 0.202491 0.020000
0.310111 0.202491 0.020000
0.326854 0.202491 0.020000
0.343524 0.202491 0.020000
0.360123 0.202491 0.020000
0.376657 0.202491 0.020000
0.393127 0.202491 0.020000
0.409537 0.202491 0.020000
0.425891 0.202491 0.020000
0.442190 0.202491 0.020000
0.458437 0.202491 0.020000
0.474633 0.202491 0.020000
0.490783 0.202491 0.020000
0.506886 0.202491 0.020000
0.522944 0.202491 0.020000
0.538960 0.202491 0.020000
0.554934 0.202491 0.020000
0.570869 0.202491 0.020000
0.586765 0.202491 0.020000
0.602624 0.202491 0.020000
0.618446 0.202491 0.020000
0.634234 0.202491 0.020000
0.649987 0.202491 0.020000
0.665707 0.202491 0.020000
0.681395 0.202491 0.020000
0.697052 0.202491 0.020000
0.712678 0.202491 0.020000
0.728274 0.202491 0.020000
0.743841 0.202491 0.020000
0.759380 0.202491 0.020000
0.774892 0.202491 0.020000
0.790376 0.202491 0.020000
0.805834 0.202491 0.020000
0.821267 0.202491 0.020000
0.836674 0.202491 0.020000
0.852056 0.202491 0.020000
0.867415 0.202491 0.020000
0.882750 0.202491 0.020000
0.898061 0.202491 0.020000
0.913350 0.202491 0.020000
0.928617 0.202491 0.020000
0.943862 0.202491 0.020000
0.959086 0.202491 0.020000
0.974288 0.202491 0.020000
0.989471 0.202491 0.020000
1.000000 0.202491 0.020000
1.000000 0.202491 0.020000
1.000000 0.202491 0.020000
1.000000 0.202491 0.020000
0.000000 0.219749 0.020000
0.022883 0.219749 0.020000
0.043296 0.219749 0.020000
0.062872 0.219749 0.020000
0.081922 0.219749 0.020000
0.100590 0.219749 0.020000
0.118961 0.219749 0.020000
0.137086 0.219749 0.020000
0.155005 0.219749 0.020000
0.172746 0.219749 0.020000
0.190328 0.219749 0.020000
0.207771 0.219749 0.020000
0.225087 0.219749 0.020000
0.242288 0.219749 0.020000
0.259383 0.219749 0.020000
0.276381 0.219749 0.020000
0.293288 0.219749 0.020000
0.310111 0.219749 0.020000
0.326854 0.219749 0.020000
0.343524 0.219749 0.020000
0.360123 0.219749 0.020000
0.376657 0.219749 0.020000
0.393127 0.219749 0.020000
0.409537 0.219749 0.020000
0.425891 0.219749 0.020000
0.442190 0.219749 0.020000
0.458437 0.219749 0.020000
0.474633 0.219749 0.020000
0.490783 0.219749 0.020000
0.506886 0.219749 0.020000
0.522944 0.219749 0.020000
0.538960 0.219749 0.020000
0.554934 0.219749 0.020000
0.570869 0.219749 0.020000
0.586765 0.219749 0.020000
0.602624 0.219749 0.020000
0.618446 0.219749 0.020000
0.634234 0.219749 0.020000
0.649987 0.219749 0.020000
0.665707 0.219749 0.020000
0.681395 0.219749 0.020000
0.697052 0.219749 0.020000
0.712678 0.219749 0.020000
0.728274 0.219749 0.020000
0.743841 0.219749 0.020000
0.759380 0.219749 0.020000
0.774892 0.219749 0.020000
0.790376 0.219749 0.020000
0.805834 0.219749 0.020000
0.821267 0.219749 0.020000
0.836674 0.219749 0.020000
0.852056 0.219749 0.020000
0.867415 0.219749 0.020000
0.882750 0.219749 0.020000
0.898061 0.219749 0.020000
0.913350 0.219749 0.020000
0.928617 0.219749 0.020000
0.943862 0.219749 0.020000
0.959086 0.219749 0.020000
0.974288 0.219749 0.020000
0.989471 0.219749 0.020000
1.000000 0.219749 0.020000
1.000000 0.219749 0.020000
1.000000 0.219749 0.020000
1.000000 0.219749 0.020000
0.000000 0.236921 0.020000
0.022883 0.236921 0.020000
0.043296 0.236921 0.020000
0.062872 0.236921 0.020000
0.081922 0.236921 0.020000
0.100590 0.236921 0.020000
0.118961 0.236921 0.020000
0.137086 0.236921 0.020000
0.155005 0.236921 0.020000
0.172746 0.236921 0.020000
0.190328 0.236921 0.020000
0.207771 0.236921 0.020000
0.225087 0.236921 0.020000
0.242288 0.236921 0.020000
0.259383 0.236921 0.020000
0.276381 0.236921 0.020000
0.293288 0.236921 0.020000
0.310111 0.236921 0.020000
0.326854 0.236921 0.020000
0.343524 0.236921 0.020000
0.360123 0.236921 0.020000
0.376657 0.236921 0.020000
0.393127 0.236921 0.020000
0.409537 0.236921 0.020000
0.425891 0.236921 0.020000
0.442190 0.236921 0.020000
0.458437 0.236921 0.020000
0.474633 0.236921 0.020000
0.490783 0.236921 0.020000
0.506886 0.236921 0.020000
0.522944 0.236921 0.020000
0.538960 0.236921 0.020000
0.554934 0.236921 0.020000
0.570869 0.236921 0.020000
0.586765 0.236921 0.020000
0.602624 0.236921 0.020000
0.618446 0.236921 0.020000
0.634234 0.236921 0.020000
0.649987 0.236921 0.020000
0.665707 0.236921 0.020000
0.681395 0.236921 0.020000
