custom_nodes/comfyui-vrgamedevgirl/LUTS/Bright_High_Contrast_Muted_Cool.cube
#Created by: Adobe Photoshop Export Color Lookup Plugin
TITLE "NOLUT.png"
#LUT size
LUT_3D_SIZE 9
#data domain
DOMAIN_MIN 0.0 0.0 0.0
DOMAIN_MAX 1.0 1.0 1.0
#LUT data points
0.012726 0.107544 0.212402
0.024841 0.107544 0.212402
0.101379 0.107544 0.212402
0.258820 0.107544 0.212402
0.537567 0.107544 0.212402
0.893646 0.107544 0.212433
1.000000 0.107544 0.212372
1.000000 0.107544 0.212372
1.000000 0.107544 0.212372
0.012726 0.145294 0.212402
0.024841 0.145294 0.212402
0.101379 0.145294 0.212402
0.258820 0.145294 0.212402
0.537567 0.145294 0.212433
0.893646 0.145294 0.212280
1.000000 0.145294 0.212280
1.000000 0.145294 0.212280
1.000000 0.145294 0.212280
0.012726 0.250610 0.212433
0.024841 0.250610 0.212372
0.101379 0.250610 0.212402
0.258820 0.250610 0.212402
0.537567 0.250610 0.212402
0.893646 0.250610 0.212402
1.000000 0.250458 0.212402
1.000000 0.250458 0.212402
1.000000 0.250458 0.212402
0.012726 0.442902 0.212433
0.024841 0.442902 0.212433
0.101379 0.442902 0.212372
0.258820 0.442902 0.212402
0.537567 0.442963 0.212402
0.893646 0.442810 0.212402
1.000000 0.442902 0.212402
1.000000 0.442902 0.212402
1.000000 0.442902 0.212402
0.012726 0.732544 0.212372
0.024841 0.732544 0.212402
0.101379 0.732544 0.212402
0.258850 0.732544 0.212402
0.537567 0.732544 0.212402
0.893646 0.732605 0.212402
1.000000 0.732513 0.212402
1.000000 0.732513 0.212402
1.000000 0.732513 0.212402
0.012726 0.943756 0.212280
0.024841 0.943756 0.212402
0.101379 0.943756 0.212372
0.258820 0.943756 0.212402
0.537598 0.943756 0.212402
0.893646 0.943756 0.212402
1.000000 0.943787 0.212402
1.000000 0.943787 0.212402
1.000000 0.943787 0.212402
0.012726 1.000000 0.212433
0.024841 1.000000 0.212494
0.101379 1.000000 0.212372
0.258789 1.000000 0.212402
0.537598 1.000000 0.212402
0.893646 1.000000 0.212402
1.000000 1.000000 0.212402
1.000000 1.000000 0.212402
1.000000 1.000000 0.212402
0.012726 1.000000 0.212433
0.024841 1.000000 0.212494
0.101379 1.000000 0.212372
0.258789 1.000000 0.212402
0.537598 1.000000 0.212402
0.893646 1.000000 0.212402
1.000000 1.000000 0.212402
1.000000 1.000000 0.212402
1.000000 1.000000 0.212402
0.012726 1.000000 0.212433
0.024841 1.000000 0.212494
0.101379 1.000000 0.212372
0.258789 1.000000 0.212402
0.537598 1.000000 0.212402
0.893646 1.000000 0.212402
1.000000 1.000000 0.212402
1.000000 1.000000 0.212402
1.000000 1.000000 0.212402
0.012726 0.107605 0.243744
0.024841 0.107605 0.243744
0.101379 0.107544 0.243744
0.258820 0.107544 0.243744
0.537567 0.107544 0.243744
0.893646 0.107544 0.243713
1.000000 0.107544 0.243713
1.000000 0.107544 0.243713
1.000000 0.107544 0.243713
0.012726 0.145325 0.243744
0.024841 0.145294 0.243744
0.101379 0.145294 0.243744
0.258820 0.145294 0.243744
0.537567 0.145294 0.243744
0.893646 0.145294 0.243744
1.000000 0.145294 0.243805
1.000000 0.145294 0.243805
1.000000 0.145294 0.243805
0.012726 0.250610 0.243744
0.024841 0.250610 0.243744
0.101379 0.250610 0.243744
0.258820 0.250610 0.243744
0.537567 0.250671 0.243744
0.893646 0.250610 0.243744
1.000000 0.250671 0.243744
1.000000 0.250671 0.243744
1.000000 0.250671 0.243744
0.012726 0.442902 0.243744
0.024841 0.442902 0.243744
0.101379 0.442902 0.243744
0.258789 0.442902 0.243744
0.537567 0.442963 0.243744
0.893646 0.442963 0.243744
1.000000 0.442963 0.243744
1.000000 0.442963 0.243744
1.000000 0.442963 0.243744
0.012726 0.732544 0.243744
0.024841 0.732544 0.243713
0.101379 0.732544 0.243744
0.258850 0.732544 0.243744
0.537598 0.732544 0.243744
0.893646 0.732605 0.243744
1.000000 0.732361 0.243744
1.000000 0.732361 0.243744
1.000000 0.732361 0.243744
0.012726 0.943756 0.243744
0.024841 0.943756 0.243744
0.101379 0.943756 0.243744
0.258759 0.943756 0.243744
0.537537 0.943756 0.243744
0.893616 0.943756 0.243744
1.000000 0.943756 0.243744
1.000000 0.943756 0.243744
1.000000 0.943756 0.243744
0.012726 1.000000 0.243683
0.024841 1.000000 0.243744
0.101379 1.000000 0.243683
0.258728 1.000000 0.243744
0.537598 1.000000 0.243744
0.893616 1.000000 0.243744
1.000000 1.000000 0.243744
1.000000 1.000000 0.243744
1.000000 1.000000 0.243744
0.012726 1.000000 0.243683
0.024841 1.000000 0.243744
0.101379 1.000000 0.243683
0.258728 1.000000 0.243744
0.537598 1.000000 0.243744
0.893616 1.000000 0.243744
1.000000 1.000000 0.243744
1.000000 1.000000 0.243744
1.000000 1.000000 0.243744
0.012726 1.000000 0.243683
0.024841 1.000000 0.243744
0.101379 1.000000 0.243683
0.258728 1.000000 0.243744
0.537598 1.000000 0.243744
0.893616 1.000000 0.243744
1.000000 1.000000 0.243744
1.000000 1.000000 0.243744
1.000000 1.000000 0.243744
0.012726 0.107544 0.351807
0.024841 0.107544 0.351807
0.101379 0.107605 0.351807
0.258789 0.107544 0.351807
0.537567 0.107544 0.351868
0.893646 0.107544 0.351929
1.000000 0.107544 0.351807
1.000000 0.107544 0.351807
1.000000 0.107544 0.351807
0.012726 0.145294 0.351807
0.024841 0.145325 0.351807
0.101379 0.145294 0.351807
0.258820 0.145294 0.351807
0.537567 0.145294 0.351776
0.893646 0.145294 0.351776
1.000000 0.145294 0.351685
1.000000 0.145294 0.351685
1.000000 0.145294 0.351685
0.012726 0.250610 0.351807
0.024841 0.250610 0.351807
0.101379 0.250549 0.351807
0.258820 0.250610 0.351807
0.537567 0.250610 0.351807
0.893646 0.250610 0.351868
1.000000 0.250610 0.351929
1.000000 0.250610 0.351929
1.000000 0.250610 0.351929
0.012726 0.442902 0.351776
0.024841 0.442902 0.351868
0.101379 0.442902 0.351776
0.258820 0.442902 0.351807
0.537567 0.442902 0.351807
0.893646 0.442963 0.351807
1.000000 0.442902 0.351807
1.000000 0.442902 0.351807
1.000000 0.442902 0.351807
0.012726 0.732544 0.351715
0.024841 0.732544 0.351807
0.101379 0.732544 0.351776
0.258820 0.732544 0.351868
0.537598 0.732544 0.351807
0.893646 0.732605 0.351807
1.000000 0.732605 0.351807
1.000000 0.732605 0.351807
1.000000 0.732605 0.351807
0.012726 0.943756 0.351715
0.024841 0.943756 0.351929
0.101379 0.943756 0.351776
0.258820 0.943756 0.351868
0.537567 0.943756 0.351807
0.893616 0.943756 0.351807
1.000000 0.943726 0.351807
1.000000 0.943726 0.351807
1.000000 0.943726 0.351807
0.012726 1.000000 0.351715
0.024841 1.000000 0.351715
0.101379 1.000000 0.351685
0.258820 1.000000 0.351807
0.537659 1.000000 0.351807
0.893646 1.000000 0.351807
1.000000 1.000000 0.351807
1.000000 1.000000 0.351807
1.000000 1.000000 0.351807
0.012726 1.000000 0.351715
0.024841 1.000000 0.351715
0.101379 1.000000 0.351685
0.258820 1.000000 0.351807
0.537659 1.000000 0.351807
0.893646 1.000000 0.351807
1.000000 1.000000 0.351807
1.000000 1.000000 0.351807
1.000000 1.000000 0.351807
0.012726 1.000000 0.351715
0.024841 1.000000 0.351715
0.101379 1.000000 0.351685
0.258820 1.000000 0.351807
0.537659 1.000000 0.351807
0.893646 1.000000 0.351807
1.000000 1.000000 0.351807
1.000000 1.000000 0.351807
1.000000 1.000000 0.351807
0.012726 0.107544 0.571350
0.024841 0.107544 0.571350
0.101379 0.107544 0.571350
0.258789 0.107544 0.571350
0.537537 0.107544 0.571350
0.893646 0.107544 0.571289
1.000000 0.107544 0.571228
1.000000 0.107544 0.571228
1.000000 0.107544 0.571228
0.012726 0.145325 0.571350
0.024841 0.145294 0.571350
0.101379 0.145294 0.571350
0.258820 0.145294 0.571350
0.537537 0.145294 0.571350
0.893646 0.145294 0.571381
1.000000 0.145294 0.571259
1.000000 0.145294 0.571259
1.000000 0.145294 0.571259
0.012726 0.250549 0.571350
0.024841 0.250549 0.571350
0.101379 0.250610 0.571350
0.258820 0.250610 0.571350
0.537567 0.250610 0.571350
0.893646 0.250610 0.571381
1.000000 0.250610 0.571289
1.000000 0.250610 0.571289
1.000000 0.250610 0.571289
0.012726 0.442963 0.571350
0.024841 0.442963 0.571350
0.101379 0.442902 0.571350
0.258820 0.442902 0.571350
0.537567 0.442902 0.571350
0.893646 0.442902 0.571381
1.000000 0.442902 0.571381
1.000000 0.442902 0.571381
1.000000 0.442902 0.571381
0.012726 0.732544 0.571442
0.024841 0.732544 0.571381
0.101379 0.732544 0.571350
0.258820 0.732544 0.571381
0.537567 0.732544 0.571350
0.893646 0.732605 0.571350
1.000000 0.732635 0.571350
1.000000 0.732635 0.571350
1.000000 0.732635 0.571350
0.012726 0.943756 0.571442
0.024841 0.943756 0.571259
0.101379 0.943756 0.571289
0.258820 0.943756 0.571350
0.537567 0.943756 0.571350
0.893646 0.943756 0.571350
1.000000 0.943787 0.571350
1.000000 0.943787 0.571350
1.000000 0.943787 0.571350
0.012726 1.000000 0.571472
0.024841 1.000000 0.571350
0.101379 1.000000 0.571259
0.258820 1.000000 0.571259
0.537567 1.000000 0.571289
0.893616 1.000000 0.571350
1.000000 1.000000 0.571350
1.000000 1.000000 0.571350
1.000000 1.000000 0.571350
0.012726 1.000000 0.571472
0.024841 1.000000 0.571350
0.101379 1.000000 0.571259
0.258820 1.000000 0.571259
0.537567 1.000000 0.571289
0.893616 1.000000 0.571350
1.000000 1.000000 0.571350
1.000000 1.000000 0.571350
1.000000 1.000000 0.571350
0.012726 1.000000 0.571472
0.024841 1.000000 0.571350
0.101379 1.000000 0.571259
0.258820 1.000000 0.571259
0.537567 1.000000 0.571289
0.893616 1.000000 0.571350
1.000000 1.000000 0.571350
1.000000 1.000000 0.571350
1.000000 1.000000 0.571350
0.012726 0.107513 0.828949
0.024841 0.107635 0.828949
0.101379 0.107544 0.828949
0.258759 0.107544 0.828949
0.537537 0.107544 0.828949
0.893646 0.107544 0.829010
1.000000 0.107544 0.828949
1.000000 0.107544 0.828949
1.000000 0.107544 0.828949
0.012726 0.145294 0.828949
0.024841 0.145386 0.828949
0.101379 0.145233 0.828949
0.258789 0.145294 0.828949
0.537567 0.145294 0.828949
0.893646 0.145294 0.828979
1.000000 0.145294 0.828918
1.000000 0.145294 0.828918
1.000000 0.145294 0.828918
0.012726 0.250671 0.828949
0.024841 0.250671 0.828949
0.101379 0.250671 0.828949
0.258789 0.250610 0.828949
0.537567 0.250610 0.828949
0.893646 0.250610 0.828979
1.000000 0.250610 0.828949
1.000000 0.250610 0.828949
1.000000 0.250610 0.828949
0.012726 0.442810 0.828949
0.024841 0.442810 0.828949
0.101379 0.442871 0.828949
0.258820 0.442902 0.828949
0.537598 0.442902 0.828949
0.893646 0.442902 0.828949
1.000000 0.442902 0.829010
1.000000 0.442902 0.829010
1.000000 0.442902 0.829010
0.012726 0.732422 0.828949
0.024841 0.732635 0.828949
0.101379 0.732635 0.828949
0.258820 0.732544 0.828949
0.537567 0.732513 0.828949
0.893646 0.732544 0.828949
1.000000 0.732544 0.828918
1.000000 0.732544 0.828918
1.000000 0.732544 0.828918
0.012726 0.943756 0.828888
0.024841 0.943756 0.829010
0.101379 0.943756 0.828918
0.258820 0.943756 0.828949
0.537567 0.943756 0.828918
0.893646 0.943756 0.828949
1.000000 0.943756 0.828949
1.000000 0.943756 0.828949
1.000000 0.943756 0.828949
0.012726 1.000000 0.828857
0.024841 1.000000 0.829071
0.101379 1.000000 0.829071
0.258820 1.000000 0.829010
0.537567 1.000000 0.828918
0.893616 1.000000 0.828949
1.000000 1.000000 0.828949
1.000000 1.000000 0.828949
1.000000 1.000000 0.828949
0.012726 1.000000 0.828857
0.024841 1.000000 0.829071
0.101379 1.000000 0.829071
0.258820 1.000000 0.829010
0.537567 1.000000 0.828918
0.893616 1.000000 0.828949
1.000000 1.000000 0.828949
1.000000 1.000000 0.828949
1.000000 1.000000 0.828949
0.012726 1.000000 0.828857
0.024841 1.000000 0.829071
0.101379 1.000000 0.829071
0.258820 1.000000 0.829010
0.537567 1.000000 0.828918
0.893616 1.000000 0.828949
1.000000 1.000000 0.828949
1.000000 1.000000 0.828949
1.000000 1.000000 0.828949
0.012726 0.107697 0.965271
0.024841 0.107635 0.965271
0.101379 0.107544 0.965271
0.258850 0.107544 0.965271
0.537537 0.107544 0.965271
0.893677 0.107544 0.965271
1.000000 0.107544 0.965332
1.000000 0.107544 0.965332
1.000000 0.107544 0.965332
0.012726 0.145294 0.965271
0.024841 0.145294 0.965271
0.101379 0.145233 0.965271
0.258759 0.145294 0.965271
0.537598 0.145294 0.965271
0.893677 0.145294 0.965271
1.000000 0.145294 0.965332
1.000000 0.145294 0.965332
1.000000 0.145294 0.965332
0.012726 0.250732 0.965271
0.024841 0.250519 0.965271
0.101379 0.250549 0.965271
0.258881 0.250610 0.965271
0.537659 0.250610 0.965271
0.893646 0.250610 0.965271
1.000000 0.250610 0.965332
1.000000 0.250610 0.965332
1.000000 0.250610 0.965332
0.012726 0.442871 0.965271
0.024841 0.442993 0.965271
0.101379 0.442810 0.965271
0.258820 0.442810 0.965271
0.537537 0.442902 0.965271
0.893677 0.442902 0.965271
1.000000 0.442902 0.965302
1.000000 0.442902 0.965302
1.000000 0.442902 0.965302
0.012726 0.732605 0.965271
0.024841 0.732635 0.965271
0.101379 0.732544 0.965271
0.258820 0.732544 0.965271
0.537567 0.732544 0.965271
0.893646 0.732544 0.965271
1.000000 0.732544 0.965240
1.000000 0.732544 0.965240
1.000000 0.732544 0.965240
0.012726 0.943726 0.965271
0.024841 0.943726 0.965271
0.101379 0.943787 0.965271
0.258820 0.943787 0.965271
0.537567 0.943787 0.965271
0.893646 0.943756 0.965271
1.000000 0.943756 0.965271
1.000000 0.943756 0.965271
1.000000 0.943756 0.965271
0.012726 1.000000 0.965240
0.024841 1.000000 0.965332
0.101379 1.000000 0.965210
0.258820 1.000000 0.965271
0.537567 1.000000 0.965302
0.893646 1.000000 0.965240
1.000000 1.000000 0.965271
1.000000 1.000000 0.965271
1.000000 1.000000 0.965271
0.012726 1.000000 0.965240
0.024841 1.000000 0.965332
0.101379 1.000000 0.965210
0.258820 1.000000 0.965271
0.537567 1.000000 0.965302
0.893646 1.000000 0.965240
1.000000 1.000000 0.965271
1.000000 1.000000 0.965271
1.000000 1.000000 0.965271
0.012726 1.000000 0.965240
0.024841 1.000000 0.965332
0.101379 1.000000 0.965210
0.258820 1.000000 0.965271
0.537567 1.000000 0.965302
0.893646 1.000000 0.965240
1.000000 1.000000 0.965271
1.000000 1.000000 0.965271
1.000000 1.000000 0.965271
0.012726 0.107452 1.000000
0.024841 0.107513 1.000000
0.101379 0.107544 1.000000
0.258881 0.107544 1.000000
0.537659 0.107544 1.000000
0.893585 0.107544 1.000000
1.000000 0.107544 1.000000
1.000000 0.107544 1.000000
1.000000 0.107544 1.000000
0.012726 0.145203 1.000000
0.024841 0.145294 1.000000
0.101379 0.145386 1.000000
0.258881 0.145294 1.000000
0.537598 0.145294 1.000000
0.893585 0.145294 1.000000
1.000000 0.145294 1.000000
1.000000 0.145294 1.000000
1.000000 0.145294 1.000000
0.012726 0.250671 1.000000
0.024841 0.250458 1.000000
0.101379 0.250763 1.000000
0.258789 0.250610 1.000000
0.537476 0.250610 1.000000
0.893646 0.250610 1.000000
1.000000 0.250610 1.000000
1.000000 0.250610 1.000000
1.000000 0.250610 1.000000
0.012726 0.442902 1.000000
0.024841 0.442810 1.000000
0.101379 0.442902 1.000000
0.258820 0.442871 1.000000
0.537567 0.442902 1.000000
0.893616 0.442902 1.000000
1.000000 0.442902 1.000000
1.000000 0.442902 1.000000
1.000000 0.442902 1.000000
0.012726 0.732605 1.000000
0.024841 0.732697 1.000000
0.101379 0.732605 1.000000
0.258820 0.732697 1.000000
0.537567 0.732635 1.000000
0.893616 0.732544 1.000000
1.000000 0.732544 1.000000
1.000000 0.732544 1.000000
1.000000 0.732544 1.000000
0.012726 0.943787 1.000000
0.024841 0.943817 1.000000
0.101379 0.943726 1.000000
0.258820 0.943726 1.000000
0.537567 0.943787 1.000000
0.893646 0.943787 1.000000
1.000000 0.943756 1.000000
1.000000 0.943756 1.000000
1.000000 0.943756 1.000000
0.012726 1.000000 1.000000
0.024841 1.000000 1.000000
0.101379 1.000000 1.000000
0.258820 1.000000 1.000000
0.537567 1.000000 1.000000
0.893646 1.000000 1.000000
1.000000 1.000000 1.000000
1.000000 1.000000 1.000000
1.000000 1.000000 1.000000
0.012726 1.000000 1.000000
0.024841 1.000000 1.000000
0.101379 1.000000 1.000000
0.258820 1.000000 1.000000
0.537567 1.000000 1.000000
0.893646 1.000000 1.000000
1.000000 1.000000 1.000000
1.000000 1.000000 1.000000
1.000000 1.000000 1.000000
0.012726 1.000000 1.000000
0.024841 1.000000 1.000000
0.101379 1.000000 1.000000
0.258820 1.000000 1.000000
0.537567 1.000000 1.000000
0.893646 1.000000 1.000000
1.000000 1.000000 1.000000
1.000000 1.000000 1.000000
1.000000 1.000000 1.000000
0.012726 0.107452 1.000000
0.024841 0.107513 1.000000
0.101379 0.107544 1.000000
0.258881 0.107544 1.000000
0.537659 0.107544 1.000000
0.893585 0.107544 1.000000
1.000000 0.107544 1.000000
1.000000 0.107544 1.000000
1.000000 0.107544 1.000000
0.012726 0.145203 1.000000
0.024841 0.145294 1.000000
0.101379 0.145386 1.000000
0.258881 0.145294 1.000000
0.537598 0.145294 1.000000
0.893585 0.145294 1.000000
1.000000 0.145294 1.000000
1.000000 0.145294 1.000000
1.000000 0.145294 1.000000
0.012726 0.250671 1.000000
0.024841 0.250458 1.000000
0.101379 0.250763 1.000000
0.258789 0.250610 1.000000
0.537476 0.250610 1.000000
0.893646 0.250610 1.000000
1.000000 0.250610 1.000000
1.000000 0.250610 1.000000
1.000000 0.250610 1.000000
0.012726 0.442902 1.000000
0.024841 0.442810 1.000000
0.101379 0.442902 1.000000
0.258820 0.442871 1.000000
0.537567 0.442902 1.000000
0.893616 0.442902 1.000000
1.000000 0.442902 1.000000
1.000000 0.442902 1.000000
1.000000 0.442902 1.000000
0.012726 0.732605 1.000000
0.024841 0.732697 1.000000
0.101379 0.732605 1.000000
0.258820 0.732697 1.000000
0.537567 0.732635 1.000000
0.893616 0.732544 1.000000
1.000000 0.732544 1.000000
1.000000 0.732544 1.000000
1.000000 0.732544 1.000000
0.012726 0.943787 1.000000
0.024841 0.943817 1.000000
0.101379 0.943726 1.000000
0.258820 0.943726 1.000000
0.537567 0.943787 1.000000
0.893646 0.943787 1.000000
1.000000 0.943756 1.000000
1.000000 0.943756 1.000000
1.000000 0.943756 1.000000
0.012726 1.000000 1.000000
0.024841 1.000000 1.000000
0.101379 1.000000 1.000000
0.258820 1.000000 1.000000
0.537567 1.000000 1.000000
0.893646 1.000000 1.000000
1.000000 1.000000 1.000000
1.000000 1.000000 1.000000
1.000000 1.000000 1.000000
0.012726 1.000000 1.000000
0.024841 1.000000 1.000000
0.101379 1.000000 1.000000
0.258820 1.000000 1.000000
0.537567 1.000000 1.000000
0.893646 1.000000 1.000000
1.000000 1.000000 1.000000
1.000000 1.000000 1.000000
1.000000 1.000000 1.000000
0.012726 1.000000 1.000000
0.024841 1.000000 1.000000
0.101379 1.000000 1.000000
0.258820 1.000000 1.000000
0.537567 1.000000 1.000000
0.893646 1.000000 1.000000
1.000000 1.000000 1.000000
1.000000 1.000000 1.000000
1.000000 1.000000 1.000000
0.012726 0.107452 1.000000
0.024841 0.107513 1.000000
0.101379 0.107544 1.000000
0.258881 0.107544 1.000000
0.537659 0.107544 1.000000
0.893585 0.107544 1.000000
1.000000 0.107544 1.000000
1.000000 0.107544 1.000000
1.000000 0.107544 1.000000
0.012726 0.145203 1.000000
0.024841 0.145294 1.000000
0.101379 0.145386 1.000000
0.258881 0.145294 1.000000
0.537598 0.145294 1.000000
0.893585 0.145294 1.000000
1.000000 0.145294 1.000000
1.000000 0.145294 1.000000
1.000000 0.145294 1.000000
0.012726 0.250671 1.000000
0.024841 0.250458 1.000000
0.101379 0.250763 1.000000
0.258789 0.250610 1.000000
0.537476 0.250610 1.000000
0.893646 0.250610 1.000000
1.000000 0.250610 1.000000
1.000000 0.250610 1.000000
1.000000 0.250610 1.000000
0.012726 0.442902 1.000000
0.024841 0.442810 1.000000
0.101379 0.442902 1.000000
0.258820 0.442871 1.000000
0.537567 0.442902 1.000000
0.893616 0.442902 1.000000
1.000000 0.442902 1.000000
1.000000 0.442902 1.000000
1.000000 0.442902 1.000000
0.012726 0.732605 1.000000
0.024841 0.732697 1.000000
0.101379 0.732605 1.000000
0.258820 0.732697 1.000000
0.537567 0.732635 1.000000
0.893616 0.732544 1.000000
1.000000 0.732544 1.000000
1.000000 0.732544 1.000000
1.000000 0.732544 1.000000
0.012726 0.943787 1.000000
0.024841 0.943817 1.000000
0.101379 0.943726 1.000000
0.258820 0.943726 1.000000
0.537567 0.943787 1.000000
0.893646 0.943787 1.000000
1.000000 0.943756 1.000000
1.000000 0.943756 1.000000
1.000000 0.943756 1.000000
0.012726 1.000000 1.000000
0.024841 1.000000 1.000000
0.101379 1.000000 1.000000
0.258820 1.000000 1.000000
0.537567 1.000000 1.000000
0.893646 1.000000 1.000000
1.000000 1.000000 1.000000
1.000000 1.000000 1.000000
1.000000 1.000000 1.000000
0.012726 1.000000 1.000000
0.024841 1.000000 1.000000
0.101379 1.000000 1.000000
0.258820 1.000000 1.000000
0.537567 1.000000 1.000000
0.893646 1.000000 1.000000
1.000000 1.000000 1.000000
1.000000 1.000000 1.000000
1.000000 1.000000 1.000000
0.012726 1.000000 1.000000
0.024841 1.000000 1.000000
0.101379 1.000000 1.000000
0.258820 1.000000 1.000000
0.537567 1.000000 1.000000
0.893646 1.000000 1.000000
1.000000 1.000000 1.000000
1.000000 1.000000 1.000000
1.000000 1.000000 1.000000
