custom_nodes/comfyui-vrgamedevgirl/LUTS/Bright_Muted_Cool_Magenta_Tint_Cool_Bright.cube
TITLE "Cool_Bright"
LUT_3D_SIZE 9
DOMAIN_MIN 0 0 0
DOMAIN_MAX 1 1 1
0.000000 0.000000 0.020000
0.155005 0.000000 0.020000
0.293288 0.000000 0.020000
0.425891 0.000000 0.020000
0.554934 0.000000 0.020000
0.681395 0.000000 0.020000
0.805834 0.000000 0.020000
0.928617 0.000000 0.020000
1.000000 0.000000 0.020000
0.000000 0.150107 0.020000
0.155005 0.150107 0.020000
0.293288 0.150107 0.020000
0.425891 0.150107 0.020000
0.554934 0.150107 0.020000
0.681395 0.150107 0.020000
0.805834 0.150107 0.020000
0.928617 0.150107 0.020000
1.000000 0.150107 0.020000
0.000000 0.287985 0.020000
0.155005 0.287985 0.020000
0.293288 0.287985 0.020000
0.425891 0.287985 0.020000
0.554934 0.287985 0.020000
0.681395 0.287985 0.020000
0.805834 0.287985 0.020000
0.928617 0.287985 0.020000
1.000000 0.287985 0.020000
0.000000 0.421595 0.020000
0.155005 0.421595 0.020000
0.293288 0.421595 0.020000
0.425891 0.421595 0.020000
0.554934 0.421595 0.020000
0.681395 0.421595 0.020000
0.805834 0.421595 0.020000
0.928617 0.421595 0.020000
1.000000 0.421595 0.020000
0.000000 0.552507 0.020000
0.155005 0.552507 0.020000
0.293288 0.552507 0.020000
0.425891 0.552507 0.020000
0.554934 0.552507 0.020000
0.681395 0.552507 0.020000
0.805834 0.552507 0.020000
0.928617 0.552507 0.020000
1.000000 0.552507 0.020000
0.000000 0.681449 0.020000
0.155005 0.681449 0.020000
0.293288 0.681449 0.020000
0.425891 0.681449 0.020000
0.554934 0.681449 0.020000
0.681395 0.681449 0.020000
0.805834 0.681449 0.020000
0.928617 0.681449 0.020000
1.000000 0.681449 0.020000
0.000000 0.808842 0.020000
0.155005 0.808842 0.020000
0.293288 0.808842 0.020000
0.425891 0.808842 0.020000
0.554934 0.808842 0.020000
0.681395 0.808842 0.020000
0.805834 0.808842 0.020000
0.928617 0.808842 0.020000
1.000000 0.808842 0.020000
0.000000 0.934961 0.020000
0.155005 0.934961 0.020000
0.293288 0.934961 0.020000
0.425891 0.934961 0.020000
0.554934 0.934961 0.020000
0.681395 0.934961 0.020000
0.805834 0.934961 0.020000
0.928617 0.934961 0.020000
1.000000 0.934961 0.020000
0.000000 1.000000 0.020000
0.155005 1.000000 0.020000
0.293288 1.000000 0.020000
0.425891 1.000000 0.020000
0.554934 1.000000 0.020000
0.681395 1.000000 0.020000
0.805834 1.000000 0.020000
0.928617 1.000000 0.020000
1.000000 1.000000 0.020000
0.000000 0.000000 0.192360
0.155005 0.000000 0.192360
0.293288 0.000000 0.192360
0.425891 0.000000 0.192360
0.554934 0.000000 0.192360
0.681395 0.000000 0.192360
0.805834 0.000000 0.192360
0.928617 0.000000 0.192360
1.000000 0.000000 0.192360
0.000000 0.150107 0.192360
0.155005 0.150107 0.192360
0.293288 0.150107 0.192360
0.425891 0.150107 0.192360
0.554934 0.150107 0.192360
0.681395 0.150107 0.192360
0.805834 0.150107 0.192360
0.928617 0.150107 0.192360
1.000000 0.150107 0.192360
0.000000 0.287985 0.192360
0.155005 0.287985 0.192360
0.293288 0.287985 0.192360
0.425891 0.287985 0.192360
0.554934 0.287985 0.192360
0.681395 0.287985 0.192360
0.805834 0.287985 0.192360
0.928617 0.287985 0.192360
1.000000 0.287985 0.192360
0.000000 0.421595 0.192360
0.155005 0.421595 0.192360
0.293288 0.421595 0.192360
0.425891 0.421595 0.192360
0.554934 0.421595 0.192360
0.681395 0.421595 0.192360
0.805834 0.421595 0.192360
0.928617 0.421595 0.192360
1.000000 0.421595 0.192360
0.000000 0.552507 0.192360
0.155005 0.552507 0.192360
0.293288 0.552507 0.192360
0.425891 0.552507 0.192360
0.554934 0.552507 0.192360
0.681395 0.552507 0.192360
0.805834 0.552507 0.192360
0.928617 0.552507 0.192360
1.000000 0.552507 0.192360
0.000000 0.681449 0.192360
0.155005 0.681449 0.192360
0.293288 0.681449 0.192360
0.425891 0.681449 0.192360
0.554934 0.681449 0.192360
0.681395 0.681449 0.192360
0.805834 0.681449 0.192360
0.928617 0.681449 0.192360
1.000000 0.681449 0.192360
0.000000 0.808842 0.192360
0.155005 0.808842 0.192360
0.293288 0.808842 0.192360
0.425891 0.808842 0.192360
0.554934 0.808842 0.192360
0.681395 0.808842 0.192360
0.805834 0.808842 0.192360
0.928617 0.808842 0.192360
1.000000 0.808842 0.192360
0.000000 0.934961 0.192360
0.155005 0.934961 0.192360
0.293288 0.934961 0.192360
0.425891 0.934961 0.192360
0.554934 0.934961 0.192360
0.681395 0.934961 0.192360
0.805834 0.934961 0.192360
0.928617 0.934961 0.192360
1.000000 0.934961 0.192360
0.000000 1.000000 0.192360
0.155005 1.000000 0.192360
0.293288 1.000000 0.192360
0.425891 1.000000 0.192360
0.554934 1.000000 0.192360
0.681395 1.000000 0.192360
0.805834 1.000000 0.192360
0.928617 1.000000 0.192360
1.000000 1.000000 0.192360
0.000000 0.000000 0.341636
0.155005 0.000000 0.341636
0.293288 0.000000 0.341636
0.425891 0.000000 0.341636
0.554934 0.000000 0.341636
0.681395 0.000000 0.341636
0.805834 0.000000 0.341636
0.928617 0.000000 0.341636
1.000000 0.000000 0.341636
0.000000 0.150107 0.341636
0.155005 0.150107 0.341636
0.293288 0.150107 0.341636
0.425891 0.150107 0.341636
0.554934 0.150107 0.341636
0.681395 0.150107 0.341636
0.805834 0.150107 0.341636
0.928617 0.150107 0.341636
1.000000 0.150107 0.341636
0.000000 0.287985 0.341636
0.155005 0.287985 0.341636
0.293288 0.287985 0.341636
0.425891 0.287985 0.341636
0.554934 0.287985 0.341636
0.681395 0.287985 0.341636
0.805834 0.287985 0.341636
0.928617 0.287985 0.341636
1.000000 0.287985 0.341636
0.000000 0.421595 0.341636
0.155005 0.421595 0.341636
0.293288 0.421595 0.341636
0.425891 0.421595 0.341636
0.554934 0.421595 0.341636
0.681395 0.421595 0.341636
0.805834 0.421595 0.341636
0.928617 0.421595 0.341636
1.000000 0.421595 0.341636
0.000000 0.552507 0.341636
0.155005 0.552507 0.341636
0.293288 0.552507 0.341636
0.425891 0.552507 0.341636
0.554934 0.552507 0.341636
0.681395 0.552507 0.341636
0.805834 0.552507 0.341636
0.928617 0.552507 0.341636
1.000000 0.552507 0.341636
0.000000 0.681449 0.341636
0.155005 0.681449 0.341636
0.293288 0.681449 0.341636
0.425891 0.681449 0.341636
0.554934 0.681449 0.341636
0.681395 0.681449 0.341636
0.805834 0.681449 0.341636
0.928617 0.681449 0.341636
1.000000 0.681449 0.341636
0.000000 0.808842 0.341636
0.155005 0.808842 0.341636
0.293288 0.808842 0.341636
0.425891 0.808842 0.341636
0.554934 0.808842 0.341636
0.681395 0.808842 0.341636
0.805834 0.808842 0.341636
0.928617 0.808842 0.341636
1.000000 0.808842 0.341636
0.000000 0.934961 0.341636
0.155005 0.934961 0.341636
0.293288 0.934961 0.341636
0.425891 0.934961 0.341636
0.554934 0.934961 0.341636
0.681395 0.934961 0.341636
0.805834 0.934961 0.341636
0.928617 0.934961 0.341636
1.000000 0.934961 0.341636
0.000000 1.000000 0.341636
0.155005 1.000000 0.341636
0.293288 1.000000 0.341636
0.425891 1.000000 0.341636
0.554934 1.000000 0.341636
0.681395 1.000000 0.341636
0.805834 1.000000 0.341636
0.928617 1.000000 0.341636
1.000000 1.000000 0.341636
0.000000 0.000000 0.483283
0.155005 0.000000 0.483283
0.293288 0.000000 0.483283
0.425891 0.000000 0.483283
0.554934 0.000000 0.483283
0.681395 0.000000 0.483283
0.805834 0.000000 0.483283
0.928617 0.000000 0.483283
1.000000 0.000000 0.483283
0.000000 0.150107 0.483283
0.155005 0.150107 0.483283
0.293288 0.150107 0.483283
0.425891 0.150107 0.483283
0.554934 0.150107 0.483283
0.681395 0.150107 0.483283
0.805834 0.150107 0.483283
0.928617 0.150107 0.483283
1.000000 0.150107 0.483283
0.000000 0.287985 0.483283
0.155005 0.287985 0.483283
0.293288 0.287985 0.483283
0.425891 0.287985 0.483283
0.554934 0.287985 0.483283
0.681395 0.287985 0.483283
0.805834 0.287985 0.483283
0.928617 0.287985 0.483283
1.000000 0.287985 0.483283
0.000000 0.421595 0.483283
0.155005 0.421595 0.483283
0.293288 0.421595 0.483283
0.425891 0.421595 0.483283
0.554934 0.421595 0.483283
0.681395 0.421595 0.483283
0.805834 0.421595 0.483283
0.928617 0.421595 0.483283
1.000000 0.421595 0.483283
0.000000 0.552507 0.483283
0.155005 0.552507 0.483283
0.293288 0.552507 0.483283
0.425891 0.552507 0.483283
0.554934 0.552507 0.483283
0.681395 0.552507 0.483283
0.805834 0.552507 0.483283
0.928617 0.552507 0.483283
1.000000 0.552507 0.483283
0.000000 0.681449 0.483283
0.155005 0.681449 0.483283
0.293288 0.681449 0.483283
0.425891 0.681449 0.483283
0.554934 0.681449 0.483283
0.681395 0.681449 0.483283
0.805834 0.681449 0.483283
0.928617 0.681449 0.483283
1.000000 0.681449 0.483283
0.000000 0.808842 0.483283
0.155005 0.808842 0.483283
0.293288 0.808842 0.483283
0.425891 0.808842 0.483283
0.554934 0.808842 0.483283
0.681395 0.808842 0.483283
0.805834 0.808842 0.483283
0.928617 0.808842 0.483283
1.000000 0.808842 0.483283
0.000000 0.934961 0.483283
0.155005 0.934961 0.483283
0.293288 0.934961 0.483283
0.425891 0.934961 0.483283
0.554934 0.934961 0.483283
0.681395 0.934961 0.483283
0.805834 0.934961 0.483283
0.928617 0.934961 0.483283
1.000000 0.934961 0.483283
0.000000 1.000000 0.483283
0.155005 1.000000 0.483283
0.293288 1.000000 0.483283
0.425891 1.000000 0.483283
0.554934 1.000000 0.483283
0.681395 1.000000 0.483283
0.805834 1.000000 0.483283
0.928617 1.000000 0.483283
1.000000 1.000000 0.483283
0.000000 0.000000 0.620193
0.155005 0.000000 0.620193
0.293288 0.000000 0.620193
0.425891 0.000000 0.620193
0.554934 0.000000 0.620193
0.681395 0.000000 0.620193
0.805834 0.000000 0.620193
0.928617 0.000000 0.620193
1.000000 0.000000 0.620193
0.000000 0.150107 0.620193
0.155005 0.150107 0.620193
0.293288 0.150107 0.620193
0.425891 0.150107 0.620193
0.554934 0.150107 0.620193
0.681395 0.150107 0.620193
0.805834 0.150107 0.620193
0.928617 0.150107 0.620193
1.000000 0.150107 0.620193
0.000000 0.287985 0.620193
0.155005 0.287985 0.620193
0.293288 0.287985 0.620193
0.425891 0.287985 0.620193
0.554934 0.287985 0.620193
0.681395 0.287985 0.620193
0.805834 0.287985 0.620193
0.928617 0.287985 0.620193
1.000000 0.287985 0.620193
0.000000 0.421595 0.620193
0.155005 0.421595 0.620193
0.293288 0.421595 0.620193
0.425891 0.421595 0.620193
0.554934 0.421595 0.620193
0.681395 0.421595 0.620193
0.805834 0.421595 0.620193
0.928617 0.421595 0.620193
1.000000 0.421595 0.620193
0.000000 0.552507 0.620193
0.155005 0.552507 0.620193
0.293288 0.552507 0.620193
0.425891 0.552507 0.620193
0.554934 0.552507 0.620193
0.681395 0.552507 0.620193
0.805834 0.552507 0.620193
0.928617 0.552507 0.620193
1.000000 0.552507 0.620193
0.000000 0.681449 0.620193
0.155005 0.681449 0.620193
0.293288 0.681449 0.620193
0.425891 0.681449 0.620193
0.554934 0.681449 0.620193
0.681395 0.681449 0.620193
0.805834 0.681449 0.620193
0.928617 0.681449 0.620193
1.000000 0.681449 0.620193
0.000000 0.808842 0.620193
0.155005 0.808842 0.620193
0.293288 0.808842 0.620193
0.425891 0.808842 0.620193
0.554934 0.808842 0.620193
0.681395 0.808842 0.620193
0.805834 0.808842 0.620193
0.928617 0.808842 0.620193
1.000000 0.808842 0.620193
0.000000 0.934961 0.620193
0.155005 0.934961 0.620193
0.293288 0.934961 0.620193
0.425891 0.934961 0.620193
0.554934 0.934961 0.620193
0.681395 0.934961 0.620193
0.805834 0.934961 0.620193
0.928617 0.934961 0.620193
1.000000 0.934961 0.620193
0.000000 1.000000 0.620193
0.155005 1.000000 0.620193
0.293288 1.000000 0.620193
0.425891 1.000000 0.620193
0.554934 1.000000 0.620193
0.681395 1.000000 0.620193
0.805834 1.000000 0.620193
0.928617 1.000000 0.620193
1.000000 1.000000 0.620193
0.000000 0.000000 0.753686
0.155005 0.000000 0.753686
0.293288 0.000000 0.753686
0.425891 0.000000 0.753686
0.554934 0.000000 0.753686
0.681395 0.000000 0.753686
0.805834 0.000000 0.753686
0.928617 0.000000 0.753686
1.000000 0.000000 0.753686
0.000000 0.150107 0.753686
0.155005 0.150107 0.753686
0.293288 0.150107 0.753686
0.425891 0.150107 0.753686
0.554934 0.150107 0.753686
0.681395 0.150107 0.753686
0.805834 0.150107 0.753686
0.928617 0.150107 0.753686
1.000000 0.150107 0.753686
0.000000 0.287985 0.753686
0.155005 0.287985 0.753686
0.293288 0.287985 0.753686
0.425891 0.287985 0.753686
0.554934 0.287985 0.753686
0.681395 0.287985 0.753686
0.805834 0.287985 0.753686
0.928617 0.287985 0.753686
1.000000 0.287985 0.753686
0.000000 0.421595 0.753686
0.155005 0.421595 0.753686
0.293288 0.421595 0.753686
0.425891 0.421595 0.753686
0.554934 0.421595 0.753686
0.681395 0.421595 0.753686
0.805834 0.421595 0.753686
0.928617 0.421595 0.753686
1.000000 0.421595 0.753686
0.000000 0.552507 0.753686
0.155005 0.552507 0.753686
0.293288 0.552507 0.753686
0.425891 0.552507 0.753686
0.554934 0.552507 0.753686
0.681395 0.552507 0.753686
0.805834 0.552507 0.753686
0.928617 0.552507 0.753686
1.000000 0.552507 0.753686
0.000000 0.681449 0.753686
0.155005 0.681449 0.753686
0.293288 0.681449 0.753686
0.425891 0.681449 0.753686
0.554934 0.681449 0.753686
0.681395 0.681449 0.753686
0.805834 0.681449 0.753686
0.928617 0.681449 0.753686
1.000000 0.681449 0.753686
0.000000 0.808842 0.753686
0.155005 0.808842 0.753686
0.293288 0.808842 0.753686
0.425891 0.808842 0.753686
0.554934 0.808842 0.753686
0.681395 0.808842 0.753686
0.805834 0.808842 0.753686
0.928617 0.808842 0.753686
1.000000 0.808842 0.753686
0.000000 0.934961 0.753686
0.155005 0.934961 0.753686
0.293288 0.934961 0.753686
0.425891 0.934961 0.753686
0.554934 0.934961 0.753686
0.681395 0.934961 0.753686
0.805834 0.934961 0.753686
0.928617 0.934961 0.753686
1.000000 0.934961 0.753686
0.000000 1.000000 0.753686
0.155005 1.000000 0.753686
0.293288 1.000000 0.753686
0.425891 1.000000 0.753686
0.554934 1.000000 0.753686
0.681395 1.000000 0.753686
0.805834 1.000000 0.753686
0.928617 1.000000 0.753686
1.000000 1.000000 0.753686
0.000000 0.000000 0.884516
0.155005 0.000000 0.884516
0.293288 0.000000 0.884516
0.425891 0.000000 0.884516
0.554934 0.000000 0.884516
0.681395 0.000000 0.884516
0.805834 0.000000 0.884516
0.928617 0.000000 0.884516
1.000000 0.000000 0.884516
0.000000 0.150107 0.884516
0.155005 0.150107 0.884516
0.293288 0.150107 0.884516
0.425891 0.150107 0.884516
0.554934 0.150107 0.884516
0.681395 0.150107 0.884516
0.805834 0.150107 0.884516
0.928617 0.150107 0.884516
1.000000 0.150107 0.884516
0.000000 0.287985 0.884516
0.155005 0.287985 0.884516
0.293288 0.287985 0.884516
0.425891 0.287985 0.884516
0.554934 0.287985 0.884516
0.681395 0.287985 0.884516
0.805834 0.287985 0.884516
0.928617 0.287985 0.884516
1.000000 0.287985 0.884516
0.000000 0.421595 0.884516
0.155005 0.421595 0.884516
0.293288 0.421595 0.884516
0.425891 0.421595 0.884516
0.554934 0.421595 0.884516
0.681395 0.421595 0.884516
0.805834 0.421595 0.884516
0.928617 0.421595 0.884516
1.000000 0.421595 0.884516
0.000000 0.552507 0.884516
0.155005 0.552507 0.884516
0.293288 0.552507 0.884516
0.425891 0.552507 0.884516
0.554934 0.552507 0.884516
0.681395 0.552507 0.884516
0.805834 0.552507 0.884516
0.928617 0.552507 0.884516
1.000000 0.552507 0.884516
0.000000 0.681449 0.884516
0.155005 0.681449 0.884516
0.293288 0.681449 0.884516
0.425891 0.681449 0.884516
0.554934 0.681449 0.884516
0.681395 0.681449 0.884516
0.805834 0.681449 0.884516
0.928617 0.681449 0.884516
1.000000 0.681449 0.884516
0.000000 0.808842 0.884516
0.155005 0.808842 0.884516
0.293288 0.808842 0.884516
0.425891 0.808842 0.884516
0.554934 0.808842 0.884516
0.681395 0.808842 0.884516
0.805834 0.808842 0.884516
0.928617 0.808842 0.884516
1.000000 0.808842 0.884516
0.000000 0.934961 0.884516
0.155005 0.934961 0.884516
0.293288 0.934961 0.884516
0.425891 0.934961 0.884516
0.554934 0.934961 0.884516
0.681395 0.934961 0.884516
0.805834 0.934961 0.884516
0.928617 0.934961 0.884516
1.000000 0.934961 0.884516
0.000000 1.000000 0.884516
0.155005 1.000000 0.884516
0.293288 1.000000 0.884516
0.425891 1.000000 0.884516
0.554934 1.000000 0.884516
0.681395 1.000000 0.884516
0.805834 1.000000 0.884516
0.928617 1.000000 0.884516
1.000000 1.000000 0.884516
0.000000 0.000000 1.000000
0.155005 0.000000 1.000000
0.293288 0.000000 1.000000
0.425891 0.000000 1.000000
0.554934 0.000000 1.000000
0.681395 0.000000 1.000000
0.805834 0.000000 1.000000
0.928617 0.000000 1.000000
1.000000 0.000000 1.000000
0.000000 0.150107 1.000000
0.155005 0.150107 1.000000
0.293288 0.150107 1.000000
0.425891 0.150107 1.000000
0.554934 0.150107 1.000000
0.681395 0.150107 1.000000
0.805834 0.150107 1.000000
0.928617 0.150107 1.000000
1.000000 0.150107 1.000000
0.000000 0.287985 1.000000
0.155005 0.287985 1.000000
0.293288 0.287985 1.000000
0.425891 0.287985 1.000000
0.554934 0.287985 1.000000
0.681395 0.287985 1.000000
0.805834 0.287985 1.000000
0.928617 0.287985 1.000000
1.000000 0.287985 1.000000
0.000000 0.421595 1.000000
0.155005 0.421595 1.000000
0.293288 0.421595 1.000000
0.425891 0.421595 1.000000
0.554934 0.421595 1.000000
0.681395 0.421595 1.000000
0.805834 0.421595 1.000000
0.928617 0.421595 1.000000
1.000000 0.421595 1.000000
0.000000 0.552507 1.000000
0.155005 0.552507 1.000000
0.293288 0.552507 1.000000
0.425891 0.552507 1.000000
0.554934 0.552507 1.000000
0.681395 0.552507 1.000000
0.805834 0.552507 1.000000
0.928617 0.552507 1.000000
1.000000 0.552507 1.000000
0.000000 0.681449 1.000000
0.155005 0.681449 1.000000
0.293288 0.681449 1.000000
0.425891 0.681449 1.000000
0.554934 0.681449 1.000000
0.681395 0.681449 1.000000
0.805834 0.681449 1.000000
0.928617 0.681449 1.000000
1.000000 0.681449 1.000000
0.000000 0.808842 1.000000
0.155005 0.808842 1.000000
0.293288 0.808842 1.000000
0.425891 0.808842 1.000000
0.554934 0.808842 1.000000
0.681395 0.808842 1.000000
0.805834 0.808842 1.000000
0.928617 0.808842 1.000000
1.000000 0.808842 1.000000
0.000000 0.934961 1.000000
0.155005 0.934961 1.000000
0.293288 0.934961 1.000000
0.425891 0.934961 1.000000
0.554934 0.934961 1.000000
0.681395 0.934961 1.000000
0.805834 0.934961 1.000000
0.928617 0.934961 1.000000
1.000000 0.934961 1.000000
0.000000 1.000000 1.000000
0.155005 1.000000 1.000000
0.293288 1.000000 1.000000
0.425891 1.000000 1.000000
0.554934 1.000000 1.000000
0.681395 1.000000 1.000000
0.805834 1.000000 1.000000
0.928617 1.000000 1.000000
1.000000 1.000000 1.000000
0.000000 0.000000 1.000000
0.155005 0.000000 1.000000
0.293288 0.000000 1.000000
0.425891 0.000000 1.000000
0.554934 0.000000 1.000000
0.681395 0.000000 1.000000
0.805834 0.000000 1.000000
0.928617 0.000000 1.000000
1.000000 0.000000 1.000000
0.000000 0.150107 1.000000
0.155005 0.150107 1.000000
0.293288 0.150107 1.000000
0.425891 0.150107 1.000000
0.554934 0.150107 1.000000
0.681395 0.150107 1.000000
0.805834 0.150107 1.000000
0.928617 0.150107 1.000000
1.000000 0.150107 1.000000
0.000000 0.287985 1.000000
0.155005 0.287985 1.000000
0.293288 0.287985 1.000000
0.425891 0.287985 1.000000
0.554934 0.287985 1.000000
0.681395 0.287985 1.000000
0.805834 0.287985 1.000000
0.928617 0.287985 1.000000
1.000000 0.287985 1.000000
0.000000 0.421595 1.000000
0.155005 0.421595 1.000000
0.293288 0.421595 1.000000
0.425891 0.421595 1.000000
0.554934 0.421595 1.000000
0.681395 0.421595 1.000000
0.805834 0.421595 1.000000
0.928617 0.421595 1.000000
1.000000 0.421595 1.000000
0.000000 0.552507 1.000000
0.155005 0.552507 1.000000
0.293288 0.552507 1.000000
0.425891 0.552507 1.000000
0.554934 0.552507 1.000000
0.681395 0.552507 1.000000
0.805834 0.552507 1.000000
0.928617 0.552507 1.000000
1.000000 0.552507 1.000000
0.000000 0.681449 1.000000
0.155005 0.681449 1.000000
0.293288 0.681449 1.000000
0.425891 0.681449 1.000000
0.554934 0.681449 1.000000
0.681395 0.681449 1.000000
0.805834 0.681449 1.000000
0.928617 0.681449 1.000000
1.000000 0.681449 1.000000
0.000000 0.808842 1.000000
0.155005 0.808842 1.000000
0.293288 0.808842 1.000000
0.425891 0.808842 1.000000
0.554934 0.808842 1.000000
0.681395 0.808842 1.000000
0.805834 0.808842 1.000000
0.928617 0.808842 1.000000
1.000000 0.808842 1.000000
0.000000 0.934961 1.000000
0.155005 0.934961 1.000000
0.293288 0.934961 1.000000
0.425891 0.934961 1.000000
0.554934 0.934961 1.000000
0.681395 0.934961 1.000000
0.805834 0.934961 1.000000
0.928617 0.934961 1.000000
1.000000 0.934961 1.000000
0.000000 1.000000 1.000000
0.155005 1.000000 1.000000
0.293288 1.000000 1.000000
0.425891 1.000000 1.000000
0.554934 1.000000 1.000000
0.681395 1.000000 1.000000
0.805834 1.000000 1.000000
0.928617 1.000000 1.000000
1.000000 1.000000 1.000000
