custom_nodes/comfyui-vrgamedevgirl/LUTS/Bright_Muted_Cool_Cinematic.cube
#Created by: Adobe Photoshop Export Color Lookup Plugin
TITLE "NOLUT.png"
#LUT size
LUT_3D_SIZE 65
#data domain
DOMAIN_MIN 0.0 0.0 0.0
DOMAIN_MAX 1.0 1.0 1.0
#LUT data points
0.049591 0.050934 0.046051
0.059753 0.051361 0.047852
0.071442 0.051941 0.049744
0.084442 0.052216 0.051941
0.097778 0.052582 0.054443
0.110870 0.053467 0.056549
0.125702 0.053528 0.059540
0.139893 0.054291 0.061890
0.155518 0.054535 0.064728
0.170319 0.055603 0.067017
0.186584 0.056122 0.069916
0.203644 0.056519 0.072815
0.220276 0.057556 0.075348
0.238708 0.057953 0.078674
0.256744 0.059021 0.081482
0.276123 0.059723 0.084625
0.295471 0.060760 0.087952
0.315643 0.061768 0.090973
0.336060 0.062714 0.094482
0.356293 0.063873 0.097595
0.376526 0.065033 0.100372
0.396576 0.066040 0.103546
0.416595 0.066864 0.106903
0.435455 0.068024 0.109802
0.453979 0.068878 0.112610
0.471344 0.069885 0.115234
0.487976 0.070740 0.117676
0.503235 0.071869 0.119659
0.518005 0.072632 0.121887
0.531891 0.073486 0.123962
0.544861 0.074402 0.125732
0.557495 0.075073 0.127594
0.569397 0.075806 0.129242
0.581085 0.076447 0.131104
0.592255 0.077148 0.132721
0.603455 0.077728 0.134247
0.614319 0.078491 0.135803
0.625000 0.079224 0.137329
0.635345 0.080017 0.138489
0.646027 0.080597 0.140167
0.656921 0.081116 0.141998
0.667511 0.081848 0.143311
0.678192 0.082581 0.144836
0.688873 0.083405 0.146179
0.699890 0.084045 0.147552
0.710846 0.084839 0.149078
0.721680 0.085632 0.150482
0.732941 0.086304 0.152100
0.744110 0.086975 0.153809
0.755310 0.087830 0.155090
0.766724 0.088562 0.156830
0.777893 0.089417 0.158081
0.789246 0.090210 0.159698
0.800751 0.090881 0.161255
0.812134 0.091797 0.162659
0.823792 0.092529 0.164429
0.835052 0.093506 0.165527
0.846741 0.094238 0.167297
0.858521 0.094940 0.168915
0.869965 0.095886 0.170319
0.881470 0.096771 0.171783
0.893188 0.097595 0.173187
0.904938 0.098358 0.174927
0.916565 0.099304 0.176392
0.928467 0.099945 0.178040
0.052185 0.065796 0.046112
0.061401 0.066376 0.046509
0.071686 0.062592 0.046387
0.084747 0.060516 0.047058
0.097229 0.059235 0.046631
0.110504 0.057678 0.046631
0.125458 0.055267 0.047089
0.139648 0.054352 0.047607
0.155365 0.054504 0.050751
0.170197 0.055542 0.053162
0.186584 0.056030 0.055786
0.202789 0.056915 0.058228
0.220428 0.057343 0.061707
0.237915 0.058289 0.064392
0.256500 0.059052 0.067474
0.276001 0.059601 0.071014
0.295471 0.060638 0.074066
0.315765 0.061493 0.077454
0.335693 0.062805 0.080200
0.356171 0.063873 0.083344
0.376740 0.064728 0.086639
0.396606 0.065918 0.089661
0.416626 0.066711 0.092987
0.435303 0.067993 0.095642
0.453491 0.069122 0.098297
0.470886 0.070068 0.100800
0.487518 0.070892 0.103394
0.503510 0.071594 0.105927
0.517761 0.072723 0.107849
0.531982 0.073303 0.110077
0.544983 0.074219 0.111877
0.557617 0.074890 0.113800
0.569489 0.075592 0.115448
0.581024 0.076355 0.117188
0.591949 0.077271 0.118378
0.603119 0.077850 0.120087
0.614105 0.078491 0.121643
0.624603 0.079315 0.123047
0.635193 0.080017 0.124390
0.646179 0.080414 0.126404
0.656647 0.081238 0.127472
0.667389 0.081818 0.129089
0.677917 0.082672 0.130554
0.688904 0.083282 0.132019
0.699463 0.084259 0.133362
0.710571 0.084869 0.134979
0.721832 0.085419 0.136719
0.733002 0.086182 0.138031
0.743805 0.087158 0.139465
0.755249 0.087799 0.140961
0.766479 0.088623 0.142426
0.777924 0.089264 0.143982
0.789276 0.090057 0.145630
0.800446 0.091034 0.146912
0.812042 0.091736 0.148560
0.823456 0.092621 0.149994
0.835205 0.093262 0.151733
0.846710 0.094177 0.152954
0.858551 0.094818 0.154816
0.869812 0.095886 0.156036
0.881531 0.096619 0.157532
0.893280 0.097443 0.159149
0.905029 0.098206 0.160889
0.916870 0.098969 0.162445
0.928070 0.100098 0.163513
0.055023 0.081085 0.046356
0.065735 0.080994 0.046661
0.077789 0.081055 0.046600
0.084625 0.075775 0.046783
0.098053 0.073914 0.046783
0.111145 0.072357 0.046936
0.125824 0.070068 0.047455
0.140137 0.068298 0.047485
0.155151 0.066254 0.047882
0.170990 0.064056 0.047974
0.187164 0.061859 0.048065
0.203217 0.059875 0.048248
0.220398 0.057678 0.048004
0.237854 0.058228 0.049957
0.256409 0.058899 0.053223
0.275635 0.059631 0.056458
0.295288 0.060577 0.059601
0.315063 0.061768 0.062622
0.335632 0.062714 0.065674
0.356049 0.063721 0.069305
0.376709 0.064575 0.072266
0.396942 0.065460 0.075836
0.416016 0.066895 0.078186
0.435089 0.067932 0.081116
0.453461 0.068939 0.083984
0.470886 0.069916 0.086395
0.487396 0.070892 0.088776
0.502991 0.071777 0.091339
0.517853 0.072510 0.093323
0.531586 0.073486 0.095184
0.545197 0.073944 0.097382
0.557312 0.074921 0.099152
0.569275 0.075653 0.100708
0.580780 0.076355 0.102448
0.592041 0.077118 0.103943
0.603302 0.077576 0.105896
0.614227 0.078308 0.107330
0.624725 0.079102 0.108521
0.635437 0.079712 0.110016
0.645691 0.080627 0.111176
0.656616 0.081146 0.113068
0.667236 0.081879 0.114380
0.678223 0.082397 0.116089
0.688751 0.083282 0.117310
0.699554 0.084015 0.118927
0.710724 0.084686 0.120453
0.721710 0.085419 0.121918
0.732880 0.086212 0.123199
0.743835 0.087036 0.124756
0.755249 0.087677 0.126465
0.766541 0.088501 0.127991
0.777802 0.089233 0.129242
0.788940 0.090210 0.130737
0.800598 0.090820 0.132385
0.811981 0.091705 0.133667
0.823517 0.092529 0.135468
0.834991 0.093292 0.136841
0.846588 0.094116 0.138306
0.858398 0.094849 0.139984
0.869904 0.095764 0.141357
0.881500 0.096558 0.142761
0.893097 0.097504 0.144318
0.904785 0.098297 0.145874
0.916687 0.098999 0.147583
0.928223 0.100006 0.148865
0.057251 0.097015 0.046936
0.067810 0.096954 0.047241
0.079742 0.097076 0.047394
0.092346 0.097260 0.047516
0.097900 0.089386 0.047180
0.111969 0.087433 0.046997
0.125946 0.085541 0.047607
0.140961 0.083252 0.048004
0.155792 0.081329 0.048218
0.170929 0.079529 0.047974
0.186981 0.077362 0.048309
0.203766 0.075073 0.048370
0.220428 0.073120 0.048096
0.238525 0.070618 0.048370
0.256805 0.068390 0.048126
0.275726 0.065979 0.048126
0.295685 0.063263 0.047974
0.314728 0.061859 0.047394
0.335571 0.062592 0.051178
0.356140 0.063629 0.054108
0.376465 0.064606 0.057373
0.396149 0.065887 0.060089
0.416046 0.066833 0.063202
0.435089 0.067810 0.066345
0.453857 0.068573 0.069427
0.470978 0.069794 0.071381
0.487244 0.070892 0.073761
0.502991 0.071655 0.076355
0.517883 0.072418 0.078369
0.531586 0.073334 0.080322
0.544708 0.074127 0.082245
0.557068 0.074982 0.083923
0.569183 0.075623 0.085693
0.580719 0.076355 0.087524
0.591949 0.077057 0.088806
0.602783 0.077881 0.090393
0.613708 0.078613 0.091766
0.624542 0.079224 0.093323
0.635101 0.079865 0.094757
0.645935 0.080353 0.096558
0.656250 0.081299 0.097717
0.667053 0.081909 0.099213
0.677887 0.082520 0.100983
0.688904 0.083160 0.102295
0.699585 0.083984 0.103699
0.710571 0.084747 0.105072
0.721466 0.085541 0.106445
0.732849 0.086121 0.108337
0.743927 0.086853 0.109833
0.755127 0.087708 0.111206
0.766693 0.088318 0.112854
0.777557 0.089355 0.114105
0.789124 0.090057 0.115662
0.800354 0.090912 0.117157
0.812012 0.091614 0.118744
0.823578 0.092438 0.120270
0.834686 0.093475 0.121552
0.846649 0.094025 0.123352
0.858215 0.094940 0.124756
0.869904 0.095642 0.126343
0.881317 0.096649 0.127625
0.893066 0.097443 0.129120
0.904968 0.098145 0.130890
0.916473 0.099152 0.132233
0.928131 0.099915 0.133545
0.060608 0.112549 0.047485
0.071198 0.112549 0.047211
0.082886 0.112823 0.047516
0.095428 0.113007 0.047424
0.107849 0.113586 0.047455
0.112732 0.102539 0.047699
0.126465 0.100769 0.048065
0.140991 0.098938 0.047913
0.156128 0.096832 0.048035
0.171112 0.095062 0.048340
0.187378 0.092773 0.048767
0.204071 0.090485 0.048645
0.221619 0.088074 0.048645
0.238861 0.086060 0.048553
0.257690 0.083466 0.048737
0.276459 0.081116 0.048798
0.296051 0.078766 0.048126
0.316193 0.076141 0.048157
0.336487 0.073669 0.047729
0.356964 0.071167 0.047546
0.376648 0.069092 0.046631
0.396210 0.066833 0.046051
0.416138 0.066650 0.048218
0.434875 0.067871 0.050995
0.453339 0.068878 0.053528
0.470581 0.069977 0.055786
0.487457 0.070679 0.058502
0.503052 0.071594 0.060944
0.517548 0.072540 0.063019
0.531647 0.073242 0.065094
0.544830 0.074066 0.066742
0.557281 0.074799 0.068726
0.569397 0.075439 0.070526
0.580627 0.076355 0.071777
0.591736 0.077209 0.073212
0.603058 0.077667 0.074921
0.613983 0.078400 0.076324
0.624603 0.079102 0.078003
0.635284 0.079681 0.079773
0.645630 0.080566 0.080719
0.656647 0.080963 0.082581
0.667267 0.081696 0.083923
0.677856 0.082489 0.085510
0.688690 0.083221 0.086914
0.699554 0.083954 0.088196
0.710663 0.084625 0.089752
0.721436 0.085510 0.091034
0.732849 0.086121 0.092773
0.743805 0.086945 0.094208
0.755127 0.087677 0.095703
0.766235 0.088562 0.097229
0.777710 0.089203 0.098602
0.788971 0.090057 0.100189
0.800507 0.090790 0.101654
0.811768 0.091766 0.102905
0.823303 0.092529 0.104675
0.834869 0.093353 0.105896
0.846710 0.093994 0.107758
0.858246 0.094879 0.109131
0.869843 0.095673 0.110870
0.881378 0.096588 0.112091
0.893219 0.097321 0.113831
0.904785 0.098206 0.115417
0.916382 0.099121 0.116608
0.928101 0.099945 0.118164
0.062866 0.128998 0.047668
0.073364 0.129089 0.047455
0.085480 0.129089 0.047668
0.097900 0.129364 0.047699
0.111084 0.129486 0.048126
0.125153 0.129517 0.047638
0.126648 0.116669 0.047913
0.141632 0.114410 0.048401
0.156250 0.112640 0.048401
0.171631 0.110748 0.048248
0.188049 0.108368 0.048706
0.204163 0.106354 0.048737
0.221954 0.103851 0.048645
0.239960 0.101318 0.049164
0.257996 0.099182 0.048950
0.277222 0.096497 0.049377
0.296997 0.094055 0.048889
0.317047 0.091522 0.048950
0.337280 0.088989 0.048737
0.357666 0.086609 0.048157
0.377625 0.084412 0.047516
0.398041 0.081573 0.047791
0.417419 0.079468 0.046844
0.435852 0.077545 0.045837
0.454224 0.075348 0.045319
0.471313 0.073517 0.044739
0.487305 0.071869 0.043732
0.502808 0.071808 0.044434
0.517731 0.072357 0.047241
0.531555 0.073334 0.049133
0.544525 0.074249 0.050659
0.557037 0.074982 0.052277
0.569153 0.075623 0.054138
0.580750 0.076355 0.055786
0.592072 0.076935 0.057526
0.603180 0.077637 0.059082
0.614136 0.078217 0.060974
0.624847 0.078949 0.062042
0.635254 0.079742 0.063507
0.645813 0.080383 0.065002
0.656311 0.081207 0.066345
0.667267 0.081726 0.067993
0.677704 0.082642 0.069244
0.688812 0.083160 0.070892
0.699249 0.084198 0.072021
0.710510 0.084717 0.073730
0.721649 0.085358 0.075226
0.732727 0.086212 0.076599
0.743835 0.086945 0.078003
0.754974 0.087799 0.079712
0.766510 0.088379 0.081390
0.777832 0.089142 0.082703
0.789093 0.089996 0.084351
0.800385 0.090851 0.085541
0.811890 0.091644 0.087067
0.823486 0.092468 0.088684
0.834869 0.093323 0.090118
0.846497 0.094147 0.091553
0.858093 0.095062 0.092804
0.869659 0.095856 0.094666
0.881317 0.096649 0.096069
0.893158 0.097382 0.097870
0.904633 0.098358 0.099030
0.916443 0.099121 0.100677
0.928314 0.099854 0.102173
0.066406 0.145050 0.048065
0.076630 0.145233 0.047943
0.088684 0.145294 0.048004
0.101349 0.145447 0.048096
0.114563 0.145630 0.047943
0.128296 0.145782 0.048035
0.141846 0.145782 0.048340
0.141785 0.130768 0.048462
0.156464 0.128723 0.048401
0.171906 0.126678 0.048615
0.188202 0.124390 0.048706
0.205200 0.121948 0.048920
0.222046 0.119843 0.049286
0.240051 0.117432 0.049011
0.258453 0.114960 0.049530
0.277924 0.112305 0.049255
0.297516 0.109833 0.049347
0.317505 0.107391 0.049011
0.338165 0.104645 0.049225
0.358368 0.102234 0.049011
0.378815 0.099640 0.048523
0.398865 0.097198 0.048126
0.418182 0.095062 0.047668
0.437622 0.092499 0.047607
0.455536 0.090668 0.046387
0.472839 0.088562 0.046173
0.489380 0.086700 0.045166
0.504395 0.085175 0.044647
0.519043 0.083496 0.044128
0.532959 0.082001 0.043213
0.545685 0.080658 0.042450
0.557800 0.079590 0.041748
0.570007 0.078064 0.041260
0.581177 0.076935 0.040588
0.592041 0.077118 0.040680
0.602875 0.077881 0.042358
0.613831 0.078583 0.043793
0.624329 0.079407 0.045044
0.635223 0.079834 0.046997
0.645935 0.080414 0.048370
0.656403 0.081207 0.049957
0.667236 0.081879 0.051178
0.677826 0.082642 0.052551
0.688507 0.083466 0.053833
0.699677 0.084015 0.055847
0.710449 0.084778 0.057129
0.721405 0.085632 0.058380
0.732819 0.086182 0.060181
0.743927 0.086945 0.061615
0.755280 0.087708 0.062958
0.766388 0.088531 0.064880
0.777618 0.089417 0.065887
0.789032 0.090149 0.067657
0.800446 0.090973 0.068756
0.811707 0.091888 0.070312
0.823547 0.092529 0.072052
0.834930 0.093384 0.073547
0.846802 0.094025 0.075287
0.858215 0.095001 0.076416
0.869965 0.095703 0.078339
0.881500 0.096619 0.079376
0.893250 0.097443 0.080994
0.904694 0.098389 0.082336
0.916443 0.099213 0.083954
0.928009 0.100098 0.085541
0.069366 0.161835 0.048096
0.080017 0.161804 0.047913
0.091858 0.161957 0.048096
0.103973 0.162415 0.048157
0.117401 0.162445 0.048462
0.131439 0.162476 0.048126
0.145233 0.162781 0.048370
0.158081 0.161591 0.048157
0.157898 0.146332 0.047974
0.172485 0.142944 0.048340
0.188904 0.140594 0.048645
0.205322 0.138397 0.049072
0.222412 0.136200 0.049347
0.240509 0.133728 0.049103
0.259094 0.131195 0.049469
0.278076 0.128723 0.049500
0.298096 0.126068 0.049469
0.318176 0.123535 0.049377
0.338654 0.120850 0.049500
0.359314 0.118164 0.049469
0.379608 0.115723 0.048828
0.399597 0.113251 0.049042
0.419617 0.110657 0.048431
0.438538 0.108490 0.048035
0.456787 0.106323 0.047638
0.474213 0.104340 0.046753
0.490814 0.102203 0.046875
0.506226 0.100433 0.046234
0.520660 0.098999 0.045166
0.534637 0.097382 0.044922
0.547577 0.095947 0.044434
0.559906 0.094666 0.043488
0.571625 0.093384 0.043121
0.582855 0.092377 0.042053
0.594269 0.090942 0.041992
0.605072 0.089966 0.040924
0.615509 0.088928 0.040253
0.626099 0.087891 0.039764
0.636719 0.086700 0.038879
0.647034 0.085754 0.038086
0.657166 0.084869 0.037445
0.667511 0.084106 0.035889
0.678192 0.082733 0.035553
0.688843 0.083466 0.036285
0.699829 0.084106 0.038208
0.710663 0.084930 0.039520
0.721588 0.085754 0.040741
0.732758 0.086487 0.042389
0.743896 0.087219 0.043884
0.755249 0.087982 0.045166
0.766479 0.088715 0.047058
0.777649 0.089539 0.048340
0.789337 0.090118 0.050232
0.800507 0.091064 0.051392
0.812042 0.091858 0.053131
0.823517 0.092773 0.054199
0.835144 0.093445 0.056000
0.846619 0.094330 0.057434
0.858185 0.095184 0.059082
0.870056 0.095825 0.060669
0.881561 0.096710 0.062286
0.893127 0.097717 0.063446
0.904816 0.098511 0.064880
0.916656 0.099274 0.066681
0.928345 0.100037 0.068237
0.072266 0.178955 0.048340
0.081940 0.179504 0.048096
0.094757 0.179199 0.048096
0.107544 0.179260 0.048248
0.120392 0.179565 0.048523
0.134277 0.179626 0.048492
0.148712 0.179688 0.048309
0.163177 0.179932 0.048523
0.174774 0.177551 0.048462
0.174774 0.161469 0.048706
0.188782 0.157440 0.048828
0.205719 0.155029 0.049072
0.222961 0.152802 0.049164
0.240814 0.150360 0.049286
0.259460 0.147736 0.049866
0.278870 0.145142 0.049805
0.298706 0.142517 0.049866
0.318665 0.140076 0.049805
0.339294 0.137299 0.049744
0.360046 0.134613 0.049774
0.380463 0.131989 0.049530
0.400574 0.129486 0.049438
0.420227 0.127075 0.049103
0.439514 0.124695 0.048706
0.458069 0.122253 0.048615
0.475494 0.120270 0.047974
0.491821 0.118347 0.047424
0.507324 0.116669 0.046997
0.522125 0.114868 0.046783
0.536011 0.113220 0.046143
0.549011 0.111938 0.045227
0.561493 0.110352 0.045044
0.573547 0.109039 0.044556
0.584961 0.107727 0.043823
0.595978 0.106720 0.042938
0.607147 0.105347 0.042786
0.617828 0.104187 0.042389
0.628418 0.103210 0.041443
0.639038 0.101990 0.041138
0.649323 0.101044 0.040283
0.659607 0.100159 0.038971
0.670441 0.098663 0.039001
0.680603 0.097961 0.037598
0.691406 0.096863 0.037079
0.701965 0.095978 0.036133
0.712921 0.094788 0.035461
0.723602 0.093842 0.034149
0.734436 0.092865 0.033356
0.745056 0.092010 0.032074
0.756226 0.090973 0.031158
0.766998 0.089996 0.030151
0.777802 0.089844 0.029846
0.789368 0.090515 0.031250
0.800812 0.091309 0.032776
0.812347 0.092102 0.034149
0.823639 0.093018 0.035858
0.835419 0.093597 0.037537
0.846802 0.094604 0.038605
0.858582 0.095276 0.040649
0.870239 0.096100 0.041992
0.881775 0.096985 0.043427
0.893402 0.097900 0.044800
0.905090 0.098663 0.046387
0.916931 0.099426 0.048065
0.928375 0.100464 0.049408
0.074829 0.196808 0.048370
0.085175 0.196869 0.048553
0.097473 0.196869 0.048553
0.110077 0.197021 0.048767
0.123810 0.197021 0.048126
0.137512 0.197113 0.048370
0.151703 0.197235 0.048737
0.166138 0.197540 0.048401
0.180939 0.197906 0.048309
0.191986 0.193481 0.048737
0.192017 0.176819 0.049072
0.205994 0.172241 0.048645
0.222992 0.170013 0.049133
0.241516 0.167297 0.049286
0.260040 0.164825 0.049469
0.278931 0.162292 0.049683
0.299133 0.159576 0.049622
0.319183 0.157043 0.049774
0.339844 0.154266 0.049896
0.360687 0.151459 0.050262
0.380951 0.148895 0.049957
0.401398 0.146271 0.049774
0.421204 0.143768 0.049255
0.440399 0.141479 0.048859
0.458923 0.139099 0.049011
0.476349 0.136902 0.048828
0.492737 0.135101 0.047974
0.508575 0.133087 0.047607
0.523376 0.131348 0.047485
0.537109 0.129700 0.047119
0.550537 0.128174 0.046265
0.563202 0.126465 0.046417
0.575104 0.125214 0.045807
0.586578 0.123901 0.045227
0.597748 0.122711 0.044983
0.608826 0.121613 0.043884
0.619690 0.120331 0.043701
0.630524 0.119110 0.043152
0.640961 0.117859 0.042664
0.651398 0.116852 0.041718
0.662048 0.115753 0.041229
0.672546 0.114655 0.040436
0.683228 0.113556 0.039734
0.693909 0.112488 0.039124
0.704773 0.111359 0.038605
0.715424 0.110321 0.037537
0.726379 0.109283 0.036591
0.737396 0.108124 0.036041
0.748169 0.107117 0.034637
0.759247 0.106049 0.034119
0.770233 0.105103 0.032898
0.781189 0.104126 0.032013
0.792450 0.102997 0.031250
0.803467 0.102142 0.029480
0.814758 0.101135 0.028778
0.825623 0.100250 0.027374
0.837006 0.099304 0.026428
0.848053 0.098419 0.024994
0.859406 0.097565 0.023590
0.870544 0.096741 0.021942
0.881927 0.097443 0.023163
0.893585 0.098358 0.024536
0.905457 0.099121 0.026062
0.917145 0.099854 0.028015
0.928864 0.100708 0.029541
0.077820 0.214813 0.048584
0.088196 0.214905 0.048615
0.100616 0.214752 0.048737
0.113770 0.214722 0.048615
0.126465 0.215118 0.048401
0.140533 0.215149 0.048279
0.154602 0.215302 0.048492
0.169434 0.215332 0.048615
0.184479 0.215698 0.048187
0.199860 0.215912 0.048553
0.209747 0.209656 0.048737
0.209625 0.192627 0.048584
0.223541 0.187439 0.048828
0.241394 0.185059 0.048950
0.260223 0.182404 0.049316
0.279663 0.179657 0.049500
0.299469 0.177094 0.049805
0.319794 0.174347 0.049866
0.340271 0.171661 0.049988
0.361237 0.168854 0.050140
0.381622 0.166290 0.049652
0.402130 0.163574 0.049622
0.421814 0.161163 0.049561
0.441071 0.158783 0.049347
0.459839 0.156219 0.049347
0.477234 0.154083 0.048889
0.493927 0.152069 0.048401
0.509644 0.150055 0.048462
0.524445 0.148376 0.048004
0.538544 0.146606 0.047607
0.551666 0.145081 0.047089
0.564362 0.143524 0.046814
0.576172 0.142181 0.046661
0.587830 0.140839 0.046295
0.599182 0.139465 0.045929
0.610229 0.138306 0.044891
0.621185 0.136932 0.044861
0.632141 0.135620 0.044464
0.642700 0.134430 0.044220
0.653320 0.133301 0.042999
0.663818 0.132233 0.042511
0.674622 0.130829 0.042603
0.685211 0.129852 0.041260
0.696198 0.128601 0.041046
0.706909 0.127625 0.039948
0.717743 0.126495 0.039642
0.728821 0.125366 0.038513
0.739777 0.124207 0.037872
0.750885 0.123016 0.037323
0.762085 0.121857 0.036621
0.773071 0.120941 0.035431
0.784424 0.119690 0.034576
0.795288 0.118774 0.033356
0.806549 0.117706 0.032471
0.817810 0.116699 0.031281
0.829224 0.115631 0.030548
0.840393 0.114594 0.029053
0.851868 0.113434 0.028137
0.863190 0.112549 0.027191
0.874451 0.111694 0.025726
0.885681 0.110779 0.024048
0.896820 0.109894 0.022919
0.908356 0.108917 0.021759
0.919708 0.108063 0.020142
0.930725 0.107300 0.018524
0.080963 0.233246 0.048737
0.091858 0.233154 0.048279
0.103821 0.233276 0.048248
0.116577 0.233337 0.048798
0.130066 0.233490 0.048157
0.144135 0.233337 0.048401
0.158142 0.233612 0.048615
0.172668 0.233887 0.048218
0.187988 0.233948 0.048187
0.203522 0.234131 0.048492
0.219421 0.234528 0.048126
0.227905 0.226196 0.048370
0.227783 0.208496 0.048584
0.241760 0.202942 0.048950
0.260468 0.200409 0.049042
0.279877 0.197815 0.049011
0.299866 0.195068 0.049469
0.320282 0.192322 0.049255
0.340759 0.189514 0.050079
0.361786 0.186737 0.049805
0.382416 0.184021 0.049713
0.402588 0.181488 0.049591
0.422424 0.178833 0.049835
0.441803 0.176331 0.049561
0.460358 0.174103 0.049255
0.478149 0.171692 0.049286
0.494781 0.169647 0.048981
0.510651 0.167694 0.048767
0.525482 0.165833 0.048462
0.539368 0.164215 0.047943
0.552673 0.162598 0.047729
0.565369 0.160919 0.047516
0.577393 0.159485 0.047241
0.589081 0.158203 0.046539
0.600555 0.156769 0.046326
0.611694 0.155518 0.045898
0.622375 0.154388 0.045715
0.633514 0.152832 0.045593
0.644165 0.151642 0.044556
0.654724 0.150574 0.044250
0.665436 0.149170 0.044037
0.676147 0.148010 0.043610
0.686920 0.146851 0.042603
0.697662 0.145691 0.042236
0.708801 0.144379 0.041626
0.719604 0.143372 0.040924
0.730713 0.142059 0.040375
0.741974 0.140900 0.039612
0.753021 0.139679 0.039124
0.764069 0.138611 0.037811
0.775482 0.137512 0.037140
0.786591 0.136292 0.036560
0.797943 0.135101 0.036041
0.809296 0.133972 0.034760
0.820526 0.133057 0.033630
0.832062 0.131744 0.033203
0.843567 0.130524 0.032043
0.854889 0.129578 0.030914
0.866302 0.128540 0.029785
0.877777 0.127563 0.028595
0.889069 0.126587 0.027496
0.900513 0.125549 0.026367
0.912170 0.124390 0.024933
0.923645 0.123383 0.023987
0.935028 0.122437 0.022400
0.084198 0.252258 0.048492
0.094940 0.252319 0.048157
0.107086 0.252258 0.048523
0.120300 0.252167 0.048431
0.133179 0.252533 0.048218
0.146973 0.252686 0.048065
0.161438 0.252625 0.048126
0.176025 0.252808 0.048248
0.191254 0.252930 0.048157
0.207031 0.253082 0.047913
0.223236 0.253326 0.047760
0.239746 0.253601 0.047974
0.246368 0.243164 0.048279
0.246307 0.224701 0.048706
0.260803 0.218933 0.048676
0.280304 0.216125 0.049164
0.300262 0.213531 0.048920
0.320831 0.210632 0.049469
0.341431 0.207886 0.049438
0.362213 0.205170 0.049713
0.382751 0.202484 0.049713
0.403107 0.199799 0.049957
0.423035 0.197144 0.049927
0.442627 0.194550 0.049927
0.461151 0.192291 0.049469
0.478607 0.190002 0.049255
0.495728 0.187836 0.049042
0.511414 0.185791 0.048737
0.526276 0.184082 0.048584
0.540527 0.182159 0.048523
0.553711 0.180511 0.048309
0.566406 0.178925 0.048157
0.578613 0.177490 0.047668
0.590302 0.175995 0.047577
0.601624 0.174713 0.046814
0.612762 0.173492 0.046448
0.623840 0.172089 0.046234
0.634735 0.170807 0.045959
0.645599 0.169403 0.045715
0.656189 0.168152 0.045502
0.666931 0.167084 0.044434
0.677551 0.165741 0.044098
0.688416 0.164490 0.043671
0.699463 0.163177 0.043274
0.710358 0.161926 0.042938
0.721497 0.160706 0.042206
0.732544 0.159637 0.041626
0.743835 0.158234 0.041046
0.754974 0.157043 0.040710
0.766144 0.155975 0.039490
0.777496 0.154694 0.038971
0.788849 0.153473 0.038208
0.800293 0.152191 0.037384
0.811554 0.151093 0.036591
0.823151 0.149811 0.035919
0.834564 0.148773 0.035309
0.846161 0.147491 0.034424
0.857635 0.146301 0.033142
0.869049 0.145325 0.032013
0.880676 0.144135 0.031128
0.891968 0.143188 0.030060
0.903839 0.141968 0.028992
0.915314 0.140900 0.027863
0.926941 0.139923 0.026672
0.938354 0.138641 0.025757
0.087372 0.272034 0.048279
0.098328 0.271851 0.048248
0.110565 0.271851 0.048096
0.123688 0.271881 0.047638
0.136932 0.271942 0.047943
0.150818 0.271973 0.048096
0.164978 0.272186 0.047729
0.179779 0.272308 0.047760
0.195099 0.272400 0.047729
0.210693 0.272614 0.047577
0.226959 0.272766 0.047607
0.243378 0.273132 0.047485
0.260681 0.273285 0.047638
0.265533 0.260468 0.047913
0.265259 0.241455 0.048645
0.280701 0.235291 0.048523
0.300751 0.232513 0.048950
0.321106 0.229675 0.049408
0.341797 0.226929 0.049286
0.362671 0.224182 0.049377
0.383331 0.221405 0.049561
0.403748 0.218719 0.049530
0.423737 0.216095 0.049713
0.443268 0.213562 0.049377
0.461792 0.211029 0.049591
0.479553 0.208710 0.049225
0.496246 0.206726 0.049225
0.512207 0.204590 0.048920
0.527039 0.202698 0.048828
0.541138 0.200989 0.048706
0.554596 0.199280 0.048370
0.567474 0.197662 0.048096
0.579559 0.196136 0.047638
0.591248 0.194794 0.047455
0.602753 0.193298 0.047089
0.613983 0.191895 0.046967
0.625183 0.190491 0.046906
