custom_nodes/comfyui-vrgamedevgirl/LUTS/Bright_Muted_Cool_Magenta_Tint_Cool_Bright.cube
TITLE "Cool_Bright"
LUT_3D_SIZE 5
DOMAIN_MIN 0 0 0
DOMAIN_MAX 1 1 1
0.000000 0.000000 0.020000
0.293288 0.000000 0.020000
0.554934 0.000000 0.020000
0.805834 0.000000 0.020000
1.000000 0.000000 0.020000
0.000000 0.287985 0.020000
0.293288 0.287985 0.020000
0.554934 0.287985 0.020000
0.805834 0.287985 0.020000
1.000000 0.287985 0.020000
0.000000 0.552507 0.020000
0.293288 0.552507 0.020000
0.554934 0.552507 0.020000
0.805834 0.552507 0.020000
1.000000 0.552507 0.020000
0.000000 0.808842 0.020000
0.293288 0.808842 0.020000
0.554934 0.808842 0.020000
0.805834 0.808842 0.020000
1.000000 0.808842 0.020000
0.000000 1.000000 0.020000
0.293288 1.000000 0.020000
0.554934 1.000000 0.020000
0.805834 1.000000 0.020000
1.000000 1.000000 0.020000
0.000000 0.000000 0.341636
0.293288 0.000000 0.341636
0.554934 0.000000 0.341636
0.805834 0.000000 0.341636
1.000000 0.000000 0.341636
0.000000 0.287985 0.341636
0.293288 0.287985 0.341636
0.554934 0.287985 0.341636
0.805834 0.287985 0.341636
1.000000 0.287985 0.341636
0.000000 0.552507 0.341636
0.293288 0.552507 0.341636
0.554934 0.552507 0.341636
0.805834 0.552507 0.341636
1.000000 0.552507 0.341636
0.000000 0.808842 0.341636
0.293288 0.808842 0.341636
0.554934 0.808842 0.341636
0.805834 0.808842 0.341636
1.000000 0.808842 0.341636
0.000000 1.000000 0.341636
0.293288 1.000000 0.341636
0.554934 1.000000 0.341636
0.805834 1.000000 0.341636
1.000000 1.000000 0.341636
0.000000 0.000000 0.620193
0.293288 0.000000 0.620193
0.554934 0.000000 0.620193
0.805834 0.000000 0.620193
1.000000 0.000000 0.620193
0.000000 0.287985 0.620193
0.293288 0.287985 0.620193
0.554934 0.287985 0.620193
0.805834 0.287985 0.620193
1.000000 0.287985 0.620193
0.000000 0.552507 0.620193
0.293288 0.552507 0.620193
0.554934 0.552507 0.620193
0.805834 0.552507 0.620193
1.000000 0.552507 0.620193
0.000000 0.808842 0.620193
0.293288 0.808842 0.620193
0.554934 0.808842 0.620193
0.805834 0.808842 0.620193
1.000000 0.808842 0.620193
0.000000 1.000000 0.620193
0.293288 1.000000 0.620193
0.554934 1.000000 0.620193
0.805834 1.000000 0.620193
1.000000 1.000000 0.620193
0.000000 0.000000 0.884516
0.293288 0.000000 0.884516
0.554934 0.000000 0.884516
0.805834 0.000000 0.884516
1.000000 0.000000 0.884516
0.000000 0.287985 0.884516
0.293288 0.287985 0.884516
0.554934 0.287985 0.884516
0.805834 0.287985 0.884516
1.000000 0.287985 0.884516
0.000000 0.552507 0.884516
0.293288 0.552507 0.884516
0.554934 0.552507 0.884516
0.805834 0.552507 0.884516
1.000000 0.552507 0.884516
0.000000 0.808842 0.884516
0.293288 0.808842 0.884516
0.554934 0.808842 0.884516
0.805834 0.808842 0.884516
1.000000 0.808842 0.884516
0.000000 1.000000 0.884516
0.293288 1.000000 0.884516
0.554934 1.000000 0.884516
0.805834 1.000000 0.884516
1.000000 1.000000 0.884516
0.000000 0.000000 1.000000
0.293288 0.000000 1.000000
0.554934 0.000000 1.000000
0.805834 0.000000 1.000000
1.000000 0.000000 1.000000
0.000000 0.287985 1.000000
0.293288 0.287985 1.000000
0.554934 0.287985 1.000000
0.805834 0.287985 1.000000
1.000000 0.287985 1.000000
0.000000 0.552507 1.000000
0.293288 0.552507 1.000000
0.554934 0.552507 1.000000
0.805834 0.552507 1.000000
1.000000 0.552507 1.000000
0.000000 0.808842 1.000000
0.293288 0.808842 1.000000
0.554934 0.808842 1.000000
0.805834 0.808842 1.000000
1.000000 0.808842 1.000000
0.000000 1.000000 1.000000
0.293288 1.000000 1.000000
0.554934 1.000000 1.000000
0.805834 1.000000 1.000000
1.000000 1.000000 1.000000
