custom_nodes/comfyui-vrgamedevgirl/LUTS/Bright_Muted_Cool_Cinematic.cube
#Created by: Adobe Photoshop Export Color Lookup Plugin
TITLE "NOLUT.png"
#LUT size
LUT_3D_SIZE 9
#data domain
DOMAIN_MIN 0.0 0.0 0.0
DOMAIN_MAX 1.0 1.0 1.0
#LUT data points
0.049591 0.050934 0.046051
0.155518 0.054535 0.064728
0.295471 0.060760 0.087952
0.453979 0.068878 0.112610
0.569397 0.075806 0.129242
0.656921 0.081116 0.141998
0.744110 0.086975 0.153809
0.835052 0.093506 0.165527
0.928467 0.099945 0.178040
0.072266 0.178955 0.048340
0.174774 0.177551 0.048462
0.298706 0.142517 0.049866
0.458069 0.122253 0.048615
0.573547 0.109039 0.044556
0.659607 0.100159 0.038971
0.745056 0.092010 0.032074
0.835419 0.093597 0.037537
0.928375 0.100464 0.049408
0.097534 0.334656 0.047180
0.206207 0.334534 0.046234
0.326630 0.314667 0.046539
0.463715 0.271240 0.048370
0.582123 0.255920 0.047485
0.671539 0.244568 0.045746
0.760895 0.233673 0.043457
0.853821 0.222778 0.038940
0.948669 0.212280 0.033295
0.124329 0.505798 0.039368
0.236694 0.504211 0.036621
0.380371 0.505249 0.035187
0.492706 0.457581 0.037842
0.587494 0.419983 0.040253
0.677704 0.407990 0.040131
0.768341 0.396027 0.038910
0.862946 0.384155 0.037018
0.959473 0.372040 0.033905
0.143646 0.629242 0.030640
0.258240 0.626495 0.027710
0.402924 0.626831 0.027466
0.564880 0.628510 0.028229
0.612274 0.557404 0.027893
0.681519 0.526581 0.030304
0.772522 0.514343 0.029785
0.867645 0.501740 0.028900
0.964813 0.489319 0.026611
0.156036 0.720581 0.034821
0.272583 0.717041 0.031067
0.418518 0.716736 0.030334
0.581146 0.718140 0.030914
0.699860 0.719696 0.031616
0.700623 0.629700 0.029144
0.774506 0.602386 0.028900
0.869781 0.589600 0.029144
0.967133 0.576599 0.029236
0.167786 0.811646 0.039185
0.286713 0.807068 0.034454
0.433716 0.806335 0.033295
0.597107 0.807434 0.033630
0.716187 0.808807 0.034271
0.789337 0.792572 0.034210
0.788330 0.700623 0.031708
0.871216 0.676666 0.031586
0.968811 0.663422 0.031799
0.179718 0.906250 0.043884
0.300873 0.900696 0.038147
0.449432 0.899353 0.036438
0.613464 0.900055 0.036499
0.732910 0.901245 0.037048
0.823303 0.902344 0.037537
0.880310 0.869385 0.036957
0.879211 0.773010 0.034302
0.970367 0.753723 0.034393
0.195038 1.000000 0.052765
0.315491 0.995789 0.041931
0.465088 0.993896 0.039673
0.629944 0.994324 0.039490
0.749878 0.995331 0.039917
0.840240 0.996307 0.040344
0.931000 0.997467 0.040894
0.972748 0.944672 0.039673
0.971649 0.845795 0.036957
0.058716 0.079041 0.198639
0.134033 0.054718 0.199860
0.298218 0.061279 0.240173
0.455536 0.069885 0.265106
0.571289 0.076538 0.282654
0.658295 0.082123 0.295288
0.745483 0.087921 0.307465
0.836517 0.094238 0.320007
0.929626 0.100830 0.332550
0.057831 0.205261 0.201508
0.162659 0.191010 0.204224
0.303680 0.186493 0.226562
0.464600 0.192719 0.254395
0.582916 0.197571 0.274567
0.672211 0.201538 0.289337
0.761719 0.205780 0.303833
0.855225 0.210327 0.318634
0.950775 0.215271 0.333649
0.050873 0.334686 0.163971
0.163483 0.335114 0.181244
0.324951 0.337891 0.209412
0.467346 0.300293 0.211182
0.585693 0.284515 0.212219
0.675140 0.272919 0.212433
0.764526 0.261444 0.212158
0.857544 0.250122 0.211029
0.953217 0.249329 0.220459
0.038055 0.509125 0.143951
0.164337 0.504303 0.158905
0.355316 0.505371 0.211975
0.494720 0.485168 0.212341
0.589508 0.447662 0.213715
0.679901 0.435394 0.214783
0.770294 0.423401 0.215363
0.864685 0.411133 0.215576
0.961090 0.398590 0.215271
0.034424 0.632965 0.122101
0.183411 0.626251 0.158630
0.376648 0.625977 0.212677
0.538818 0.627747 0.212646
0.612762 0.583771 0.213135
0.682281 0.553009 0.214417
0.773163 0.540710 0.215332
0.868042 0.527893 0.216034
0.965057 0.515167 0.216400
0.038239 0.723907 0.096191
0.197449 0.717773 0.157043
0.392639 0.716339 0.212311
0.555389 0.717834 0.211853
0.674377 0.719482 0.211517
0.701202 0.656342 0.213043
0.774994 0.628662 0.214233
0.870209 0.615814 0.215271
0.967499 0.602753 0.215912
0.043488 0.815826 0.059265
0.211243 0.809204 0.154388
0.408142 0.806610 0.211121
0.571716 0.807739 0.210388
0.691101 0.809174 0.209900
0.781281 0.810547 0.209503
0.789337 0.727448 0.212280
0.872101 0.703430 0.213501
0.969696 0.690155 0.214539
0.045837 0.908051 0.045837
0.225128 0.904419 0.149994
0.424469 0.900299 0.208862
0.588715 0.901123 0.207886
0.708405 0.902405 0.207153
0.798981 0.903595 0.206726
0.882599 0.897858 0.206299
0.880768 0.800568 0.210693
0.971741 0.781128 0.211792
0.046509 1.000000 0.046509
0.241821 1.000000 0.145508
0.440491 0.995850 0.205566
0.606079 0.996246 0.204010
0.726105 0.997375 0.203125
0.816833 0.998474 0.202362
0.907745 0.999756 0.201508
0.975800 0.973816 0.202515
0.973785 0.873962 0.208160
0.073303 0.104553 0.347565
0.118774 0.054840 0.349304
0.251526 0.060699 0.351685
0.458618 0.070404 0.415436
0.573639 0.077362 0.433319
0.660553 0.082916 0.446045
0.747955 0.088501 0.458801
0.838501 0.095062 0.471344
0.931671 0.101624 0.484192
0.072174 0.230835 0.351135
0.170898 0.219208 0.356415
0.276672 0.186890 0.357666
0.467590 0.193146 0.405365
0.585388 0.198181 0.425629
0.674591 0.202179 0.440613
0.763947 0.206421 0.455353
0.857269 0.211121 0.470398
0.952637 0.216064 0.485504
0.065216 0.376648 0.348816
0.170502 0.370636 0.359650
0.311920 0.351135 0.363037
0.472748 0.344543 0.387573
0.591736 0.348846 0.408722
0.681946 0.352173 0.424500
0.772400 0.355713 0.440186
0.866913 0.359528 0.456268
0.963684 0.363556 0.472717
0.049438 0.504852 0.297180
0.167267 0.503113 0.312042
0.313171 0.506042 0.337158
0.494934 0.509613 0.369019
0.594208 0.476898 0.370300
0.684326 0.464722 0.371552
0.774719 0.452606 0.372620
0.869049 0.440125 0.373291
0.965607 0.427521 0.373688
0.033905 0.632477 0.287354
0.164032 0.625397 0.297333
0.313965 0.626465 0.320984
0.516754 0.629608 0.371643
0.616882 0.612885 0.371948
0.686371 0.582153 0.372864
0.777283 0.569733 0.374115
0.872131 0.556946 0.375183
0.969147 0.544037 0.376007
0.036377 0.722046 0.272827
0.159882 0.717712 0.286102
0.314026 0.716980 0.308350
0.532837 0.719513 0.373291
0.651642 0.721100 0.373566
0.705048 0.685150 0.373627
0.778748 0.657654 0.374725
0.873932 0.644653 0.375977
0.971252 0.631622 0.377045
0.038971 0.811310 0.257294
0.154297 0.810394 0.274475
0.324432 0.807312 0.305481
0.548828 0.809052 0.374512
0.667969 0.810486 0.374756
0.757965 0.811737 0.374847
0.792725 0.756134 0.375092
0.875519 0.732086 0.376251
0.973083 0.718781 0.377472
0.041840 0.904053 0.239288
0.145782 0.907928 0.262146
0.339478 0.901062 0.306030
0.565155 0.902069 0.375458
0.684814 0.903320 0.375488
0.775024 0.904480 0.375580
0.865570 0.905792 0.375641
0.883728 0.828857 0.376129
0.974731 0.809631 0.377411
0.045105 0.998688 0.218933
0.147156 1.000000 0.260529
0.354614 0.996552 0.306091
0.581818 0.996735 0.376007
0.701813 0.997803 0.375885
0.792267 0.998810 0.375854
0.883026 1.000000 0.375824
0.976776 1.000000 0.385925
0.976288 0.901978 0.376923
0.091766 0.128815 0.496490
0.110626 0.051971 0.496979
0.235291 0.061157 0.503540
0.386719 0.068329 0.503845
0.543335 0.076141 0.552429
0.663666 0.083435 0.597778
0.750427 0.089355 0.610504
0.840912 0.095886 0.623077
0.933868 0.102539 0.636169
0.090515 0.255127 0.500061
0.182373 0.246368 0.508453
0.259491 0.187683 0.509857
0.414551 0.192627 0.512238
0.574493 0.198273 0.563751
0.677460 0.202820 0.592529
0.766571 0.207153 0.607422
0.859833 0.211792 0.622620
0.955200 0.216766 0.638092
0.086060 0.408142 0.505341
0.181946 0.397705 0.512177
0.319519 0.379944 0.517059
0.443756 0.344879 0.518311
0.594971 0.349182 0.560913
0.684814 0.352631 0.576904
0.775055 0.356293 0.592682
0.869446 0.360199 0.608978
0.966064 0.364227 0.625580
0.070984 0.541229 0.478058
0.177734 0.544220 0.497681
0.319733 0.544678 0.520264
0.481171 0.522491 0.523834
0.599731 0.514771 0.540894
0.690186 0.517883 0.557129
0.780975 0.521118 0.573273
0.876038 0.524567 0.590057
0.973358 0.528168 0.607056
0.052185 0.625824 0.435791
0.172424 0.623047 0.449860
0.318481 0.625854 0.474823
0.482269 0.630432 0.504120
0.613708 0.633575 0.528381
0.691650 0.611664 0.529510
0.782257 0.599335 0.530914
0.877014 0.586578 0.532227
0.973999 0.573639 0.533386
0.036957 0.722656 0.430756
0.168182 0.715149 0.440186
0.318207 0.716278 0.463623
0.483490 0.720093 0.492493
0.630157 0.723206 0.530762
0.710022 0.714600 0.531097
0.783661 0.687195 0.532104
0.878632 0.674255 0.533569
0.975891 0.661102 0.534851
0.039246 0.811646 0.417664
0.162476 0.807495 0.430573
0.317596 0.806396 0.452118
0.484283 0.809570 0.480591
0.646210 0.812500 0.532867
0.736115 0.813843 0.533356
0.797424 0.785645 0.533386
0.880127 0.761719 0.534607
0.977600 0.748413 0.535980
0.041656 0.903900 0.403473
0.154388 0.904297 0.421112
0.316010 0.900360 0.440125
0.485870 0.902618 0.468933
0.662842 0.905212 0.534851
0.752899 0.906433 0.535217
0.843323 0.907776 0.535614
0.888153 0.858337 0.535431
0.979126 0.838989 0.536804
0.044281 0.997894 0.388428
0.149872 1.000000 0.415955
0.314117 0.996124 0.427399
0.501831 0.997345 0.470520
0.679443 0.999603 0.536621
0.770447 1.000000 0.538757
0.861450 1.000000 0.544739
0.954254 1.000000 0.557556
0.980469 0.931335 0.537292
0.105774 0.144958 0.598083
0.109314 0.048126 0.596222
0.225586 0.060822 0.606567
0.374878 0.068695 0.608978
0.486481 0.074280 0.607727
0.599915 0.080200 0.638245
0.752594 0.089752 0.714478
0.843140 0.096222 0.727539
0.935699 0.103058 0.740570
0.105377 0.270721 0.601715
0.191711 0.264496 0.612396
0.249908 0.187286 0.613647
0.402252 0.193359 0.617157
0.516479 0.197174 0.618011
0.632233 0.201355 0.650909
0.768799 0.207458 0.711670
0.861908 0.212158 0.727081
0.956909 0.217285 0.742432
0.101532 0.423584 0.606812
0.191193 0.415833 0.616272
0.325867 0.399323 0.622467
0.431030 0.345734 0.623596
0.546692 0.348755 0.624939
0.663727 0.352234 0.658661
0.777252 0.356567 0.697296
0.871552 0.360474 0.713654
0.968018 0.364624 0.730286
0.091125 0.592926 0.614502
0.187866 0.582062 0.621033
0.326019 0.563934 0.626007
0.485962 0.542480 0.630188
0.578003 0.515106 0.630981
0.692474 0.518097 0.661926
0.783142 0.521332 0.678162
0.878113 0.524811 0.695068
0.975159 0.528564 0.712158
0.073578 0.654968 0.563019
0.181305 0.657593 0.582306
0.324310 0.661774 0.608490
0.486603 0.660431 0.632233
0.605530 0.644165 0.634766
0.695465 0.637146 0.647217
0.786469 0.640259 0.663635
0.881744 0.643524 0.680603
0.979309 0.647003 0.697968
0.055847 0.715546 0.529572
0.176086 0.712738 0.543427
0.322296 0.715546 0.568451
0.486298 0.719940 0.597839
0.606384 0.723572 0.619507
0.705353 0.726074 0.638214
0.787476 0.707489 0.639496
0.882355 0.694580 0.640991
0.979584 0.683228 0.644135
0.039825 0.812225 0.525055
0.170441 0.804993 0.534698
0.321472 0.805664 0.557648
0.487030 0.809357 0.586487
0.607819 0.812653 0.608032
0.721619 0.815277 0.640686
0.801147 0.805969 0.641052
0.883728 0.781982 0.642273
0.981079 0.768768 0.643799
0.042145 0.904419 0.511932
0.162811 0.901428 0.525757
0.319916 0.899475 0.546326
0.487549 0.902252 0.574432
0.609009 0.905243 0.595917
0.738342 0.907837 0.643036
0.828552 0.909210 0.643585
0.891693 0.878571 0.643555
0.982544 0.859375 0.644958
0.044556 0.998199 0.497986
0.153534 1.000000 0.518036
0.317780 0.995148 0.534821
0.487640 0.996918 0.562042
0.615997 0.999573 0.589111
0.757690 1.000000 0.649628
0.848358 1.000000 0.656036
0.940613 1.000000 0.670380
0.983765 0.951660 0.645874
0.116089 0.156738 0.672241
0.114471 0.050049 0.668823
0.220886 0.059570 0.681641
0.367065 0.068787 0.685425
0.477966 0.074524 0.684845
0.562653 0.078857 0.683319
0.684204 0.086151 0.723175
0.844482 0.096649 0.803284
0.937164 0.103363 0.816467
0.116150 0.282288 0.675812
0.199188 0.277466 0.687927
0.243774 0.186676 0.688782
0.393860 0.193695 0.693604
0.507263 0.197815 0.694885
0.593903 0.200745 0.695129
0.719055 0.205688 0.738190
0.863525 0.212433 0.803223
0.958557 0.217499 0.818604
0.112732 0.434875 0.680786
0.198578 0.428741 0.691956
0.330902 0.413300 0.699188
0.422485 0.346100 0.700104
0.537231 0.349518 0.701813
0.624939 0.351898 0.702637
0.751343 0.355927 0.746796
0.873169 0.360687 0.789886
0.969574 0.364868 0.806610
0.103973 0.603516 0.688049
0.195557 0.594849 0.696808
0.330994 0.577972 0.702911
0.489807 0.556915 0.707550
0.568390 0.515869 0.708130
0.656647 0.517944 0.709045
0.783966 0.521423 0.753662
0.879700 0.525024 0.771515
0.976715 0.528778 0.788727
0.092163 0.726959 0.695160
0.191010 0.715149 0.700897
0.330048 0.696594 0.705566
0.490417 0.674866 0.709778
0.608917 0.658752 0.712463
0.678925 0.637421 0.713074
0.788269 0.640289 0.740143
0.883392 0.643646 0.757233
0.980774 0.647156 0.774567
0.074127 0.738647 0.623627
0.183777 0.740417 0.642090
0.327209 0.744354 0.668121
0.490051 0.749237 0.697998
0.609528 0.746948 0.713989
0.699799 0.734558 0.715790
0.790405 0.729431 0.729034
0.885742 0.732635 0.746185
0.983398 0.736023 0.763672
0.052795 0.807343 0.597504
0.177216 0.802765 0.609589
0.325134 0.804840 0.633881
0.489471 0.809082 0.663147
0.609772 0.812592 0.684875
0.700928 0.815369 0.701294
0.801239 0.817780 0.719269
0.886536 0.796783 0.720581
0.983856 0.783600 0.722229
0.042572 0.904877 0.589966
0.170258 0.898865 0.600830
0.323547 0.898590 0.622986
0.489807 0.901978 0.651520
0.610962 0.905121 0.673035
0.702454 0.907745 0.689453
0.818054 0.910217 0.721802
0.894409 0.893402 0.722046
0.985199 0.874207 0.723511
0.044922 0.998596 0.576538
0.159882 0.998047 0.592987
0.321259 0.994293 0.611755
0.489807 0.996643 0.639557
0.611725 0.999451 0.660858
0.707764 1.000000 0.681458
0.839752 1.000000 0.734772
0.931946 1.000000 0.749390
0.986450 0.966461 0.724640
0.127502 0.167633 0.744446
0.126068 0.060699 0.741058
0.216888 0.058167 0.754150
0.359589 0.068726 0.759583
0.469635 0.074860 0.759674
0.553894 0.079376 0.758545
0.638519 0.083984 0.756439
0.777832 0.092682 0.811890
0.938782 0.103607 0.890778
0.127533 0.293213 0.747986
0.207153 0.289856 0.761536
0.239166 0.185425 0.761658
0.385925 0.193909 0.767853
0.498596 0.198303 0.769714
0.584869 0.201416 0.770264
0.672028 0.204437 0.770294
0.815186 0.210541 0.829285
0.960114 0.217743 0.893036
0.124268 0.445770 0.753021
0.206757 0.441010 0.765564
0.336365 0.426697 0.773926
0.414459 0.346405 0.774628
0.528473 0.350067 0.776855
0.615570 0.352631 0.777832
0.703705 0.355072 0.778564
0.848694 0.360016 0.839081
0.971161 0.365021 0.881165
0.116547 0.613800 0.759827
0.203583 0.607147 0.770508
0.336334 0.591400 0.777802
0.493988 0.570831 0.783051
0.559326 0.516541 0.783234
0.647278 0.518707 0.784393
0.735870 0.520813 0.785217
0.881409 0.525146 0.846100
0.978363 0.528931 0.863281
0.106598 0.736359 0.766327
0.199371 0.727203 0.774628
0.335297 0.710083 0.780609
0.494476 0.688812 0.785339
0.612427 0.673004 0.788330
0.669373 0.638275 0.788544
0.758301 0.640167 0.789429
0.885040 0.643829 0.831970
0.982361 0.647369 0.849426
0.094025 0.812958 0.756561
0.194733 0.817749 0.778107
0.333771 0.799225 0.782837
0.494446 0.777344 0.787079
0.613037 0.761139 0.789917
0.703064 0.748871 0.791840
0.774872 0.729614 0.792419
0.887421 0.732758 0.821075
0.985016 0.736176 0.838654
0.073151 0.821045 0.682068
0.185486 0.821655 0.699249
0.329926 0.825195 0.725006
0.493011 0.829956 0.754852
0.612793 0.833710 0.776703
0.703735 0.836517 0.793243
0.794464 0.824158 0.795135
0.889526 0.821472 0.810028
0.987366 0.824738 0.827606
0.046295 0.903992 0.664459
0.178009 0.896271 0.673553
0.327545 0.897614 0.697327
0.492462 0.901581 0.726379
0.613037 0.904968 0.748077
0.704315 0.907684 0.764587
0.795868 0.910492 0.781097
0.897247 0.907837 0.798523
0.987976 0.888641 0.800049
0.045349 0.999054 0.652954
0.168884 0.994843 0.665710
0.324982 0.993347 0.686584
0.492432 0.996216 0.714691
0.613892 0.999176 0.736176
0.708252 1.000000 0.754517
0.803345 1.000000 0.776398
0.924591 1.000000 0.822937
0.989075 0.980957 0.801331
0.138824 0.178925 0.818085
0.137390 0.072113 0.814789
0.213623 0.056396 0.827545
0.352844 0.068451 0.835022
0.461365 0.075165 0.835724
0.545044 0.079712 0.835114
0.629456 0.084503 0.833405
0.718018 0.089478 0.830963
0.873779 0.099701 0.902466
0.138916 0.304443 0.821655
0.215759 0.302246 0.836487
0.235413 0.183868 0.835571
0.378662 0.193726 0.843384
0.490387 0.198578 0.845917
0.575867 0.201965 0.846741
0.662506 0.205200 0.846954
0.753632 0.208496 0.846741
0.913391 0.215973 0.922211
0.136505 0.456665 0.826508
0.215485 0.453369 0.840576
0.342346 0.440216 0.850128
0.406799 0.346375 0.850464
0.519806 0.350525 0.853119
0.606476 0.353241 0.854431
0.694244 0.355804 0.855377
0.786224 0.358490 0.855865
0.948151 0.364410 0.933289
0.129242 0.624451 0.833160
0.212372 0.619598 0.845581
0.342285 0.604889 0.854034
0.498322 0.585052 0.859924
0.550446 0.517029 0.859772
0.637939 0.519379 0.861115
0.726227 0.521606 0.862183
0.818939 0.523895 0.862976
0.980103 0.529083 0.939484
0.120880 0.746429 0.839081
0.208160 0.739594 0.849762
0.341217 0.723663 0.856995
0.498871 0.703003 0.862396
0.616272 0.687378 0.865570
0.659882 0.638977 0.865509
0.748688 0.641022 0.866547
0.841614 0.643097 0.867401
0.984070 0.647461 0.925690
0.111420 0.839020 0.844757
0.203949 0.829956 0.853180
0.339783 0.812805 0.859314
0.498871 0.791595 0.864227
0.616852 0.775574 0.867279
0.706573 0.763428 0.869354
0.765076 0.730469 0.869598
0.858368 0.732452 0.870453
0.986664 0.736298 0.914917
0.095551 0.896057 0.816986
0.197449 0.901154 0.838684
0.337891 0.901642 0.861633
0.498444 0.879639 0.865967
0.617126 0.863495 0.868866
0.707245 0.851135 0.870911
0.797791 0.838837 0.872864
0.874939 0.821411 0.873383
0.989044 0.824860 0.904083
0.069336 0.906372 0.741394
0.186981 0.904724 0.756470
0.332275 0.907837 0.781952
0.495880 0.912415 0.811584
0.615906 0.916046 0.833527
0.707031 0.918823 0.850098
0.798309 0.921753 0.866699
0.893585 0.916687 0.876190
0.991272 0.916779 0.892578
0.045837 0.999542 0.730591
0.178223 0.991577 0.739410
0.329498 0.992157 0.762329
0.495422 0.995667 0.791138
0.616211 0.998932 0.812683
0.710388 1.000000 0.830170
0.806244 1.000000 0.850159
0.904480 1.000000 0.877014
0.992035 0.995667 0.879395
0.150879 0.189850 0.891754
0.148773 0.083252 0.888367
0.211670 0.054047 0.900482
0.346222 0.068054 0.909943
0.453644 0.075165 0.911865
0.536865 0.079865 0.911774
0.620880 0.084808 0.910400
0.709167 0.089874 0.908264
0.799469 0.095306 0.905151
0.150940 0.315460 0.895355
0.224976 0.314484 0.911407
0.237701 0.187927 0.909882
0.372253 0.193207 0.918793
0.482422 0.198669 0.922089
0.567261 0.202301 0.923248
0.653595 0.205688 0.923859
0.744202 0.209229 0.923737
0.837219 0.212830 0.923187
0.148499 0.467682 0.900208
0.224548 0.465668 0.915588
0.348663 0.453613 0.926270
0.399933 0.346069 0.926117
0.511627 0.350739 0.929413
0.597748 0.353729 0.931030
0.684998 0.356415 0.932190
0.776642 0.359253 0.932892
0.870850 0.362122 0.933197
0.142578 0.634888 0.906464
0.221558 0.631775 0.920593
0.348602 0.618469 0.930298
0.503082 0.599152 0.936829
0.541901 0.517365 0.936218
0.628998 0.519928 0.937866
0.716766 0.522369 0.939117
0.809235 0.524719 0.940094
0.904114 0.527161 0.940796
0.135223 0.756226 0.911987
0.217712 0.751709 0.924713
0.347412 0.737183 0.933350
0.503571 0.717102 0.939392
0.620270 0.701782 0.942841
0.650696 0.639557 0.942322
0.739044 0.641724 0.943573
0.831909 0.643951 0.944641
0.927155 0.646149 0.945465
0.126892 0.848389 0.917236
0.213562 0.841766 0.928131
0.346100 0.826172 0.935699
0.503540 0.805573 0.941315
0.620972 0.789886 0.944641
0.710388 0.777985 0.946899
0.755554 0.731201 0.946808
0.848572 0.733307 0.947784
0.944031 0.735382 0.948669
0.115906 0.941010 0.923462
0.208374 0.932129 0.931946
0.344147 0.914948 0.938110
0.503143 0.893829 0.943207
0.621185 0.877838 0.946350
0.710999 0.865662 0.948547
0.801239 0.853394 0.950562
0.864990 0.822327 0.950806
0.960663 0.824280 0.951691
0.095703 0.979858 0.875214
0.199371 0.984222 0.896118
0.340851 0.989014 0.923157
0.502380 0.985352 0.945160
0.621124 0.969086 0.948029
0.711395 0.956696 0.950165
0.801971 0.944275 0.952148
0.896881 0.931366 0.954132
0.977814 0.916565 0.954651
0.065826 0.991760 0.799774
0.187775 0.988251 0.813019
0.334442 0.990814 0.837860
0.498535 0.995117 0.867371
0.618866 0.998596 0.889221
0.712708 1.000000 0.905762
0.809479 1.000000 0.923187
0.909668 1.000000 0.944702
1.000000 1.000000 1.000000
