custom_nodes/comfyui-vrgamedevgirl/LUTS/Cool_Grade.cube
#Created by: Adobe Photoshop Export Color Lookup Plugin
#Copyright: (C) Copyright 2017 PremiumBeat
TITLE "Butte"
#LUT size
LUT_3D_SIZE 8
#data domain
DOMAIN_MIN 0.0 0.0 0.0
DOMAIN_MAX 1.0 1.0 1.0
#LUT data points
0.037354 0.044403 0.037354
0.075684 0.050018 0.043182
0.158691 0.064728 0.058105
0.318695 0.092926 0.086578
0.493439 0.123718 0.117767
0.607483 0.144073 0.138580
0.684723 0.158142 0.153076
0.816315 0.181763 0.177551
0.044495 0.082703 0.044678
0.077881 0.083221 0.045349
0.161011 0.097198 0.059479
0.322235 0.125885 0.088287
0.496307 0.156830 0.119476
0.609253 0.177277 0.140167
0.686432 0.191620 0.154755
0.818817 0.216034 0.179504
0.059326 0.164154 0.059906
0.093414 0.165314 0.060822
0.164520 0.166504 0.061737
0.326721 0.195465 0.090424
0.499756 0.226929 0.121582
0.611420 0.247894 0.142151
0.688477 0.263000 0.156830
0.821686 0.288635 0.181763
0.087006 0.318085 0.088074
0.121918 0.319855 0.089264
0.194763 0.321533 0.090363
0.332275 0.324982 0.093140
0.503876 0.356750 0.124115
0.613892 0.378021 0.144470
0.690857 0.393616 0.159210
0.824951 0.420074 0.184387
0.117920 0.489197 0.119537
0.153778 0.490875 0.121002
0.228577 0.492279 0.122131
0.365936 0.493805 0.123413
0.508606 0.497803 0.127075
0.616760 0.518280 0.147217
0.693634 0.533325 0.161957
0.828552 0.558960 0.187286
0.139374 0.604279 0.141876
0.176239 0.605652 0.143402
0.253479 0.606537 0.144501
0.392151 0.607452 0.145721
0.530548 0.608521 0.147034
0.619995 0.611511 0.150330
0.696716 0.625854 0.165009
0.832581 0.650726 0.190430
0.154510 0.682037 0.157867
0.192780 0.683502 0.159668
0.272614 0.684296 0.160767
0.412567 0.685150 0.161957
0.548706 0.686035 0.163269
0.634338 0.687012 0.164612
0.699921 0.690063 0.168121
0.836487 0.714966 0.193420
0.179749 0.813934 0.184387
0.220093 0.815857 0.186432
0.303650 0.816864 0.187500
0.445068 0.817902 0.188660
0.577820 0.818970 0.189819
0.660919 0.820038 0.190948
0.724365 0.821106 0.192078
0.845032 0.827972 0.198608
0.040894 0.047913 0.064331
0.077271 0.051575 0.068329
0.160431 0.066254 0.083466
0.320526 0.094452 0.112213
0.495117 0.125183 0.143616
0.608887 0.145386 0.164612
0.686005 0.159271 0.179596
0.817596 0.182892 0.204742
0.044586 0.082794 0.068542
0.083099 0.088409 0.074463
0.166534 0.102509 0.088989
0.328003 0.131287 0.118225
0.502014 0.162323 0.149841
0.614899 0.182922 0.171112
0.692200 0.197357 0.186371
0.824829 0.221863 0.212128
0.059479 0.164459 0.084229
0.098816 0.170807 0.090607
0.170166 0.171997 0.091888
0.332703 0.201233 0.121185
0.505676 0.232758 0.152802
0.617218 0.253784 0.174042
0.694427 0.268982 0.189453
0.827911 0.294800 0.215576
0.087219 0.318481 0.113068
0.127502 0.325592 0.119934
0.200684 0.327393 0.121521
0.338470 0.331024 0.124908
0.509979 0.362823 0.156433
0.619934 0.384155 0.177551
0.697052 0.400055 0.193115
0.831421 0.426544 0.219482
0.118134 0.489563 0.145508
0.159515 0.496735 0.152802
0.234802 0.498260 0.154480
0.372345 0.499908 0.156403
0.514984 0.503998 0.160797
0.623047 0.524567 0.181702
0.700043 0.539764 0.197327
0.835297 0.565735 0.223907
0.139526 0.604462 0.168823
0.182404 0.611633 0.176666
0.259918 0.612610 0.178406
0.398865 0.613678 0.180267
0.537170 0.614899 0.182404
0.626556 0.617950 0.186493
0.703461 0.632477 0.202118
0.839569 0.657623 0.228729
0.154694 0.682220 0.186249
0.199158 0.689758 0.194672
0.279449 0.690704 0.196442
0.419708 0.691620 0.198364
0.555695 0.692688 0.200439
0.641266 0.693787 0.202606
0.706970 0.696960 0.206970
0.843781 0.722015 0.233337
0.179962 0.814209 0.214813
0.226868 0.822662 0.223938
0.310822 0.823761 0.225708
0.452362 0.824860 0.227448
0.585083 0.826050 0.229340
0.668152 0.827209 0.231171
0.731689 0.828369 0.232880
0.854218 0.836426 0.241882
0.051605 0.058594 0.125305
0.086243 0.060486 0.128052
0.160828 0.066406 0.135040
0.321167 0.094604 0.164581
0.495667 0.125336 0.196930
0.609222 0.145538 0.219238
0.686310 0.159424 0.235443
0.818024 0.183044 0.262573
0.052521 0.090790 0.127716
0.093201 0.098419 0.136383
0.169891 0.105621 0.144745
0.331512 0.134338 0.174866
0.505280 0.165283 0.207458
0.617737 0.185608 0.229797
0.694824 0.199890 0.246399
0.827362 0.224213 0.274139
0.059662 0.164795 0.137054
0.100830 0.172913 0.145996
0.182190 0.183838 0.157928
0.345245 0.213379 0.188599
0.518250 0.245117 0.221741
0.629852 0.266449 0.244629
0.707367 0.282135 0.262024
0.841492 0.308441 0.290955
0.087463 0.319000 0.167786
0.129486 0.327789 0.177277
0.213287 0.339905 0.190216
0.351593 0.343872 0.195099
0.523102 0.375916 0.228271
0.633087 0.397583 0.251190
0.710571 0.413696 0.268860
0.845581 0.440887 0.298157
0.118378 0.489960 0.202576
0.161377 0.498657 0.212433
0.247925 0.511200 0.226379
0.385895 0.513153 0.229858
0.528717 0.517578 0.236084
0.636841 0.538391 0.258911
0.714203 0.553986 0.276672
0.850128 0.580536 0.306152
0.139771 0.604736 0.229004
0.183960 0.613129 0.239288
0.273773 0.626068 0.254150
0.413116 0.627411 0.257660
0.551514 0.628906 0.261627
0.641083 0.632324 0.267792
0.718292 0.647156 0.285400
0.854980 0.672821 0.314667
0.154907 0.682434 0.249817
0.200500 0.690979 0.260498
0.294037 0.704803 0.276459
0.434692 0.706085 0.280029
0.570679 0.707397 0.283844
0.656433 0.708832 0.287933
0.722473 0.712433 0.294128
0.859711 0.737793 0.322723
0.180206 0.814514 0.283356
0.227875 0.823578 0.294189
0.326355 0.838928 0.311401
0.468231 0.840302 0.314606
0.600861 0.841644 0.317871
0.684204 0.843109 0.321136
0.747742 0.844421 0.324066
0.872925 0.854248 0.337738
0.075073 0.082062 0.259460
0.110046 0.084106 0.263184
0.179596 0.084808 0.265900
0.321991 0.094849 0.278473
0.496246 0.125580 0.312195
0.609589 0.145752 0.335876
0.686707 0.159637 0.353821
0.818542 0.183289 0.383514
0.076355 0.114594 0.263733
0.117340 0.122528 0.273621
0.189240 0.124695 0.278046
0.332428 0.134705 0.290710
0.505920 0.165558 0.324677
0.618134 0.185913 0.348724
0.695221 0.200226 0.367126
0.827911 0.224579 0.397217
0.078125 0.183380 0.269653
0.119812 0.191986 0.280151
0.207123 0.208618 0.298981
0.351532 0.219269 0.312134
0.523956 0.250702 0.346375
0.634949 0.271698 0.370575
0.712067 0.286896 0.389343
0.845795 0.312714 0.420074
0.087708 0.319611 0.284729
0.129944 0.328430 0.295441
0.219025 0.345551 0.314667
0.378082 0.370087 0.341461
0.549622 0.402405 0.376404
0.659637 0.424347 0.401245
0.737427 0.440796 0.420868
0.873047 0.468475 0.452667
0.118683 0.490509 0.322479
0.161835 0.499176 0.333649
0.253357 0.516357 0.353455
0.413055 0.539734 0.379669
0.555878 0.544556 0.387665
0.663940 0.565613 0.412231
0.741638 0.581451 0.431702
0.878021 0.608276 0.463287
0.140076 0.605103 0.352142
0.184387 0.613464 0.363617
0.278839 0.630585 0.383942
0.440857 0.654419 0.411163
0.579102 0.656158 0.416504
0.668732 0.659943 0.424255
0.746155 0.675018 0.443207
0.883240 0.700867 0.474121
0.155182 0.682709 0.376312
0.200989 0.691315 0.387970
0.298676 0.708893 0.408844
0.462921 0.733612 0.436768
0.598846 0.735168 0.441742
0.684509 0.736786 0.446960
0.750671 0.740540 0.454163
0.888245 0.766083 0.483765
0.180450 0.814850 0.413391
0.228363 0.823975 0.425110
0.330414 0.842529 0.446198
0.497040 0.868439 0.474640
0.629425 0.869965 0.478546
0.712524 0.871429 0.482391
0.776154 0.872833 0.485779
0.903503 0.883728 0.500671
0.107788 0.114746 0.446350
0.142792 0.116760 0.449982
0.212555 0.117432 0.452454
0.345978 0.118256 0.455475
0.496979 0.125793 0.465637
0.610016 0.145966 0.488800
0.687073 0.159851 0.505981
0.819153 0.183563 0.534424
0.109039 0.147278 0.450348
0.150116 0.155182 0.459991
0.222321 0.157318 0.464020
0.356842 0.158447 0.467407
0.506714 0.165985 0.477509
0.618622 0.186279 0.500732
0.695679 0.200592 0.518127
0.828583 0.225006 0.546844
0.110718 0.216248 0.455658
0.152527 0.224731 0.465759
0.240173 0.241425 0.484192
0.376312 0.243561 0.488190
0.524872 0.251404 0.498108
0.635498 0.272339 0.521301
0.712585 0.287567 0.539001
0.846527 0.313446 0.568024
0.112823 0.345123 0.462402
0.155518 0.354187 0.472900
0.245331 0.371796 0.491852
0.409302 0.400940 0.522552
0.556091 0.408813 0.532074
0.665131 0.430115 0.555145
0.742218 0.445923 0.572815
0.877106 0.472656 0.601807
0.118988 0.491058 0.473969
0.162354 0.499847 0.484436
0.254395 0.517090 0.503571
0.421356 0.547516 0.535919
0.587921 0.576416 0.566864
0.695343 0.597076 0.589722
0.772705 0.612640 0.607513
0.908813 0.639038 0.636658
0.140350 0.605438 0.501648
0.184937 0.613861 0.512177
0.279877 0.631104 0.531647
0.448425 0.661255 0.564087
0.610504 0.687134 0.592407
0.699554 0.690613 0.598480
0.776672 0.705322 0.615662
0.913422 0.730804 0.644165
0.155518 0.683044 0.523071
0.201508 0.691650 0.533813
0.299713 0.709351 0.553650
0.469696 0.739594 0.585999
0.629456 0.765381 0.613983
0.714600 0.766724 0.617554
0.780548 0.770233 0.623077
0.917786 0.795410 0.650604
0.180817 0.815277 0.556122
0.228912 0.824402 0.566772
0.331482 0.843048 0.587006
0.502899 0.873718 0.619049
0.659210 0.899445 0.646088
0.741852 0.900726 0.648590
0.806458 0.902740 0.652344
0.933960 0.912964 0.661987
0.132141 0.139008 0.585297
0.167084 0.140900 0.587982
0.237030 0.141449 0.589386
0.370453 0.141998 0.591034
0.514374 0.142700 0.592957
0.610474 0.146210 0.597900
0.687561 0.160095 0.613373
0.819824 0.183838 0.639252
0.133148 0.171417 0.587616
0.174164 0.179199 0.596069
0.246399 0.181030 0.598755
0.380981 0.181976 0.600647
0.524170 0.183014 0.602783
0.619202 0.186676 0.607697
0.696198 0.201019 0.623291
0.829315 0.225433 0.649445
0.134430 0.240204 0.590546
0.176147 0.248566 0.599304
0.264069 0.265015 0.616272
0.400177 0.266907 0.618622
0.542450 0.268707 0.620972
0.636108 0.273071 0.625824
0.713196 0.288330 0.641632
0.847351 0.314270 0.668152
0.136017 0.368683 0.594177
0.178680 0.377686 0.603241
0.268738 0.395050 0.620697
0.432709 0.423889 0.649628
0.573730 0.426392 0.652161
0.665802 0.431091 0.656799
0.742859 0.446869 0.672607
0.877930 0.473724 0.699310
0.138000 0.510376 0.598541
0.181702 0.519226 0.607880
0.274384 0.536743 0.625793
0.441833 0.567322 0.656891
0.607513 0.595673 0.685760
0.697540 0.599396 0.689941
0.774353 0.614410 0.705505
0.910065 0.640259 0.731873
0.140686 0.605835 0.604004
0.185547 0.614288 0.613342
0.281067 0.631653 0.631470
0.450073 0.661926 0.662811
0.615692 0.691833 0.693634
0.719513 0.710419 0.713226
0.796112 0.724670 0.728424
0.932404 0.749542 0.754456
0.155853 0.683411 0.621857
0.202118 0.692017 0.631378
0.300934 0.709869 0.649963
0.471100 0.740112 0.681213
0.633636 0.769135 0.711060
0.734497 0.786469 0.729248
0.800171 0.789703 0.733307
0.937164 0.814575 0.759033
0.181152 0.815704 0.650238
0.229523 0.824890 0.660065
0.332611 0.843597 0.679169
0.504181 0.874268 0.710266
0.662781 0.902649 0.739075
0.760986 0.919769 0.756531
0.827484 0.923035 0.760040
0.954620 0.932373 0.766357
0.147308 0.154205 0.671387
0.182373 0.156067 0.673828
0.252563 0.156494 0.674957
0.386383 0.157043 0.676300
0.529877 0.157684 0.677826
0.623016 0.158417 0.679657
0.688080 0.160400 0.682800
0.820587 0.184174 0.708405
0.148285 0.186615 0.673248
0.189453 0.194366 0.681458
0.261993 0.196136 0.683838
0.396973 0.197021 0.685364
0.539764 0.198029 0.687103
0.631866 0.199219 0.689148
0.696747 0.201416 0.692261
0.830139 0.226013 0.718201
0.149475 0.255432 0.675598
0.191406 0.263947 0.684143
0.279785 0.280396 0.700867
0.416138 0.282257 0.702789
0.557983 0.284027 0.704773
0.649017 0.286163 0.707092
0.713867 0.289154 0.710236
0.848206 0.315155 0.736542
0.151001 0.384247 0.678558
0.193848 0.393158 0.687408
0.284454 0.410645 0.704651
0.448669 0.439423 0.733246
0.589203 0.441864 0.735413
0.678955 0.444611 0.737885
0.743591 0.447937 0.740997
0.878876 0.474854 0.767517
0.152893 0.525604 0.682220
0.196777 0.534424 0.691254
0.290039 0.551910 0.709045
0.457764 0.582581 0.739899
0.622864 0.610748 0.768341
0.710846 0.612762 0.770691
0.775055 0.615204 0.773407
0.910919 0.640991 0.799683
0.155090 0.620331 0.686493
0.200348 0.628967 0.695862
0.296631 0.646576 0.714142
0.465942 0.676880 0.745300
0.630981 0.706573 0.775818
0.733002 0.723785 0.793854
0.796722 0.725128 0.796051
0.933136 0.749969 0.821960
0.157501 0.685150 0.691132
0.204254 0.693939 0.700714
0.303802 0.711945 0.719543
0.474426 0.742493 0.750793
0.636566 0.771515 0.780640
0.738220 0.790039 0.799988
0.812622 0.801971 0.812653
0.949554 0.826630 0.838165
0.181580 0.816223 0.717987
0.230194 0.825409 0.727600
0.333832 0.844177 0.746735
0.505554 0.874878 0.777863
0.663605 0.903168 0.806549
0.762421 0.921143 0.824799
0.844208 0.938873 0.842285
0.971069 0.947693 0.847900
0.171906 0.178619 0.810852
0.207214 0.180634 0.813782
0.278137 0.181213 0.815491
0.412354 0.181915 0.817505
0.555878 0.182709 0.819824
0.648621 0.183624 0.822540
0.712524 0.184631 0.825500
0.823151 0.186096 0.829742
0.173065 0.211395 0.813629
0.214630 0.219391 0.822540
0.287933 0.221252 0.825531
0.423340 0.222321 0.827728
0.565826 0.223450 0.830261
0.657654 0.224854 0.833221
0.721863 0.226318 0.836395
0.832977 0.228394 0.840759
0.174530 0.280914 0.817230
0.216858 0.289490 0.826416
0.306122 0.306396 0.843933
0.442932 0.308228 0.846527
0.584534 0.310242 0.849335
0.675201 0.312500 0.852539
0.739441 0.314972 0.855927
0.851318 0.318298 0.860443
0.176331 0.410278 0.821594
0.219635 0.419373 0.831116
0.311157 0.437134 0.849182
0.475922 0.466064 0.878479
0.616089 0.468628 0.881439
0.705444 0.471497 0.884735
0.769684 0.474457 0.888153
0.882355 0.478485 0.892670
0.178497 0.551575 0.826813
0.222900 0.560608 0.836578
0.317139 0.578552 0.855225
0.485474 0.609344 0.886841
0.649902 0.637451 0.915863
0.737457 0.639526 0.918884
0.801422 0.641663 0.922028
0.914490 0.644440 0.926025
0.181030 0.646332 0.832855
0.226776 0.655151 0.842865
0.324097 0.673004 0.861969
0.493896 0.703522 0.893799
0.658234 0.733124 0.924774
0.759705 0.750275 0.943298
0.823425 0.751556 0.945953
0.936707 0.753174 0.949158
0.183777 0.711365 0.839203
0.230988 0.720276 0.849335
0.331512 0.738586 0.868866
0.502502 0.769226 0.900665
0.663940 0.798187 0.930878
0.765137 0.816711 0.950562
0.839478 0.828613 0.963531
0.953461 0.829956 0.966187
0.187408 0.822174 0.847137
0.236572 0.831543 0.857300
0.341064 0.850616 0.877045
0.513062 0.881409 0.908539
0.670563 0.909607 0.937347
0.771973 0.929932 0.958862
0.854034 0.947388 0.974548
0.994812 0.970215 0.994812
