custom_nodes/comfyui-vrgamedevgirl/LUTS/Cool_Grade.cube
#Created by: Adobe Photoshop Export Color Lookup Plugin
#Copyright: (C) Copyright 2017 PremiumBeat
TITLE "Butte"
#LUT size
LUT_3D_SIZE 4
#data domain
DOMAIN_MIN 0.0 0.0 0.0
DOMAIN_MAX 1.0 1.0 1.0
#LUT data points
0.037354 0.044403 0.037354
0.204224 0.072754 0.066223
0.576569 0.138489 0.132843
0.816315 0.181763 0.177551
0.067261 0.208160 0.067993
0.212402 0.211639 0.070496
0.582031 0.279724 0.137238
0.822723 0.327026 0.182617
0.133423 0.572906 0.135559
0.287048 0.575714 0.138611
0.589752 0.580505 0.143738
0.831238 0.625641 0.189392
0.179749 0.813934 0.184387
0.346466 0.817230 0.187897
0.637970 0.819672 0.190582
0.845032 0.827972 0.198608
0.057648 0.064606 0.159912
0.206757 0.074524 0.172943
0.578583 0.140106 0.243622
0.818207 0.183136 0.295227
0.067719 0.209106 0.176178
0.237610 0.236420 0.206573
0.607788 0.305603 0.280182
0.850403 0.354767 0.335785
0.133942 0.573608 0.254486
0.314911 0.602539 0.288971
0.618256 0.608765 0.302063
0.861511 0.655609 0.357697
0.180298 0.814636 0.320618
0.377808 0.847534 0.358704
0.669495 0.850952 0.367371
0.882111 0.863098 0.386475
0.125610 0.132507 0.548004
0.268585 0.135193 0.553253
0.579773 0.140656 0.562408
0.819611 0.183746 0.610962
0.128571 0.270599 0.555695
0.306549 0.304657 0.591064
0.614746 0.312866 0.600891
0.856110 0.360748 0.650513
0.134674 0.574585 0.569214
0.323212 0.609344 0.606537
0.684418 0.674561 0.674683
0.925903 0.719452 0.722778
0.181061 0.815552 0.624695
0.384491 0.852753 0.663544
0.733002 0.914215 0.726349
0.948761 0.927002 0.737457
0.171906 0.178619 0.810852
0.316711 0.181427 0.816132
0.623352 0.183258 0.821594
0.823151 0.186096 0.829742
0.175079 0.318207 0.818573
0.355530 0.352600 0.854156
0.659454 0.358002 0.860962
0.860626 0.365479 0.870117
0.180145 0.620483 0.830811
0.372284 0.656189 0.869232
0.729828 0.719482 0.935425
0.930450 0.723358 0.942657
0.187408 0.822174 0.847137
0.393768 0.860016 0.886749
0.742920 0.923431 0.951904
0.994812 0.970215 0.994812
