custom_nodes/comfyui-vrgamedevgirl/LUTS/Cool_Grade.cube
#Created by: Adobe Photoshop Export Color Lookup Plugin
#Copyright: (C) Copyright 2017 PremiumBeat
TITLE "Butte"
#LUT size
LUT_3D_SIZE 64
#data domain
DOMAIN_MIN 0.0 0.0 0.0
DOMAIN_MAX 1.0 1.0 1.0
#LUT data points
0.037354 0.044403 0.037354
0.040466 0.044403 0.037354
0.043518 0.044434 0.037415
0.047119 0.044922 0.037933
0.051117 0.045654 0.038666
0.055298 0.046387 0.039429
0.059845 0.047211 0.040283
0.064667 0.048065 0.041168
0.069916 0.049011 0.042114
0.075684 0.050018 0.043182
0.081940 0.051147 0.044312
0.088776 0.052368 0.045563
0.096252 0.053680 0.046906
0.104492 0.055145 0.048370
0.113464 0.056732 0.049988
0.123260 0.058472 0.051758
0.134033 0.060364 0.053680
0.145782 0.062439 0.055786
0.158691 0.064728 0.058105
0.172699 0.067200 0.060608
0.187958 0.069885 0.063324
0.204224 0.072754 0.066223
0.221558 0.075806 0.069336
0.239716 0.078979 0.072540
0.258667 0.082367 0.075928
0.278198 0.085815 0.079407
0.298248 0.089294 0.082947
0.318695 0.092926 0.086578
0.339386 0.096588 0.090271
0.360046 0.100189 0.093964
0.380676 0.103851 0.097626
0.400909 0.107452 0.101227
0.420837 0.110962 0.104797
0.440186 0.114319 0.108246
0.458832 0.117615 0.111603
0.476562 0.120789 0.114777
0.493439 0.123718 0.117767
0.509552 0.126648 0.120667
0.524719 0.129303 0.123413
0.539093 0.131866 0.126007
0.552460 0.134247 0.128448
0.564972 0.136475 0.130737
0.576569 0.138489 0.132843
0.587494 0.140503 0.134857
0.597778 0.142365 0.136749
0.607483 0.144073 0.138580
0.616699 0.145752 0.140289
0.625488 0.147339 0.141907
0.634033 0.148926 0.143524
0.642395 0.150421 0.145081
0.650604 0.151917 0.146637
0.658844 0.153412 0.148163
0.667175 0.154907 0.149719
0.675781 0.156494 0.151367
0.684723 0.158142 0.153076
0.694214 0.159882 0.154877
0.704437 0.161713 0.156769
0.715546 0.163696 0.158813
0.727631 0.165771 0.161072
0.740906 0.168213 0.163574
0.755615 0.170898 0.166290
0.772156 0.173798 0.169373
0.791534 0.177368 0.173004
0.816315 0.181763 0.177551
0.037933 0.047577 0.037964
0.041077 0.047607 0.037994
0.044128 0.047638 0.038055
0.047302 0.047699 0.038116
0.051178 0.048309 0.038757
0.055389 0.049072 0.039520
0.059906 0.049896 0.040375
0.064758 0.050751 0.041260
0.070038 0.051697 0.042236
0.075806 0.052734 0.043304
0.082031 0.053833 0.044434
0.088867 0.055054 0.045654
0.096405 0.056396 0.046997
0.104614 0.057861 0.048492
0.113617 0.059448 0.050110
0.123474 0.061188 0.051880
0.134247 0.063110 0.053833
0.146027 0.065186 0.055939
0.158905 0.067444 0.058228
0.172974 0.069946 0.060760
0.188263 0.072632 0.063477
0.204559 0.075562 0.066406
0.221893 0.078613 0.069489
0.240021 0.081757 0.072693
0.258972 0.085114 0.076080
0.278564 0.088562 0.079559
0.298615 0.092072 0.083130
0.319031 0.095673 0.086761
0.339752 0.099335 0.090454
0.360382 0.102997 0.094147
0.381042 0.106659 0.097809
0.401276 0.110199 0.101410
0.421173 0.113678 0.104950
0.440521 0.117096 0.108429
0.459167 0.120392 0.111755
0.476898 0.123596 0.114929
0.493744 0.126495 0.117950
0.509827 0.129395 0.120850
0.524963 0.132080 0.123566
0.539337 0.134674 0.126190
0.552704 0.136993 0.128601
0.565186 0.139252 0.130890
0.576813 0.141296 0.133057
0.587677 0.143311 0.135010
0.597992 0.145142 0.136932
0.607635 0.146851 0.138733
0.616852 0.148590 0.140442
0.625702 0.150116 0.142090
0.634216 0.151703 0.143677
0.642578 0.153168 0.145264
0.650757 0.154633 0.146759
0.658997 0.156158 0.148315
0.667358 0.157654 0.149933
0.675934 0.159241 0.151550
0.684937 0.160919 0.153259
0.694366 0.162659 0.155029
0.704620 0.164398 0.156921
0.715759 0.166504 0.159027
0.727875 0.168610 0.161285
0.741150 0.171082 0.163757
0.755798 0.173676 0.166473
0.772369 0.176636 0.169586
0.791748 0.180115 0.173157
0.816589 0.184631 0.177765
0.038544 0.050934 0.038574
0.041718 0.050995 0.038666
0.044769 0.051025 0.038727
0.047943 0.051056 0.038757
0.051239 0.051117 0.038849
0.055481 0.051880 0.039612
0.059967 0.052704 0.040466
0.064880 0.053558 0.041351
0.070129 0.054504 0.042328
0.075867 0.055511 0.043365
0.082153 0.056671 0.044495
0.089020 0.057892 0.045746
0.096558 0.059235 0.047119
0.104736 0.060699 0.048584
0.113800 0.062286 0.050232
0.123627 0.064026 0.052002
0.134430 0.065948 0.053955
0.146210 0.068024 0.056061
0.159180 0.070343 0.058380
0.173187 0.072815 0.060913
0.188507 0.075531 0.063629
0.204834 0.078369 0.066528
0.222137 0.081482 0.069641
0.240356 0.084656 0.072845
0.259308 0.087982 0.076233
0.278900 0.091461 0.079742
0.298950 0.095001 0.083313
0.319397 0.098572 0.086945
0.340088 0.102234 0.090607
0.360748 0.105865 0.094299
0.381378 0.109558 0.097992
0.401611 0.113098 0.101593
0.421539 0.116577 0.105133
0.440826 0.120026 0.108582
0.459503 0.123291 0.111908
0.477203 0.126434 0.115112
0.493988 0.129395 0.118103
0.510071 0.132294 0.121002
0.525238 0.134918 0.123749
0.539581 0.137543 0.126343
0.552917 0.139893 0.128815
0.565399 0.142181 0.131042
0.576996 0.144226 0.133179
0.587891 0.146149 0.135193
0.598175 0.148010 0.137085
0.607849 0.149780 0.138916
0.617004 0.151398 0.140594
0.625854 0.152985 0.142242
0.634369 0.154510 0.143860
0.642731 0.156097 0.145416
0.650909 0.157532 0.146942
0.659149 0.159119 0.148529
0.667511 0.160583 0.150085
0.676117 0.162231 0.151733
0.685059 0.163788 0.153412
0.694550 0.165588 0.155182
0.704834 0.167419 0.157135
0.715973 0.169403 0.159210
0.728058 0.171570 0.161469
0.741333 0.173950 0.163940
0.756073 0.176636 0.166718
0.772614 0.179626 0.169769
0.791992 0.183167 0.173340
0.816833 0.187653 0.177979
0.039246 0.054535 0.039307
0.042389 0.054596 0.039368
0.045471 0.054626 0.039429
0.048615 0.054657 0.039490
0.051910 0.054688 0.039551
0.055542 0.054840 0.039734
0.060059 0.055695 0.040558
0.064941 0.056549 0.041443
0.070221 0.057495 0.042419
0.075989 0.058533 0.043457
0.082275 0.059662 0.044617
0.089142 0.060883 0.045868
0.096710 0.062225 0.047241
0.104919 0.063690 0.048737
0.113953 0.065277 0.050354
0.123840 0.067047 0.052155
0.134644 0.068970 0.054077
0.146454 0.071075 0.056213
0.159393 0.073364 0.058533
0.173462 0.075836 0.061035
0.188751 0.078522 0.063751
0.205139 0.081451 0.066681
0.222473 0.084503 0.069794
0.240692 0.087738 0.073029
0.259644 0.091034 0.076416
0.279266 0.094513 0.079926
0.299347 0.098053 0.083496
0.319763 0.101654 0.087128
0.340515 0.105316 0.090820
0.361084 0.109009 0.094482
0.381744 0.112610 0.098145
0.402008 0.116180 0.101807
0.421906 0.119690 0.105316
0.441162 0.123108 0.108734
0.459808 0.126343 0.112091
0.477509 0.129547 0.115295
0.494324 0.132507 0.118286
0.510376 0.135345 0.121185
0.525513 0.138092 0.123962
0.539856 0.140564 0.126526
0.553162 0.143036 0.128937
0.565613 0.145264 0.131256
0.577240 0.147339 0.133362
0.588104 0.149292 0.135376
0.598358 0.151123 0.137268
0.608063 0.152924 0.139069
0.617218 0.154510 0.140778
0.626038 0.156097 0.142395
0.634521 0.157654 0.144012
0.642914 0.159210 0.145599
0.651123 0.160675 0.147156
0.659332 0.162170 0.148712
0.667694 0.163788 0.150269
0.676300 0.165344 0.151886
0.685242 0.166962 0.153595
0.694763 0.168701 0.155396
0.705017 0.170563 0.157318
0.716156 0.172577 0.159393
0.728271 0.174652 0.161652
0.741577 0.177124 0.164154
0.756287 0.179810 0.166870
0.772858 0.182770 0.169952
0.792267 0.186432 0.173584
0.817139 0.190826 0.178192
0.039948 0.058350 0.040039
0.043091 0.058411 0.040100
0.046173 0.058441 0.040161
0.049347 0.058472 0.040222
0.052643 0.058533 0.040283
0.056152 0.058563 0.040344
0.060150 0.058868 0.040649
0.065033 0.059753 0.041534
0.070312 0.060699 0.042511
0.076111 0.061737 0.043579
0.082397 0.062866 0.044708
0.089294 0.064087 0.045990
0.096832 0.065460 0.047363
0.105103 0.066956 0.048859
0.114105 0.068542 0.050476
0.123993 0.070312 0.052277
0.134857 0.072235 0.054230
0.146698 0.074341 0.056366
0.159668 0.076630 0.058685
0.173706 0.079132 0.061218
0.189056 0.081818 0.063934
0.205475 0.084717 0.066864
0.222839 0.087799 0.069946
0.241028 0.091003 0.073212
0.260040 0.094391 0.076599
0.279633 0.097809 0.080078
0.299713 0.101379 0.083649
0.320129 0.104950 0.087280
0.340881 0.108612 0.090973
0.361511 0.112274 0.094696
0.382141 0.115936 0.098328
0.402374 0.119476 0.101959
0.422272 0.122986 0.105499
0.441528 0.126404 0.108948
0.460175 0.129700 0.112274
0.477844 0.132904 0.115479
0.494659 0.135864 0.118500
0.510681 0.138702 0.121399
0.525757 0.141388 0.124115
0.540131 0.143982 0.126709
0.553436 0.146332 0.129150
0.565826 0.148590 0.131409
0.577454 0.150665 0.133545
0.588318 0.152588 0.135559
0.598572 0.154449 0.137451
0.608246 0.156189 0.139252
0.617401 0.157928 0.140930
0.626221 0.159454 0.142578
0.634705 0.161072 0.144196
0.643097 0.162537 0.145782
0.651306 0.164062 0.147339
0.659515 0.165588 0.148895
0.667877 0.167114 0.150452
0.676483 0.168701 0.152069
0.685425 0.170258 0.153778
0.694977 0.172028 0.155579
0.705231 0.173859 0.157532
0.716370 0.175903 0.159576
0.728516 0.178192 0.161865
0.741821 0.180542 0.164337
0.756561 0.183197 0.167084
0.773163 0.186218 0.170166
0.792542 0.189819 0.173798
0.817352 0.194275 0.178375
0.040710 0.062500 0.040833
0.043915 0.062561 0.040924
0.046967 0.062592 0.040985
0.050110 0.062622 0.041046
0.053436 0.062653 0.041077
0.056915 0.062714 0.041107
0.060669 0.062744 0.041199
0.065125 0.063171 0.041656
0.070435 0.064148 0.042633
0.076233 0.065216 0.043701
0.082550 0.066345 0.044861
0.089417 0.067535 0.046082
0.096985 0.068909 0.047485
0.105286 0.070404 0.048981
0.114319 0.072021 0.050629
0.124207 0.073761 0.052399
0.135040 0.075714 0.054352
0.146942 0.077820 0.056488
0.159912 0.080139 0.058838
0.174011 0.082642 0.061371
0.189392 0.085358 0.064087
0.205750 0.088257 0.067017
0.223145 0.091339 0.070129
0.241394 0.094574 0.073395
0.260376 0.097900 0.076782
0.280060 0.101349 0.080292
0.300110 0.104919 0.083862
0.320557 0.108551 0.087494
0.341248 0.112183 0.091187
0.361877 0.115845 0.094849
0.382538 0.119446 0.098511
0.402740 0.123016 0.102112
0.422607 0.126587 0.105682
0.441925 0.129974 0.109161
0.460480 0.133270 0.112457
0.478119 0.136414 0.115631
0.494965 0.139435 0.118683
0.510925 0.142273 0.121552
0.526031 0.144958 0.124268
0.540375 0.147491 0.126892
0.553650 0.149933 0.129303
0.566101 0.152069 0.131592
0.577698 0.154205 0.133728
0.588501 0.156158 0.135712
0.598755 0.158020 0.137634
0.608398 0.159760 0.139374
0.617615 0.161469 0.141113
0.626404 0.163055 0.142761
0.634888 0.164612 0.144379
0.643250 0.166107 0.145966
0.651489 0.167694 0.147522
0.659698 0.169128 0.149048
0.668060 0.170685 0.150604
0.676666 0.172241 0.152283
0.685638 0.173859 0.153992
0.695129 0.175659 0.155762
0.705444 0.177521 0.157715
0.716614 0.179657 0.159821
0.728760 0.181854 0.162079
0.742065 0.184143 0.164551
0.756805 0.186859 0.167297
0.773376 0.189972 0.170380
0.792816 0.193512 0.174011
0.817627 0.197937 0.178589
0.041565 0.066925 0.041687
0.044739 0.066986 0.041779
0.047821 0.067017 0.041840
0.050964 0.067047 0.041870
0.054291 0.067108 0.041931
0.057770 0.067169 0.041992
0.061554 0.067200 0.042053
0.065613 0.067261 0.042114
0.070557 0.067841 0.042725
0.076355 0.068909 0.043823
0.082672 0.070068 0.044983
0.089539 0.071289 0.046234
0.097137 0.072632 0.047607
0.105438 0.074127 0.049103
0.114502 0.075745 0.050781
0.124420 0.077515 0.052551
0.135315 0.079468 0.054535
0.147186 0.081543 0.056671
0.160156 0.083862 0.058990
0.174316 0.086365 0.061523
0.189667 0.089111 0.064270
0.206085 0.092010 0.067200
0.223511 0.095123 0.070312
0.241760 0.098358 0.073547
0.260773 0.101685 0.076965
0.280426 0.105164 0.080475
0.300507 0.108734 0.084045
0.320923 0.112305 0.087646
0.341705 0.115997 0.091370
0.362305 0.119659 0.095062
0.382965 0.123291 0.098724
0.403168 0.126892 0.102356
0.423035 0.130432 0.105896
0.442291 0.133820 0.109344
0.460846 0.137146 0.112671
0.478485 0.140259 0.115814
0.495270 0.143188 0.118835
0.511230 0.146088 0.121735
0.526367 0.148834 0.124512
0.540649 0.151337 0.127106
0.553955 0.153778 0.129517
0.566345 0.155975 0.131775
0.577911 0.157990 0.133911
0.588745 0.160004 0.135895
0.598969 0.161896 0.137787
0.608612 0.163605 0.139557
0.617767 0.165283 0.141327
0.626587 0.166901 0.142944
0.635101 0.168396 0.144562
0.643433 0.169952 0.146149
0.651611 0.171539 0.147675
0.659851 0.173035 0.149231
0.668213 0.174561 0.150818
0.676849 0.176147 0.152466
0.685852 0.177795 0.154175
0.695343 0.179535 0.155975
0.705658 0.181458 0.157928
0.716827 0.183533 0.160004
0.728973 0.185638 0.162262
0.742310 0.188171 0.164764
0.757050 0.190826 0.167511
0.773651 0.193848 0.170593
0.793060 0.197296 0.174194
0.817963 0.201935 0.178833
0.042480 0.071777 0.042664
0.045654 0.071808 0.042694
0.048706 0.071869 0.042755
0.051880 0.071899 0.042816
0.055206 0.071960 0.042877
0.058716 0.072021 0.042938
0.062500 0.072052 0.042999
0.066528 0.072113 0.043060
0.070953 0.072144 0.043121
0.076477 0.072937 0.043945
0.082794 0.074066 0.045105
0.089722 0.075317 0.046387
0.097321 0.076691 0.047760
0.105621 0.078186 0.049286
0.114716 0.079803 0.050934
0.124664 0.081573 0.052704
0.135529 0.083527 0.054657
0.147400 0.085632 0.056793
0.160431 0.087952 0.059143
0.174591 0.090485 0.061707
0.190033 0.093201 0.064453
0.206421 0.096130 0.067383
0.223846 0.099182 0.070496
0.242157 0.102448 0.073761
0.261139 0.105804 0.077148
0.280823 0.109283 0.080658
0.300903 0.112854 0.084229
0.321350 0.116486 0.087860
0.342102 0.120178 0.091553
0.362732 0.123779 0.095245
0.383331 0.127472 0.098938
0.403564 0.131042 0.102539
0.423401 0.134552 0.106110
0.442657 0.138000 0.109528
0.461243 0.141296 0.112885
0.478821 0.144379 0.116028
0.495636 0.147400 0.119080
0.511566 0.150208 0.121948
0.526642 0.152924 0.124664
0.540924 0.155548 0.127258
0.554199 0.157898 0.129700
0.566559 0.160065 0.131958
0.578156 0.162170 0.134094
0.588989 0.164154 0.136078
0.599182 0.166016 0.137970
0.608826 0.167816 0.139771
0.617981 0.169556 0.141510
0.626801 0.171143 0.143158
0.635284 0.172638 0.144745
0.643616 0.174225 0.146301
0.651794 0.175659 0.147858
0.660065 0.177246 0.149445
0.668427 0.178833 0.151031
0.677032 0.180298 0.152649
0.686005 0.182007 0.154358
0.695557 0.183838 0.156189
0.705872 0.185669 0.158112
0.717072 0.187653 0.160187
0.729218 0.190002 0.162476
0.742523 0.192322 0.164978
0.757294 0.195068 0.167725
0.773926 0.198181 0.170807
0.793335 0.201599 0.174408
0.818207 0.206207 0.179047
0.043427 0.076996 0.043610
0.046631 0.077057 0.043701
0.049683 0.077118 0.043762
0.052856 0.077148 0.043823
0.056152 0.077179 0.043884
0.059692 0.077240 0.043945
0.063477 0.077301 0.044006
0.067566 0.077362 0.044067
0.071960 0.077423 0.044159
0.076782 0.077484 0.044220
0.082947 0.078491 0.045258
0.089874 0.079742 0.046509
0.097504 0.081116 0.047913
0.105804 0.082611 0.049408
0.114899 0.084198 0.051056
0.124847 0.085999 0.052856
0.135773 0.087952 0.054840
0.147644 0.090057 0.056976
0.160736 0.092377 0.059326
0.174896 0.094910 0.061890
0.190369 0.097656 0.064636
0.206787 0.100616 0.067566
0.224182 0.103699 0.070679
0.242554 0.106934 0.073975
0.261536 0.110291 0.077332
0.281219 0.113800 0.080841
0.301361 0.117371 0.084412
0.321777 0.121002 0.088074
0.342560 0.124664 0.091797
0.363159 0.128326 0.095459
0.383789 0.131958 0.099152
0.403992 0.135590 0.102783
0.423828 0.139099 0.106293
0.443054 0.142548 0.109741
0.461609 0.145844 0.113068
0.479187 0.148926 0.116241
0.495911 0.151917 0.119263
0.511902 0.154785 0.122162
0.526947 0.157471 0.124878
0.541229 0.160004 0.127472
0.554474 0.162445 0.129913
0.566833 0.164734 0.132141
0.578369 0.166809 0.134277
0.589203 0.168701 0.136292
0.599396 0.170624 0.138184
0.609039 0.172394 0.139984
0.618195 0.174042 0.141693
0.626984 0.175690 0.143341
0.635468 0.177246 0.144897
0.643829 0.178802 0.146515
0.652008 0.180298 0.148071
0.660248 0.181793 0.149628
0.668610 0.183319 0.151245
0.677216 0.184967 0.152832
0.686218 0.186646 0.154572
0.695770 0.188385 0.156372
0.706116 0.190247 0.158295
0.717285 0.192352 0.160400
0.729462 0.194641 0.162689
0.742798 0.197052 0.165192
0.757568 0.199738 0.167938
0.774170 0.202820 0.171021
0.793640 0.206390 0.174652
0.818481 0.210968 0.179291
0.044495 0.082703 0.044678
0.047729 0.082794 0.044800
0.050751 0.082825 0.044861
0.053925 0.082886 0.044922
0.057251 0.082947 0.044983
0.060760 0.082977 0.045044
0.064575 0.083038 0.045135
0.068665 0.083099 0.045197
0.073059 0.083160 0.045258
0.077881 0.083221 0.045349
0.083130 0.083252 0.045410
0.090057 0.084503 0.046661
0.097687 0.085876 0.048035
0.105988 0.087372 0.049561
0.115112 0.088989 0.051208
0.125092 0.090790 0.053009
0.136017 0.092743 0.054993
0.147949 0.094879 0.057129
0.161011 0.097198 0.059479
0.175232 0.099731 0.062042
0.190674 0.102478 0.064789
0.207153 0.105438 0.067749
0.224609 0.108521 0.070862
0.242920 0.111786 0.074127
0.261963 0.115173 0.077545
0.281677 0.118683 0.081055
0.301758 0.122253 0.084625
0.322235 0.125885 0.088287
0.342957 0.129547 0.091980
0.363586 0.133209 0.095673
0.384216 0.136902 0.099335
0.404419 0.140442 0.102966
0.424225 0.143982 0.106506
0.443481 0.147400 0.109955
0.461975 0.150726 0.113281
0.479584 0.153870 0.116455
0.496307 0.156830 0.119476
0.512207 0.159668 0.122345
0.527252 0.162415 0.125092
0.541504 0.164978 0.127686
0.554718 0.167389 0.130066
0.567078 0.169586 0.132324
0.578613 0.171692 0.134491
0.589417 0.173645 0.136475
0.599640 0.175568 0.138397
0.609253 0.177277 0.140167
0.618378 0.178955 0.141846
0.627167 0.180603 0.143524
0.635651 0.182159 0.145142
0.643982 0.183746 0.146729
0.652222 0.185303 0.148285
0.660431 0.186737 0.149841
0.668823 0.188324 0.151428
0.677429 0.189941 0.153076
0.686432 0.191620 0.154755
0.695953 0.193420 0.156555
0.706299 0.195282 0.158508
0.717529 0.197357 0.160645
0.729736 0.199615 0.162933
0.743073 0.202057 0.165375
0.757812 0.204742 0.168182
0.774445 0.207764 0.171234
0.793915 0.211456 0.174896
0.818817 0.216034 0.179504
0.045624 0.088898 0.045868
0.048859 0.088989 0.045990
0.051910 0.089050 0.046051
0.055084 0.089111 0.046112
0.058441 0.089142 0.046173
0.061981 0.089233 0.046265
0.065765 0.089294 0.046326
0.069855 0.089355 0.046387
0.074249 0.089447 0.046478
0.079102 0.089478 0.046539
0.084320 0.089508 0.046600
0.090210 0.089691 0.046783
0.097839 0.091064 0.048187
0.106201 0.092590 0.049713
0.115326 0.094238 0.051361
0.125336 0.096039 0.053192
0.136292 0.098022 0.055176
0.148224 0.100159 0.057343
0.161316 0.102509 0.059662
0.175537 0.105042 0.062225
0.191040 0.107819 0.065033
0.207520 0.110748 0.067932
0.224976 0.113861 0.071045
0.243347 0.117096 0.074341
0.262421 0.120483 0.077728
0.282074 0.123932 0.081238
0.302216 0.127563 0.084839
0.322693 0.131226 0.088531
0.343414 0.134918 0.092224
0.364044 0.138580 0.095886
0.384644 0.142212 0.099548
0.404846 0.145813 0.103180
0.424683 0.149353 0.106750
0.443848 0.152771 0.110168
0.462341 0.156067 0.113495
0.479919 0.159241 0.116669
0.496643 0.162201 0.119690
0.512543 0.165009 0.122559
0.527557 0.167816 0.125275
0.541809 0.170380 0.127838
0.555023 0.172821 0.130310
0.567352 0.175018 0.132568
0.578888 0.177094 0.134705
0.589661 0.179047 0.136688
0.599884 0.180939 0.138580
0.609467 0.182739 0.140350
0.618622 0.184418 0.142059
0.627380 0.186005 0.143738
0.635864 0.187592 0.145325
0.644165 0.189148 0.146912
0.652405 0.190704 0.148499
0.660645 0.192200 0.150055
0.669037 0.193848 0.151672
0.677643 0.195374 0.153259
0.686646 0.197021 0.154968
0.696167 0.198914 0.156769
0.706543 0.200745 0.158752
0.717773 0.202850 0.160828
0.729950 0.205200 0.163116
0.743347 0.207672 0.165649
0.758087 0.210297 0.168396
0.774719 0.213318 0.171509
0.794220 0.216980 0.175110
0.819092 0.221588 0.179749
0.046844 0.095673 0.047119
0.050110 0.095795 0.047272
0.053162 0.095856 0.047333
0.056366 0.095917 0.047424
0.059692 0.095978 0.047485
0.063232 0.096039 0.047546
0.067017 0.096100 0.047607
0.071136 0.096161 0.047699
0.075562 0.096222 0.047760
0.080414 0.096313 0.047852
0.085693 0.096344 0.047913
0.091431 0.096436 0.048004
0.098022 0.096771 0.048340
0.106415 0.098297 0.049866
0.115570 0.099945 0.051544
0.125580 0.101746 0.053345
0.136536 0.103699 0.055328
0.148499 0.105865 0.057495
0.161652 0.108246 0.059875
0.175903 0.110779 0.062408
0.191406 0.113556 0.065186
0.207947 0.116516 0.068146
0.225403 0.119629 0.071259
0.243744 0.122864 0.074524
0.262848 0.126282 0.077972
0.282562 0.129791 0.081482
0.302643 0.133331 0.085052
0.323151 0.136963 0.088715
0.343872 0.140686 0.092438
0.364563 0.144409 0.096100
0.385101 0.148071 0.099792
0.405304 0.151611 0.103394
0.425110 0.155212 0.106964
0.444305 0.158600 0.110413
0.462769 0.161957 0.113708
0.480316 0.165100 0.116913
0.496979 0.168060 0.119904
0.512848 0.170837 0.122742
0.527863 0.173584 0.125458
0.542114 0.176239 0.128113
0.555298 0.178619 0.130493
0.567627 0.180878 0.132782
0.579163 0.182953 0.134888
0.589935 0.184906 0.136902
0.600067 0.186859 0.138763
0.609680 0.188538 0.140564
0.618774 0.190216 0.142273
0.627594 0.191895 0.143951
0.636078 0.193451 0.145538
0.644379 0.195068 0.147125
0.652588 0.196564 0.148712
0.660828 0.198120 0.150238
0.669220 0.199707 0.151825
0.677826 0.201355 0.153473
0.686859 0.202972 0.155212
0.696442 0.204834 0.157013
0.706787 0.206726 0.158966
0.718018 0.208801 0.161072
0.730225 0.211121 0.163361
0.743591 0.213531 0.165863
0.758392 0.216309 0.168640
0.774994 0.219421 0.171692
0.794525 0.222961 0.175354
0.819397 0.227600 0.179993
0.048218 0.103088 0.048553
0.051483 0.103241 0.048676
0.054535 0.103302 0.048737
0.057739 0.103363 0.048828
0.061066 0.103424 0.048889
0.064667 0.103516 0.048981
0.068451 0.103577 0.049042
0.072540 0.103638 0.049133
0.076996 0.103729 0.049194
0.081848 0.103790 0.049286
0.087128 0.103882 0.049347
0.092896 0.103912 0.049438
0.099243 0.104004 0.049530
0.106598 0.104492 0.050049
0.115784 0.106171 0.051697
0.125793 0.107971 0.053528
0.136780 0.109985 0.055511
0.148773 0.112122 0.057648
0.161957 0.114502 0.060028
0.176239 0.117065 0.062592
0.191772 0.119843 0.065369
0.208313 0.122803 0.068359
0.225800 0.125916 0.071472
0.244202 0.129211 0.074768
0.263275 0.132568 0.078156
0.282959 0.136078 0.081696
0.303162 0.139709 0.085297
0.323578 0.143341 0.088928
0.344360 0.147034 0.092651
0.364960 0.150696 0.096344
0.385590 0.154419 0.100037
0.405823 0.158051 0.103668
0.425568 0.161530 0.107208
0.444733 0.164978 0.110657
0.463165 0.168274 0.113953
0.480713 0.171417 0.117096
0.497406 0.174469 0.120117
0.513214 0.177277 0.122986
0.528229 0.180084 0.125732
0.542389 0.182587 0.128296
0.555634 0.184998 0.130737
0.567932 0.187256 0.132996
0.579376 0.189301 0.135071
0.590149 0.191406 0.137085
0.600342 0.193268 0.138977
0.609894 0.195068 0.140778
0.619019 0.196716 0.142487
0.627808 0.198364 0.144165
0.636292 0.200012 0.145752
0.644592 0.201477 0.147339
0.652802 0.203033 0.148895
0.661041 0.204559 0.150452
0.669434 0.206268 0.152069
0.678070 0.207855 0.153717
0.687073 0.209564 0.155426
0.696655 0.211365 0.157227
0.707062 0.213348 0.159180
0.718262 0.215424 0.161316
0.730469 0.217682 0.163574
0.743866 0.220123 0.166107
0.758636 0.222992 0.168854
0.775330 0.226013 0.171967
0.794800 0.229675 0.175568
0.819702 0.234253 0.180237
0.049683 0.111145 0.050049
0.052948 0.111328 0.050201
0.056061 0.111420 0.050293
0.059235 0.111450 0.050354
0.062592 0.111542 0.050415
0.066132 0.111633 0.050507
0.069946 0.111694 0.050568
0.074066 0.111786 0.050659
0.078552 0.111877 0.050751
0.083374 0.111938 0.050812
0.088654 0.112030 0.050903
0.094452 0.112091 0.050964
0.100830 0.112183 0.051056
0.107788 0.112274 0.051147
0.116028 0.113007 0.051880
0.126068 0.114807 0.053680
0.137085 0.116821 0.055664
0.149109 0.118927 0.057831
0.162323 0.121338 0.060242
0.176605 0.123901 0.062805
0.192139 0.126709 0.065582
0.208710 0.129639 0.068542
0.226288 0.132812 0.071716
0.244629 0.136078 0.074982
0.263733 0.139526 0.078400
0.283447 0.143005 0.081909
0.303619 0.146576 0.085510
0.324158 0.150299 0.089203
0.344849 0.153992 0.092926
0.365509 0.157654 0.096588
0.386078 0.161346 0.100281
0.406281 0.165039 0.103912
0.426056 0.168518 0.107452
0.445160 0.171906 0.110870
0.463623 0.175262 0.114166
0.481110 0.178406 0.117310
0.497742 0.181427 0.120331
0.513580 0.184326 0.123230
0.528564 0.186981 0.125946
0.542725 0.189606 0.128540
0.555878 0.192017 0.130920
0.568176 0.194244 0.133179
0.579681 0.196381 0.135315
0.590393 0.198395 0.137329
0.600586 0.200256 0.139191
0.610168 0.202057 0.140991
0.619263 0.203796 0.142700
0.628052 0.205414 0.144379
