custom_nodes/comfyui-vrgamedevgirl/LUTS/Dark_Muted_Cool_Cinematic_2.cube
#Created by: Adobe Photoshop Export Color Lookup Plugin
TITLE "ComfyUI_00055_.png"
#LUT size
LUT_3D_SIZE 65
#data domain
DOMAIN_MIN 0.0 0.0 0.0
DOMAIN_MAX 1.0 1.0 1.0
#LUT data points
0.105988 0.141144 0.203918
0.106964 0.140167 0.202911
0.107941 0.139191 0.201935
0.108948 0.138214 0.200958
0.110016 0.137207 0.199982
0.115906 0.135223 0.199005
0.121796 0.133270 0.198029
0.127686 0.131317 0.197052
0.133606 0.129456 0.196136
0.140472 0.130432 0.197113
0.147339 0.131439 0.198090
0.154205 0.132416 0.199066
0.160980 0.133270 0.199890
0.165955 0.132294 0.197937
0.170898 0.131317 0.195953
0.175873 0.130341 0.194000
0.180847 0.129517 0.192108
0.185760 0.130493 0.191132
0.190674 0.131470 0.190155
0.195587 0.132446 0.189178
0.200378 0.133331 0.187988
0.204315 0.133331 0.185059
0.208221 0.133331 0.182098
0.212158 0.133331 0.179169
0.216217 0.133453 0.176575
0.221191 0.134430 0.176575
0.226166 0.135406 0.176575
0.231110 0.136383 0.176575
0.235962 0.137360 0.176300
0.239868 0.138367 0.174316
0.243805 0.139343 0.172363
0.247742 0.140320 0.170410
0.251495 0.141144 0.168762
0.253662 0.141144 0.168762
0.256561 0.141144 0.168762
0.259460 0.141144 0.168762
0.262360 0.141144 0.168762
0.267853 0.141998 0.168762
0.273743 0.142975 0.168762
0.279633 0.143951 0.168762
0.285522 0.144928 0.168762
0.289734 0.146790 0.169617
0.293701 0.148743 0.170593
0.297699 0.150696 0.171570
0.301697 0.152679 0.172546
0.307404 0.155518 0.175323
0.313293 0.158478 0.178253
0.319183 0.161407 0.181213
0.325073 0.164368 0.184143
0.330963 0.166443 0.184387
0.336823 0.168488 0.184387
0.342712 0.170502 0.184387
0.348602 0.172546 0.184387
0.356415 0.175415 0.186218
0.364319 0.178375 0.188171
0.372253 0.181305 0.190155
0.380157 0.184265 0.192108
0.387085 0.188141 0.193115
0.393951 0.192078 0.194122
0.400818 0.195984 0.195099
0.407684 0.199921 0.196075
0.415588 0.204803 0.198029
0.423492 0.209717 0.199982
0.431396 0.214630 0.201935
0.439331 0.219543 0.203918
0.103973 0.142120 0.202911
0.109924 0.142120 0.200958
0.110901 0.141144 0.199982
0.111877 0.140167 0.199005
0.112885 0.139191 0.198029
0.115906 0.138184 0.198029
0.121796 0.136230 0.197052
0.127686 0.134247 0.196045
0.133606 0.132385 0.195099
0.140472 0.132416 0.195160
0.147339 0.133392 0.196136
0.154205 0.134369 0.197113
0.160858 0.135223 0.197968
0.163971 0.134247 0.196930
0.168945 0.133270 0.194977
0.173920 0.132294 0.193024
0.179047 0.131317 0.191040
0.185760 0.130493 0.189178
0.190674 0.131470 0.188171
0.195587 0.132446 0.187195
0.200378 0.133423 0.186127
0.204315 0.134308 0.184082
0.208221 0.134308 0.181122
0.212158 0.134308 0.178192
0.216095 0.134552 0.175690
0.220123 0.136383 0.176575
0.225098 0.137360 0.176575
0.230072 0.138367 0.176575
0.234924 0.139069 0.176300
0.238892 0.138367 0.174316
0.242828 0.139343 0.172363
0.246735 0.140320 0.170410
0.250671 0.141449 0.168915
0.253571 0.142914 0.169617
0.256561 0.143097 0.169739
0.259460 0.143097 0.169739
0.262360 0.143097 0.169739
0.266998 0.143097 0.168884
0.272766 0.143951 0.168762
0.278625 0.144928 0.168762
0.284515 0.145905 0.168762
0.291351 0.147766 0.171356
0.295685 0.149719 0.172546
0.299652 0.151703 0.173553
0.303650 0.153656 0.174530
0.307587 0.155609 0.173737
0.313293 0.158478 0.176300
0.319183 0.161407 0.179230
0.325073 0.164368 0.182190
0.331848 0.167358 0.183319
0.337830 0.169464 0.183380
0.343719 0.171478 0.183380
0.349609 0.173523 0.183380
0.354614 0.175476 0.185242
0.362366 0.178375 0.187195
0.370270 0.181305 0.189178
0.378204 0.184265 0.191132
0.386993 0.188141 0.193085
0.393951 0.192078 0.194122
0.400818 0.195984 0.195099
0.407684 0.199921 0.196075
0.416534 0.205780 0.200897
0.424469 0.210693 0.202911
0.432373 0.215607 0.204895
0.440308 0.220520 0.206848
0.101929 0.143097 0.201935
0.107880 0.143097 0.199982
0.113831 0.143097 0.198029
0.114807 0.142120 0.197052
0.115845 0.141144 0.196075
0.118774 0.140167 0.196075
0.121796 0.139160 0.196045
0.127686 0.137207 0.195068
0.133606 0.135315 0.194122
0.140472 0.135315 0.194122
0.147339 0.135345 0.194183
0.154205 0.136322 0.195160
0.160858 0.137207 0.196014
0.163849 0.136230 0.195038
0.166992 0.135223 0.194000
0.171967 0.134247 0.192047
0.177094 0.133270 0.190063
0.183960 0.132294 0.188110
0.190674 0.131470 0.186218
0.195587 0.132446 0.185242
0.200378 0.133423 0.184174
0.204315 0.134399 0.182190
0.208221 0.135284 0.180145
0.212158 0.135284 0.177185
0.216095 0.135529 0.174713
0.220001 0.137482 0.175690
0.224060 0.139343 0.176575
0.229034 0.140320 0.176575
0.233856 0.141022 0.176300
0.237854 0.140045 0.174316
0.241852 0.139343 0.172363
0.245758 0.140320 0.170410
0.249695 0.141449 0.168915
0.252594 0.142914 0.169617
0.256439 0.144836 0.170593
0.259460 0.145081 0.170715
0.262360 0.145081 0.170715
0.266998 0.145081 0.169861
0.271912 0.145081 0.168884
0.277649 0.145905 0.168762
0.283539 0.146912 0.168762
0.290344 0.148743 0.171356
0.297302 0.150696 0.174286
0.301636 0.152679 0.175507
0.305634 0.154633 0.176483
0.309540 0.156586 0.175690
0.313477 0.158569 0.174713
0.319183 0.161407 0.177277
0.325073 0.164368 0.180206
0.331848 0.167358 0.181366
0.338715 0.170380 0.182343
0.344696 0.172485 0.182404
0.350586 0.174500 0.182404
0.355591 0.176453 0.184265
0.360565 0.178436 0.186218
0.368317 0.181305 0.188171
0.376221 0.184265 0.190155
0.385040 0.188141 0.192108
0.393860 0.192078 0.194061
0.400818 0.195984 0.195099
0.407684 0.199921 0.196075
0.416534 0.205780 0.200897
0.425446 0.211670 0.205811
0.433380 0.216583 0.207825
0.441284 0.221497 0.209808
0.099915 0.144104 0.200958
0.105865 0.144104 0.199005
0.111816 0.144104 0.197052
0.117767 0.144104 0.195068
0.118774 0.143097 0.194122
0.121735 0.142120 0.194122
0.124664 0.141144 0.194122
0.127686 0.140137 0.194092
0.133606 0.138245 0.193146
0.140472 0.138245 0.193146
0.147339 0.138245 0.193146
0.154205 0.138306 0.193176
0.160858 0.139160 0.194061
0.163849 0.138184 0.193085
0.166870 0.137207 0.192078
0.169983 0.136230 0.191040
0.175110 0.135223 0.189087
0.181976 0.134247 0.187134
0.188843 0.133270 0.185150
0.195557 0.132446 0.183289
0.200378 0.133423 0.182190
0.204315 0.134399 0.180237
0.208221 0.135406 0.178284
0.212158 0.136292 0.176208
0.216095 0.136505 0.173737
0.220001 0.138458 0.174713
0.223938 0.140442 0.175690
0.227997 0.142273 0.176575
0.232819 0.143005 0.176300
0.236816 0.141998 0.174316
0.240814 0.141022 0.172363
0.244781 0.140320 0.170410
0.248688 0.141449 0.168915
0.251617 0.142914 0.169617
0.255463 0.144836 0.170593
0.259338 0.146759 0.171570
0.262360 0.147034 0.171692
0.266998 0.147034 0.170837
0.271912 0.147034 0.169861
0.276825 0.147034 0.168884
0.282562 0.147888 0.168762
0.289368 0.149719 0.171356
0.296326 0.151703 0.174286
0.303253 0.153656 0.177246
0.307587 0.155609 0.178436
0.311523 0.157593 0.177673
0.315430 0.159546 0.176666
0.319366 0.161499 0.175690
0.325073 0.164368 0.178253
0.331848 0.167358 0.179382
0.338715 0.170380 0.180359
0.345581 0.173370 0.181366
0.351562 0.175476 0.181427
0.356598 0.177460 0.183289
0.361542 0.179413 0.185242
0.366516 0.181366 0.187195
0.374268 0.184265 0.189178
0.383057 0.188141 0.191132
0.391907 0.192078 0.193085
0.400726 0.195984 0.195068
0.407684 0.199921 0.196075
0.416534 0.205780 0.200897
0.425446 0.211670 0.205811
0.434326 0.217560 0.210724
0.442261 0.222473 0.212738
0.097839 0.145111 0.199951
0.103790 0.145081 0.197968
0.109741 0.145081 0.196014
0.115692 0.145081 0.194061
0.121643 0.145081 0.192078
0.124603 0.144104 0.192078
0.127533 0.143097 0.192078
0.130493 0.142120 0.192078
0.133575 0.141174 0.192108
0.140442 0.141174 0.192108
0.147308 0.141174 0.192108
0.154205 0.141174 0.192108
0.160828 0.141144 0.192078
0.163849 0.140167 0.191101
0.166840 0.139191 0.190125
0.169861 0.138214 0.189117
0.173126 0.137207 0.188080
0.179993 0.136230 0.186096
0.186859 0.135254 0.184143
0.193756 0.134277 0.182190
0.200378 0.133484 0.180267
0.204285 0.134460 0.178314
0.208221 0.135437 0.176361
0.212128 0.136444 0.174377
0.216095 0.137512 0.172760
0.220032 0.139465 0.173737
0.223969 0.141418 0.174713
0.227875 0.143402 0.175690
0.231781 0.144928 0.176270
0.235779 0.143951 0.174316
0.239777 0.142975 0.172363
0.243774 0.141998 0.170380
0.247772 0.141479 0.168884
0.250671 0.142944 0.169617
0.254517 0.144867 0.170563
0.258392 0.146790 0.171539
0.262238 0.148743 0.172516
0.267029 0.149017 0.171844
0.271912 0.149017 0.170868
0.276825 0.149017 0.169891
0.281738 0.149017 0.168915
0.288391 0.150726 0.171356
0.295319 0.152679 0.174286
0.302246 0.154663 0.177246
0.309174 0.156616 0.180176
0.313446 0.158569 0.179596
0.317352 0.160522 0.178589
0.321289 0.162476 0.177612
0.325226 0.164459 0.176636
0.331848 0.167389 0.177490
0.338715 0.170380 0.178497
0.345581 0.173401 0.179474
0.352448 0.176392 0.180450
0.357574 0.178467 0.182343
0.362549 0.180420 0.184296
0.367523 0.182404 0.186249
0.372467 0.184357 0.188232
0.381165 0.188202 0.190216
0.389984 0.192139 0.192169
0.398834 0.196045 0.194122
0.407654 0.199982 0.196106
0.416565 0.205780 0.200897
0.425446 0.211670 0.205780
0.434357 0.217560 0.210693
0.443237 0.223450 0.215607
0.093903 0.148041 0.196991
0.099854 0.147064 0.195038
0.105835 0.147064 0.193085
0.111786 0.147064 0.191101
0.117737 0.147034 0.189148
0.123627 0.146057 0.187195
0.126556 0.145081 0.187195
0.129517 0.144104 0.187195
0.132599 0.143158 0.187225
0.139465 0.143158 0.188171
0.146332 0.143158 0.188171
0.153198 0.143158 0.188171
0.159851 0.143158 0.188171
0.162872 0.143097 0.188141
0.165863 0.142120 0.187164
0.168884 0.141144 0.186188
0.172028 0.140167 0.185120
0.177063 0.139191 0.183167
0.183929 0.138214 0.181213
0.190796 0.137207 0.179230
0.197571 0.136444 0.177551
0.203308 0.137421 0.178314
0.207245 0.138397 0.176361
0.211151 0.139374 0.174377
0.215332 0.140350 0.172668
0.221069 0.141418 0.172760
0.225006 0.143402 0.173737
0.228943 0.145355 0.174713
0.232727 0.146790 0.175293
0.235779 0.144928 0.173279
0.239777 0.143951 0.171295
0.243774 0.142975 0.169342
0.247894 0.142609 0.167847
0.251526 0.144775 0.168610
0.255493 0.146820 0.169586
0.259369 0.148773 0.170563
0.263245 0.150696 0.171509
0.268005 0.151794 0.173340
0.272919 0.151947 0.172821
0.277802 0.151947 0.171844
0.282715 0.151947 0.170868
0.286804 0.152832 0.171631
0.293335 0.154663 0.174286
0.300293 0.156616 0.177246
0.307220 0.158569 0.180176
0.313202 0.159729 0.179596
0.317352 0.161560 0.178589
0.321289 0.163544 0.177612
0.325226 0.165497 0.176636
0.330963 0.168365 0.179291
0.337738 0.171356 0.180450
0.344604 0.174377 0.181427
0.351471 0.177399 0.182404
0.358398 0.181244 0.183380
0.363525 0.183380 0.185272
0.368500 0.185333 0.187256
0.373474 0.187286 0.189209
0.382141 0.191162 0.192108
0.390991 0.195068 0.194122
0.399811 0.199005 0.196106
0.408630 0.202911 0.198059
0.417542 0.205902 0.200012
0.426422 0.211670 0.204803
0.435333 0.217560 0.209717
0.444244 0.223450 0.214630
0.089996 0.151001 0.194061
0.095947 0.150024 0.192078
0.101898 0.149048 0.190125
0.107849 0.149017 0.188171
0.113800 0.148987 0.186218
0.119690 0.148010 0.184235
0.125580 0.147034 0.182281
0.128510 0.146057 0.182281
0.131622 0.145111 0.182312
0.138489 0.145111 0.183289
0.145355 0.145111 0.184265
0.152222 0.145111 0.184265
0.158875 0.145111 0.184265
0.161896 0.145111 0.184265
0.164886 0.145081 0.184235
0.167908 0.144104 0.183228
0.171051 0.143097 0.182190
0.175964 0.142120 0.180206
0.181000 0.141144 0.178253
0.187866 0.140167 0.176300
0.194641 0.139374 0.174622
0.200531 0.140350 0.175598
0.206238 0.141327 0.176361
0.210175 0.142334 0.174377
0.214355 0.143311 0.172668
0.220306 0.144287 0.172668
0.226044 0.145355 0.172760
0.229980 0.147308 0.173737
0.233765 0.148743 0.174316
0.236725 0.146790 0.172272
0.239777 0.144928 0.170258
0.243774 0.143951 0.168304
0.247894 0.143585 0.166809
0.251526 0.145752 0.167572
0.256348 0.148651 0.168610
0.260345 0.150726 0.169586
0.264221 0.152649 0.170532
0.268982 0.153778 0.172363
0.273895 0.154755 0.174316
0.278778 0.154907 0.173798
0.283691 0.154907 0.172821
0.287811 0.155762 0.173584
0.291779 0.156738 0.174561
0.298309 0.158569 0.177246
0.305267 0.160553 0.180176
0.311249 0.161682 0.179596
0.317139 0.162720 0.178589
0.321289 0.164581 0.177612
0.325226 0.166534 0.176636
0.330963 0.169403 0.179291
0.336823 0.172363 0.182220
0.343597 0.175354 0.183380
0.350494 0.178375 0.184387
0.357422 0.182251 0.185364
0.364349 0.186157 0.186340
0.369476 0.188293 0.188232
0.374451 0.190247 0.190186
0.383118 0.194092 0.193085
0.391968 0.198029 0.196045
0.400787 0.201935 0.198059
0.409637 0.205872 0.200012
0.418518 0.208832 0.201996
0.427429 0.211761 0.203949
0.436310 0.217560 0.208740
0.445221 0.223450 0.213654
0.086060 0.153931 0.191101
0.092010 0.152954 0.189148
0.097961 0.151978 0.187195
0.103912 0.151001 0.185211
0.109863 0.150970 0.183258
0.115753 0.149963 0.181305
0.121643 0.148987 0.179321
0.127533 0.148010 0.177368
0.130646 0.147064 0.177399
0.137512 0.147064 0.178406
0.144379 0.147064 0.179382
0.151245 0.147064 0.180328
0.157898 0.147064 0.180328
0.160889 0.147064 0.180328
0.163910 0.147064 0.180328
0.166931 0.147034 0.180298
0.170074 0.146057 0.179230
0.174988 0.145081 0.177277
0.179901 0.144104 0.175323
0.184906 0.143097 0.173340
0.191681 0.142334 0.171661
0.197571 0.143311 0.172668
0.203461 0.144287 0.173645
0.209198 0.145264 0.174377
0.213348 0.146240 0.172668
0.219299 0.147217 0.172668
0.225281 0.148193 0.172668
0.231018 0.149292 0.172760
0.234802 0.150696 0.173309
0.237762 0.148743 0.171295
0.240692 0.146790 0.169281
0.243774 0.144928 0.167236
0.247894 0.144562 0.165741
0.251526 0.146729 0.166534
0.256348 0.149628 0.167542
0.261169 0.152527 0.168579
0.265198 0.154633 0.169556
0.269958 0.155731 0.171387
0.274872 0.156708 0.173340
0.279785 0.157684 0.175323
0.284668 0.157837 0.174805
0.288788 0.158722 0.175537
0.292755 0.159698 0.176514
0.296753 0.160675 0.177490
0.303284 0.162506 0.180176
0.309296 0.163635 0.179596
0.315186 0.164703 0.178589
0.321045 0.165741 0.177612
0.325226 0.167603 0.176636
0.330963 0.170471 0.179291
0.336823 0.173401 0.182220
0.342712 0.176361 0.185150
0.349487 0.179352 0.186340
0.356445 0.183228 0.187317
0.363373 0.187134 0.188293
0.370300 0.191071 0.189270
0.375427 0.193176 0.191162
0.384094 0.197052 0.194061
0.392944 0.200958 0.197021
0.401764 0.204895 0.199951
0.410614 0.208801 0.201996
0.419495 0.211761 0.203949
0.428406 0.214722 0.205902
0.437286 0.217651 0.207855
0.446198 0.223450 0.212677
0.082367 0.156891 0.188171
0.088196 0.155945 0.186249
0.094147 0.154968 0.184265
0.100128 0.153992 0.182312
0.106079 0.153015 0.180389
0.111969 0.152069 0.178467
0.117828 0.151062 0.176514
0.123718 0.150085 0.174530
0.129578 0.149078 0.172485
0.136444 0.149078 0.173492
0.143311 0.149078 0.174469
0.150177 0.149078 0.175446
0.156952 0.149078 0.176392
0.159943 0.149078 0.176392
0.162964 0.149078 0.176392
0.165985 0.149078 0.176392
0.169159 0.149048 0.176361
0.174072 0.148041 0.174408
0.178986 0.147064 0.172455
0.183899 0.146088 0.170471
0.188812 0.145264 0.168793
0.194702 0.146240 0.169800
0.200592 0.147217 0.170776
0.206482 0.148193 0.171753
0.212250 0.149109 0.172607
0.218201 0.150085 0.172607
0.224182 0.151062 0.172607
0.230133 0.152069 0.172607
0.235809 0.152802 0.172455
0.238770 0.150818 0.170441
0.241699 0.148865 0.168396
0.244659 0.146912 0.166382
0.247925 0.145569 0.164795
0.251556 0.147766 0.165558
0.256378 0.150665 0.166595
0.261200 0.153564 0.167603
0.266052 0.156464 0.168640
0.270874 0.157684 0.170441
0.275757 0.158691 0.172394
0.280670 0.159668 0.174377
0.285583 0.160645 0.176331
0.289795 0.161652 0.177399
0.293793 0.162628 0.178375
0.297791 0.163635 0.179352
0.301758 0.164612 0.180328
0.307465 0.165649 0.179596
0.313354 0.166687 0.178589
0.319244 0.167725 0.177612
0.325134 0.168793 0.176636
0.331024 0.171570 0.179321
0.336914 0.174530 0.182251
0.342804 0.177460 0.185211
0.348694 0.180420 0.188141
0.355530 0.184265 0.189270
0.362457 0.188202 0.190277
0.369385 0.192139 0.191254
0.376343 0.196045 0.192230
0.385101 0.199982 0.195099
0.393921 0.203918 0.198029
0.402740 0.207825 0.200989
0.411591 0.211761 0.203918
0.420441 0.214813 0.205902
0.429352 0.217743 0.207855
0.438232 0.220673 0.209839
0.447144 0.223633 0.211792
0.084320 0.159912 0.185211
0.087341 0.159912 0.184235
0.093170 0.158966 0.182312
0.099121 0.157959 0.180359
0.105072 0.157013 0.178436
0.110962 0.157013 0.178436
0.116852 0.156036 0.176514
0.122742 0.155060 0.174530
0.128601 0.154053 0.172485
0.133514 0.152008 0.168518
0.140381 0.152008 0.169495
0.147247 0.152008 0.170471
0.154053 0.152008 0.171448
0.159943 0.152008 0.172424
0.162964 0.152008 0.172424
0.165985 0.152008 0.172424
0.169220 0.152008 0.172485
0.175049 0.151978 0.173370
0.179962 0.151001 0.171387
0.184875 0.150024 0.169434
0.189697 0.149139 0.167755
0.193726 0.149200 0.168793
0.199615 0.150177 0.169800
0.205505 0.151154 0.170776
0.211029 0.151917 0.171631
0.214233 0.151062 0.171631
0.220184 0.152069 0.171631
0.226135 0.153046 0.171631
0.232208 0.154144 0.171783
0.238770 0.155731 0.172455
0.241699 0.153778 0.170441
0.244659 0.151794 0.168396
0.248047 0.150146 0.166687
0.252380 0.150146 0.166687
0.257355 0.152618 0.167572
0.262207 0.155518 0.168610
0.267029 0.158417 0.169617
0.270233 0.159729 0.170624
0.274780 0.160706 0.172394
0.279694 0.161682 0.174377
0.284607 0.162659 0.176331
0.291290 0.164520 0.176575
0.295746 0.165649 0.177399
0.299744 0.166626 0.178375
0.303741 0.167603 0.179352
0.309448 0.168610 0.179443
0.315338 0.169647 0.178589
0.321198 0.170685 0.177612
0.327087 0.171722 0.176636
0.332977 0.174530 0.180176
0.338867 0.177460 0.183228
0.344757 0.180420 0.186188
0.350647 0.183350 0.189117
0.356598 0.187225 0.191162
0.363434 0.191162 0.192230
0.370361 0.195068 0.193207
0.377319 0.199005 0.194183
0.386078 0.202911 0.197052
0.394897 0.206848 0.200012
0.403748 0.210785 0.202942
0.412567 0.214691 0.205902
0.420502 0.219666 0.207855
0.429352 0.222717 0.209839
0.438232 0.225647 0.211792
0.447144 0.228607 0.213745
0.086304 0.162903 0.182281
0.089294 0.162903 0.181305
0.092316 0.162903 0.180328
0.098145 0.161957 0.178406
0.104095 0.161011 0.176453
0.109985 0.161011 0.176453
0.115875 0.161011 0.176453
0.121765 0.160034 0.174530
0.127625 0.159027 0.172485
0.132538 0.156982 0.168518
0.137421 0.154968 0.164520
0.144287 0.154968 0.165497
0.151123 0.154968 0.166473
0.157074 0.154968 0.167450
0.162964 0.154968 0.168427
0.165985 0.154968 0.168427
0.169220 0.154968 0.168488
0.175110 0.154968 0.169495
0.180939 0.154938 0.170349
0.185852 0.153931 0.168396
0.190674 0.153046 0.166718
0.194580 0.153046 0.167755
0.198639 0.153107 0.168793
0.204529 0.154083 0.169800
0.210052 0.154846 0.170654
0.213013 0.153870 0.170654
0.216187 0.153046 0.170654
0.222137 0.154022 0.170654
0.228241 0.155121 0.170776
0.235168 0.157104 0.171783
0.241699 0.158691 0.172455
0.244659 0.156708 0.170441
0.248047 0.155060 0.168732
0.252380 0.155060 0.168732
0.258179 0.155060 0.168732
0.263184 0.157471 0.169586
0.268005 0.160370 0.170624
0.271210 0.161682 0.171600
0.274139 0.162720 0.172577
0.278717 0.163727 0.174377
0.283630 0.164703 0.176331
0.290314 0.166534 0.176575
0.297241 0.168518 0.176575
0.301697 0.169647 0.177399
0.305695 0.170624 0.178375
0.311401 0.171600 0.178467
0.317291 0.172577 0.178467
0.323181 0.173615 0.177612
0.329071 0.174683 0.176636
0.334961 0.177460 0.180176
0.340851 0.180420 0.184113
0.346741 0.183350 0.187164
0.352631 0.186310 0.190125
0.358551 0.190155 0.192139
0.364532 0.194092 0.194092
0.371368 0.198029 0.195160
0.378296 0.201935 0.196136
0.387054 0.205872 0.199005
0.395874 0.209808 0.201965
0.404724 0.213715 0.204895
0.413544 0.217651 0.207855
0.421478 0.222595 0.209839
0.429413 0.227570 0.211792
0.438232 0.230621 0.213745
0.447144 0.233582 0.215729
0.088257 0.165924 0.179321
0.091278 0.165924 0.178345
0.094269 0.165924 0.177368
0.097290 0.165924 0.176392
0.103119 0.164978 0.174500
0.109009 0.164978 0.174500
0.114899 0.164978 0.174500
0.120789 0.164978 0.174500
0.126648 0.164001 0.172485
0.131531 0.161957 0.168518
0.136444 0.159943 0.164520
0.141357 0.157898 0.160522
0.148163 0.157898 0.161499
0.154114 0.157898 0.162506
0.160065 0.157898 0.163483
0.165985 0.157898 0.164429
0.169220 0.157898 0.164520
0.175110 0.157898 0.165497
0.181000 0.157898 0.166473
0.186829 0.157867 0.167328
0.191650 0.156982 0.165680
0.195587 0.156982 0.166718
0.199493 0.156982 0.167755
0.203552 0.157043 0.168793
0.209076 0.157776 0.169678
0.212036 0.156799 0.169678
0.214966 0.155823 0.169678
0.218140 0.154999 0.169678
0.224243 0.156128 0.169800
0.231171 0.158081 0.170776
0.238098 0.160034 0.171783
0.244659 0.161621 0.172455
0.248047 0.159973 0.170746
0.252380 0.159973 0.170746
0.258179 0.159973 0.170746
0.263977 0.159973 0.170746
0.268982 0.162354 0.171600
0.272186 0.163635 0.172577
0.275146 0.164673 0.173553
0.278076 0.165741 0.174530
0.282654 0.166718 0.176331
0.289337 0.168579 0.176575
0.296265 0.170532 0.176575
0.303223 0.172485 0.176575
0.307648 0.173645 0.177399
0.313354 0.174622 0.177490
0.319244 0.175598 0.177490
0.325134 0.176575 0.177490
0.331024 0.177612 0.176636
0.336914 0.180420 0.180176
0.342804 0.183350 0.184113
0.348694 0.186310 0.188019
0.354584 0.189240 0.191101
0.360535 0.193115 0.193115
0.366486 0.197052 0.195068
0.372437 0.200958 0.197052
0.379272 0.204895 0.198120
0.388031 0.208801 0.200989
0.396851 0.212738 0.203918
0.405701 0.216675 0.206879
0.414520 0.220581 0.209808
0.422455 0.225555 0.211792
0.430389 0.230499 0.213745
0.438293 0.235474 0.215729
0.447144 0.238556 0.217682
0.090149 0.168976 0.176514
0.093048 0.168915 0.175476
0.096069 0.168915 0.174469
0.099060 0.168915 0.173492
0.102142 0.168945 0.172485
0.108032 0.168976 0.172424
0.113922 0.168976 0.172424
0.119812 0.168976 0.172424
0.125610 0.168945 0.172394
0.130493 0.166931 0.168457
0.135406 0.164917 0.164459
0.140320 0.162872 0.160461
0.145325 0.160919 0.156708
0.151306 0.160919 0.157684
0.157257 0.160919 0.158691
0.163208 0.160919 0.159668
0.169037 0.160858 0.160583
0.174927 0.160858 0.161560
0.180817 0.160858 0.162537
0.186707 0.160858 0.163513
0.192627 0.160858 0.164581
0.196564 0.160858 0.165619
0.200470 0.160858 0.166656
0.204407 0.160858 0.167694
0.208282 0.160858 0.168701
0.211212 0.159882 0.168701
0.214172 0.158905 0.168701
0.217102 0.157898 0.168701
0.220428 0.157166 0.168823
0.227356 0.159119 0.169800
0.234283 0.161072 0.170776
0.241211 0.163055 0.171783
0.247986 0.164886 0.172699
0.252350 0.164886 0.172699
0.258118 0.164886 0.172699
0.263916 0.164886 0.172699
0.269714 0.164886 0.172699
0.273163 0.165771 0.173553
0.276123 0.166809 0.174530
0.279053 0.167877 0.175537
0.282013 0.168915 0.176514
0.288422 0.170654 0.176575
0.295349 0.172607 0.176575
0.302277 0.174591 0.176575
0.309204 0.176544 0.176575
0.315216 0.177795 0.176727
0.321106 0.178772 0.176727
0.326996 0.179749 0.176727
0.332886 0.180725 0.176727
0.338867 0.183411 0.180115
0.344757 0.186371 0.184052
0.350647 0.189301 0.187988
0.356537 0.192230 0.191895
0.362549 0.196106 0.194031
0.368500 0.200043 0.195984
0.374451 0.203949 0.197968
0.380402 0.207886 0.199921
0.389069 0.211823 0.202881
0.397888 0.215729 0.205841
0.406738 0.219666 0.208771
0.415558 0.223602 0.211731
0.423431 0.228485 0.213745
0.431366 0.233459 0.215729
0.439270 0.238434 0.217682
0.447205 0.243408 0.219635
0.091156 0.172913 0.175537
0.092133 0.171936 0.173492
0.095001 0.171875 0.172455
0.098022 0.171875 0.171478
0.101105 0.171875 0.170471
0.107056 0.172852 0.168518
0.112946 0.172913 0.168427
0.118835 0.172913 0.168427
0.124634 0.172852 0.168396
0.128571 0.171875 0.167419
0.133453 0.169891 0.163483
0.138367 0.167847 0.159485
0.143372 0.165894 0.155731
0.150238 0.164886 0.155731
0.156189 0.164886 0.156708
0.162140 0.164917 0.157684
0.167938 0.164825 0.158600
0.171967 0.163849 0.158630
0.177856 0.163849 0.159607
0.183746 0.163849 0.160583
0.189850 0.163849 0.161652
0.197540 0.163849 0.163574
0.201447 0.163849 0.164642
0.205383 0.163849 0.165680
0.209320 0.163971 0.166718
0.213165 0.164856 0.167633
0.216125 0.163849 0.167633
0.219055 0.162872 0.167633
0.222168 0.161896 0.167786
0.226379 0.161163 0.168823
0.233307 0.163116 0.169800
0.240234 0.165070 0.170776
0.247009 0.167175 0.171906
0.251343 0.169373 0.173370
0.257141 0.169861 0.173706
0.262939 0.169861 0.173706
0.268738 0.169861 0.173706
