custom_nodes/comfyui-vrgamedevgirl/LUTS/Dark_Vivid_Cinematic.cube
#Created by: Adobe Photoshop Export Color Lookup Plugin
#Copyright: (C) Copyright 2017 PremiumBeat
TITLE "Loch Ness"
#LUT size
LUT_3D_SIZE 8
#data domain
DOMAIN_MIN 0.0 0.0 0.0
DOMAIN_MAX 1.0 1.0 1.0
#LUT data points
0.000000 0.000000 0.000000
0.000000 0.000000 0.000000
0.086151 0.000000 0.000000
0.233582 0.000000 0.000000
0.414581 0.000000 0.000000
0.583008 0.000000 0.000000
0.727020 0.000000 0.000000
0.769409 0.000000 0.000000
0.000000 0.000000 0.000000
0.000000 0.000000 0.000000
0.086151 0.000000 0.000000
0.233582 0.000000 0.000000
0.414581 0.000000 0.000000
0.583008 0.000000 0.000000
0.727020 0.000000 0.000000
0.769409 0.000000 0.000000
0.000000 0.086151 0.000000
0.000000 0.086151 0.000000
0.086151 0.086151 0.000000
0.233582 0.086182 0.000000
0.414581 0.086121 0.000000
0.583008 0.086121 0.000000
0.727020 0.086090 0.000000
0.769409 0.086212 0.000000
0.000000 0.233582 0.000000
0.000000 0.233582 0.000000
0.086182 0.233582 0.000000
0.233582 0.233582 0.000000
0.414581 0.233612 0.000000
0.583008 0.233582 0.000000
0.727020 0.233582 0.000000
0.769409 0.233490 0.000000
0.000000 0.414581 0.000000
0.000000 0.414581 0.000000
0.086121 0.414581 0.000000
0.233612 0.414581 0.000000
0.414581 0.414581 0.000000
0.583008 0.414612 0.000000
0.727020 0.414642 0.000000
0.769409 0.414581 0.000000
0.000000 0.583008 0.000000
0.000000 0.583008 0.000000
0.086121 0.583008 0.000000
0.233582 0.583008 0.000000
0.414612 0.583008 0.000000
0.583008 0.583008 0.000000
0.727020 0.583069 0.000000
0.769409 0.583069 0.000000
0.000000 0.727020 0.000000
0.000000 0.727020 0.000000
0.086090 0.727020 0.000000
0.233582 0.727020 0.000000
0.414642 0.727020 0.000000
0.583069 0.727020 0.000000
0.727020 0.727020 0.000000
0.769409 0.726959 0.000000
0.000000 0.769409 0.000000
0.000000 0.769409 0.000000
0.086212 0.769409 0.000000
0.233490 0.769409 0.000000
0.414581 0.769409 0.000000
0.583069 0.769409 0.000000
0.726959 0.769409 0.000000
0.769409 0.769409 0.000000
0.000000 0.000000 0.000000
0.000000 0.000000 0.000000
0.086151 0.000000 0.000000
0.233582 0.000000 0.000000
0.414581 0.000000 0.000000
0.583008 0.000000 0.000000
0.727020 0.000000 0.000000
0.769409 0.000000 0.000000
0.000000 0.000000 0.000000
0.000000 0.000000 0.000000
0.086151 0.000000 0.000000
0.233582 0.000000 0.000000
0.414581 0.000000 0.000000
0.583008 0.000000 0.000000
0.727020 0.000000 0.000000
0.769409 0.000000 0.000000
0.000000 0.086151 0.000000
0.000000 0.086151 0.000000
0.086151 0.086151 0.000000
0.233582 0.086182 0.000000
0.414581 0.086121 0.000000
0.583008 0.086121 0.000000
0.727020 0.086090 0.000000
0.769409 0.086212 0.000000
0.000000 0.233582 0.000000
0.000000 0.233582 0.000000
0.086182 0.233582 0.000000
0.233582 0.233582 0.000000
0.414581 0.233612 0.000000
0.583008 0.233582 0.000000
0.727020 0.233582 0.000000
0.769409 0.233490 0.000000
0.000000 0.414581 0.000000
0.000000 0.414581 0.000000
0.086121 0.414581 0.000000
0.233612 0.414581 0.000000
0.414581 0.414581 0.000000
0.583008 0.414612 0.000000
0.727020 0.414642 0.000000
0.769409 0.414581 0.000000
0.000000 0.583008 0.000000
0.000000 0.583008 0.000000
0.086121 0.583008 0.000000
0.233582 0.583008 0.000000
0.414612 0.583008 0.000000
0.583008 0.583008 0.000000
0.727020 0.583069 0.000000
0.769409 0.583069 0.000000
0.000000 0.727020 0.000000
0.000000 0.727020 0.000000
0.086090 0.727020 0.000000
0.233582 0.727020 0.000000
0.414642 0.727020 0.000000
0.583069 0.727020 0.000000
0.727020 0.727020 0.000000
0.769409 0.726959 0.000000
0.000000 0.769409 0.000000
0.000000 0.769409 0.000000
0.086212 0.769409 0.000000
0.233490 0.769409 0.000000
0.414581 0.769409 0.000000
0.583069 0.769409 0.000000
0.726959 0.769409 0.000000
0.769409 0.769409 0.000000
0.000000 0.000000 0.086151
0.000000 0.000000 0.086151
0.086151 0.000000 0.086151
0.233582 0.000000 0.086182
0.414581 0.000000 0.086121
0.583008 0.000000 0.086121
0.727020 0.000000 0.086090
0.769409 0.000000 0.086212
0.000000 0.000000 0.086151
0.000000 0.000000 0.086151
0.086151 0.000000 0.086151
0.233582 0.000000 0.086182
0.414581 0.000000 0.086121
0.583008 0.000000 0.086121
0.727020 0.000000 0.086090
0.769409 0.000000 0.086212
0.000000 0.086151 0.086151
0.000000 0.086151 0.086151
0.086151 0.086151 0.086151
0.233582 0.086151 0.086151
0.414581 0.086151 0.086151
0.583008 0.086151 0.086151
0.727020 0.086151 0.086151
0.769409 0.086151 0.086151
0.000000 0.233582 0.086182
0.000000 0.233582 0.086182
0.086151 0.233582 0.086151
0.233582 0.233582 0.086151
0.414581 0.233612 0.086151
0.583008 0.233521 0.086151
0.727020 0.233551 0.086151
0.769409 0.233612 0.086151
0.000000 0.414581 0.086121
0.000000 0.414581 0.086121
0.086151 0.414581 0.086151
0.233612 0.414581 0.086151
0.414581 0.414581 0.086151
0.583008 0.414642 0.086151
0.727020 0.414551 0.086151
0.769409 0.414612 0.086151
0.000000 0.583008 0.086121
0.000000 0.583008 0.086121
0.086151 0.583008 0.086151
0.233521 0.583008 0.086151
0.414642 0.583008 0.086151
0.583008 0.583008 0.086151
0.727020 0.583069 0.086151
0.769409 0.583069 0.086151
0.000000 0.727020 0.086090
0.000000 0.727020 0.086090
0.086151 0.727020 0.086151
0.233551 0.727020 0.086151
0.414551 0.727020 0.086151
0.583069 0.727020 0.086151
0.727020 0.727020 0.086151
0.769409 0.727051 0.086151
0.000000 0.769409 0.086212
0.000000 0.769409 0.086212
0.086151 0.769409 0.086151
0.233612 0.769409 0.086151
0.414612 0.769409 0.086151
0.583069 0.769409 0.086151
0.727051 0.769409 0.086151
0.769409 0.769409 0.086151
0.000000 0.000000 0.233582
0.000000 0.000000 0.233582
0.086182 0.000000 0.233582
0.233582 0.000000 0.233582
0.414581 0.000000 0.233612
0.583008 0.000000 0.233582
0.727020 0.000000 0.233582
0.769409 0.000000 0.233490
0.000000 0.000000 0.233582
0.000000 0.000000 0.233582
0.086182 0.000000 0.233582
0.233582 0.000000 0.233582
0.414581 0.000000 0.233612
0.583008 0.000000 0.233582
0.727020 0.000000 0.233582
0.769409 0.000000 0.233490
0.000000 0.086182 0.233582
0.000000 0.086182 0.233582
0.086151 0.086151 0.233582
0.233582 0.086151 0.233582
0.414581 0.086151 0.233612
0.583008 0.086151 0.233521
0.727020 0.086151 0.233551
0.769409 0.086151 0.233612
0.000000 0.233582 0.233582
0.000000 0.233582 0.233582
0.086151 0.233582 0.233582
0.233582 0.233582 0.233582
0.414581 0.233582 0.233582
0.583008 0.233582 0.233582
0.727020 0.233582 0.233582
0.769409 0.233582 0.233582
0.000000 0.414581 0.233612
0.000000 0.414581 0.233612
0.086151 0.414581 0.233612
0.233582 0.414581 0.233582
0.414581 0.414581 0.233582
0.583008 0.414612 0.233582
0.727020 0.414520 0.233582
0.769409 0.414642 0.233582
0.000000 0.583008 0.233582
0.000000 0.583008 0.233582
0.086151 0.583008 0.233521
0.233582 0.583008 0.233582
0.414612 0.583008 0.233582
0.583008 0.583008 0.233582
0.727020 0.583069 0.233582
0.769409 0.583008 0.233582
0.000000 0.727020 0.233582
0.000000 0.727020 0.233582
0.086151 0.727020 0.233551
0.233582 0.727020 0.233582
0.414520 0.727020 0.233582
0.583069 0.727020 0.233582
0.727020 0.727020 0.233582
0.769409 0.727020 0.233582
0.000000 0.769409 0.233490
0.000000 0.769409 0.233490
0.086151 0.769409 0.233612
0.233582 0.769409 0.233582
0.414642 0.769409 0.233582
0.583008 0.769409 0.233582
0.727020 0.769409 0.233582
0.769409 0.769409 0.233582
0.000000 0.000000 0.414581
0.000000 0.000000 0.414581
0.086121 0.000000 0.414581
0.233612 0.000000 0.414581
0.414581 0.000000 0.414581
0.583008 0.000000 0.414612
0.727020 0.000000 0.414642
0.769409 0.000000 0.414581
0.000000 0.000000 0.414581
0.000000 0.000000 0.414581
0.086121 0.000000 0.414581
0.233612 0.000000 0.414581
0.414581 0.000000 0.414581
0.583008 0.000000 0.414612
0.727020 0.000000 0.414642
0.769409 0.000000 0.414581
0.000000 0.086121 0.414581
0.000000 0.086121 0.414581
0.086151 0.086151 0.414581
0.233612 0.086151 0.414581
0.414581 0.086151 0.414581
0.583008 0.086151 0.414642
0.727020 0.086151 0.414551
0.769409 0.086151 0.414612
0.000000 0.233612 0.414581
0.000000 0.233612 0.414581
0.086151 0.233612 0.414581
0.233582 0.233582 0.414581
0.414581 0.233582 0.414581
0.583008 0.233582 0.414612
0.727020 0.233582 0.414520
0.769409 0.233582 0.414642
0.000000 0.414581 0.414581
0.000000 0.414581 0.414581
0.086151 0.414581 0.414581
0.233582 0.414581 0.414581
0.414581 0.414581 0.414581
0.583008 0.414581 0.414581
0.727020 0.414581 0.414581
0.769409 0.414581 0.414581
0.000000 0.583008 0.414612
0.000000 0.583008 0.414612
0.086151 0.583008 0.414642
0.233582 0.583008 0.414612
0.414581 0.583008 0.414581
0.583008 0.583008 0.414581
0.727020 0.583008 0.414581
0.769409 0.582977 0.414581
0.000000 0.727020 0.414642
0.000000 0.727020 0.414642
0.086151 0.727020 0.414551
0.233582 0.727020 0.414520
0.414581 0.727020 0.414581
0.583008 0.727020 0.414581
0.727020 0.727020 0.414581
0.769409 0.727051 0.414581
0.000000 0.769409 0.414581
0.000000 0.769409 0.414581
0.086151 0.769409 0.414612
0.233582 0.769409 0.414642
0.414581 0.769409 0.414581
0.582977 0.769409 0.414581
0.727051 0.769409 0.414581
0.769409 0.769409 0.414581
0.000000 0.000000 0.583008
0.000000 0.000000 0.583008
0.086121 0.000000 0.583008
0.233582 0.000000 0.583008
0.414612 0.000000 0.583008
0.583008 0.000000 0.583008
0.727020 0.000000 0.583069
0.769409 0.000000 0.583069
0.000000 0.000000 0.583008
0.000000 0.000000 0.583008
0.086121 0.000000 0.583008
0.233582 0.000000 0.583008
0.414612 0.000000 0.583008
0.583008 0.000000 0.583008
0.727020 0.000000 0.583069
0.769409 0.000000 0.583069
0.000000 0.086121 0.583008
0.000000 0.086121 0.583008
0.086151 0.086151 0.583008
0.233521 0.086151 0.583008
0.414642 0.086151 0.583008
0.583008 0.086151 0.583008
0.727020 0.086151 0.583069
0.769409 0.086151 0.583069
0.000000 0.233582 0.583008
0.000000 0.233582 0.583008
0.086151 0.233521 0.583008
0.233582 0.233582 0.583008
0.414612 0.233582 0.583008
0.583008 0.233582 0.583008
0.727020 0.233582 0.583069
0.769409 0.233582 0.583008
0.000000 0.414612 0.583008
0.000000 0.414612 0.583008
0.086151 0.414642 0.583008
0.233582 0.414612 0.583008
0.414581 0.414581 0.583008
0.583008 0.414581 0.583008
0.727020 0.414581 0.583008
0.769409 0.414581 0.582977
0.000000 0.583008 0.583008
0.000000 0.583008 0.583008
0.086151 0.583008 0.583008
0.233582 0.583008 0.583008
0.414581 0.583008 0.583008
0.583008 0.583008 0.583008
0.727020 0.583008 0.583008
0.769409 0.583008 0.583008
0.000000 0.727020 0.583069
0.000000 0.727020 0.583069
0.086151 0.727020 0.583069
0.233582 0.727020 0.583069
0.414581 0.727020 0.583008
0.583008 0.727020 0.583008
0.727020 0.727020 0.583008
0.769409 0.727051 0.583008
0.000000 0.769409 0.583069
0.000000 0.769409 0.583069
0.086151 0.769409 0.583069
0.233582 0.769409 0.583008
0.414581 0.769409 0.582977
0.583008 0.769409 0.583008
0.727051 0.769409 0.583008
0.769409 0.769409 0.583008
0.000000 0.000000 0.727020
0.000000 0.000000 0.727020
0.086090 0.000000 0.727020
0.233582 0.000000 0.727020
0.414642 0.000000 0.727020
0.583069 0.000000 0.727020
0.727020 0.000000 0.727020
0.769409 0.000000 0.726959
0.000000 0.000000 0.727020
0.000000 0.000000 0.727020
0.086090 0.000000 0.727020
0.233582 0.000000 0.727020
0.414642 0.000000 0.727020
0.583069 0.000000 0.727020
0.727020 0.000000 0.727020
0.769409 0.000000 0.726959
0.000000 0.086090 0.727020
0.000000 0.086090 0.727020
0.086151 0.086151 0.727020
0.233551 0.086151 0.727020
0.414551 0.086151 0.727020
0.583069 0.086151 0.727020
0.727020 0.086151 0.727020
0.769409 0.086151 0.727051
0.000000 0.233582 0.727020
0.000000 0.233582 0.727020
0.086151 0.233551 0.727020
0.233582 0.233582 0.727020
0.414520 0.233582 0.727020
0.583069 0.233582 0.727020
0.727020 0.233582 0.727020
0.769409 0.233582 0.727020
0.000000 0.414642 0.727020
0.000000 0.414642 0.727020
0.086151 0.414551 0.727020
0.233582 0.414520 0.727020
0.414581 0.414581 0.727020
0.583008 0.414581 0.727020
0.727020 0.414581 0.727020
0.769409 0.414581 0.727051
0.000000 0.583069 0.727020
0.000000 0.583069 0.727020
0.086151 0.583069 0.727020
0.233582 0.583069 0.727020
0.414581 0.583008 0.727020
0.583008 0.583008 0.727020
0.727020 0.583008 0.727020
0.769409 0.583008 0.727051
0.000000 0.727020 0.727020
0.000000 0.727020 0.727020
0.086151 0.727020 0.727020
0.233582 0.727020 0.727020
0.414581 0.727020 0.727020
0.583008 0.727020 0.727020
0.727020 0.727020 0.727020
0.769409 0.727020 0.727020
0.000000 0.769409 0.726959
0.000000 0.769409 0.726959
0.086151 0.769409 0.727051
0.233582 0.769409 0.727020
0.414581 0.769409 0.727051
0.583008 0.769409 0.727051
0.727020 0.769409 0.727020
0.769409 0.769409 0.727020
0.000000 0.000000 0.769409
0.000000 0.000000 0.769409
0.086212 0.000000 0.769409
0.233490 0.000000 0.769409
0.414581 0.000000 0.769409
0.583069 0.000000 0.769409
0.726959 0.000000 0.769409
0.769409 0.000000 0.769409
0.000000 0.000000 0.769409
0.000000 0.000000 0.769409
0.086212 0.000000 0.769409
0.233490 0.000000 0.769409
0.414581 0.000000 0.769409
0.583069 0.000000 0.769409
0.726959 0.000000 0.769409
0.769409 0.000000 0.769409
0.000000 0.086212 0.769409
0.000000 0.086212 0.769409
0.086151 0.086151 0.769409
0.233612 0.086151 0.769409
0.414612 0.086151 0.769409
0.583069 0.086151 0.769409
0.727051 0.086151 0.769409
0.769409 0.086151 0.769409
0.000000 0.233490 0.769409
0.000000 0.233490 0.769409
0.086151 0.233612 0.769409
0.233582 0.233582 0.769409
0.414642 0.233582 0.769409
0.583008 0.233582 0.769409
0.727020 0.233582 0.769409
0.769409 0.233582 0.769409
0.000000 0.414581 0.769409
0.000000 0.414581 0.769409
0.086151 0.414612 0.769409
0.233582 0.414642 0.769409
0.414581 0.414581 0.769409
0.582977 0.414581 0.769409
0.727051 0.414581 0.769409
0.769409 0.414581 0.769409
0.000000 0.583069 0.769409
0.000000 0.583069 0.769409
0.086151 0.583069 0.769409
0.233582 0.583008 0.769409
0.414581 0.582977 0.769409
0.583008 0.583008 0.769409
0.727051 0.583008 0.769409
0.769409 0.583008 0.769409
0.000000 0.726959 0.769409
0.000000 0.726959 0.769409
0.086151 0.727051 0.769409
0.233582 0.727020 0.769409
0.414581 0.727051 0.769409
0.583008 0.727051 0.769409
0.727020 0.727020 0.769409
0.769409 0.727020 0.769409
0.000000 0.769409 0.769409
0.000000 0.769409 0.769409
0.086151 0.769409 0.769409
0.233582 0.769409 0.769409
0.414581 0.769409 0.769409
0.583008 0.769409 0.769409
0.727020 0.769409 0.769409
0.769409 0.769409 0.769409
