custom_nodes/comfyui-vrgamedevgirl/LUTS/Dark_Vivid_Magenta_Tint_Cinematic.cube
#Created by: Adobe Photoshop Export Color Lookup Plugin
#Copyright: (C) Copyright 2017 PremiumBeat
TITLE "Tahoe"
#LUT size
LUT_3D_SIZE 4
#data domain
DOMAIN_MIN 0.0 0.0 0.0
DOMAIN_MAX 1.0 1.0 1.0
#LUT data points
0.000000 0.000000 0.000000
0.193695 0.000000 0.000000
0.592896 0.000000 0.000031
0.951355 0.000000 0.000061
0.000000 0.177368 0.000000
0.187500 0.174255 0.000000
0.591309 0.143463 0.000031
0.950470 0.031921 0.000061
0.000000 0.575043 0.000000
0.106659 0.574280 0.000000
0.575073 0.567413 0.000000
0.941833 0.552765 0.000031
0.000000 0.933258 0.000000
0.000000 0.932831 0.000000
0.538239 0.929230 0.000000
0.923004 0.921600 0.000000
0.000000 0.000000 0.216675
0.193695 0.000000 0.214203
0.592896 0.000000 0.190399
0.951355 0.000000 0.125946
0.000000 0.177368 0.211212
0.185913 0.169403 0.211731
0.593872 0.115875 0.164825
0.951019 0.000000 0.071289
0.000000 0.575043 0.144928
0.041412 0.577271 0.099854
0.578278 0.570312 0.007172
0.942474 0.547302 0.000031
0.000000 0.933258 0.000000
0.000000 0.933350 0.000000
0.531799 0.929779 0.000000
0.923462 0.922028 0.000000
0.000000 0.000000 0.618744
0.193665 0.000000 0.618042
0.592896 0.000000 0.611816
0.951355 0.000000 0.598511
0.000000 0.177338 0.617218
0.163910 0.147919 0.619476
0.593567 0.108459 0.613037
0.951050 0.000000 0.593475
0.000000 0.575043 0.601898
0.041260 0.576294 0.604004
0.573425 0.563873 0.597717
0.944000 0.534821 0.565216
0.000000 0.933258 0.567291
0.000000 0.933350 0.561798
0.494080 0.932159 0.519562
0.925385 0.923859 0.499695
0.000000 0.000000 1.000000
0.193695 0.000000 1.000000
0.592896 0.000000 1.000000
0.951355 0.000000 1.000000
0.000000 0.177338 1.000000
0.161682 0.145874 1.000000
0.586975 0.106812 1.000000
0.950134 0.000000 1.000000
0.000000 0.575043 1.000000
0.040161 0.569061 1.000000
0.534271 0.525330 1.000000
0.938324 0.508087 1.000000
0.000000 0.933258 1.000000
0.000000 0.932312 1.000000
0.489990 0.924774 1.000000
0.919739 0.918274 1.000000
