custom_nodes/comfyui-vrgamedevgirl/LUTS/Dark_High_Contrast_Vivid_Cinematic_2.cube
#Created by: Adobe Photoshop Export Color Lookup Plugin
#Copyright: (C) Copyright 2017 PremiumBeat.com
TITLE "Phoenix"
#LUT size
LUT_3D_SIZE 64
#data domain
DOMAIN_MIN 0.0 0.0 0.0
DOMAIN_MAX 1.0 1.0 1.0
#LUT data points
0.002167 0.002167 0.002167
0.049408 0.029236 0.001251
0.074127 0.042389 0.001556
0.073853 0.039307 0.002563
0.068939 0.033112 0.003784
0.060547 0.024750 0.005585
0.054657 0.018005 0.007690
0.052948 0.015137 0.010712
0.059082 0.015167 0.013214
0.065460 0.015289 0.013306
0.071991 0.015411 0.013428
0.078674 0.015533 0.013519
0.085480 0.015656 0.013641
0.092407 0.015808 0.013763
0.099426 0.015961 0.013885
0.106445 0.016113 0.014008
0.113525 0.016296 0.014130
0.120575 0.016479 0.014252
0.127594 0.016632 0.014374
0.134491 0.016815 0.014496
0.141266 0.016998 0.014618
0.147888 0.017181 0.014709
0.154236 0.017365 0.014832
0.160309 0.017517 0.014923
0.166016 0.017700 0.015045
0.171295 0.017853 0.015137
0.176147 0.017975 0.015228
0.180634 0.018127 0.015289
0.184937 0.018280 0.015381
0.189117 0.018402 0.015442
0.193329 0.018524 0.015533
0.197784 0.018677 0.015594
0.202637 0.018829 0.015686
0.208130 0.019012 0.015778
0.214630 0.019226 0.015900
0.222321 0.019501 0.016052
0.231689 0.019806 0.016205
0.243103 0.020233 0.016418
0.257111 0.020752 0.016693
0.274231 0.021393 0.016998
0.295288 0.022217 0.017395
0.320618 0.023285 0.017853
0.350250 0.024597 0.018463
0.384155 0.026154 0.019104
0.421509 0.027954 0.019836
0.461426 0.029968 0.020660
0.502960 0.032166 0.021515
0.545288 0.034485 0.022400
0.587585 0.036865 0.023315
0.628754 0.039246 0.024200
0.668091 0.041595 0.025055
0.704498 0.043762 0.025879
0.737305 0.045807 0.026611
0.765625 0.047546 0.027252
0.789856 0.049042 0.027802
0.810425 0.050354 0.028290
0.827515 0.051392 0.028687
0.841644 0.052307 0.029022
0.852997 0.052979 0.029266
0.862030 0.053589 0.029510
0.869110 0.054047 0.029694
0.874512 0.054352 0.029785
0.878845 0.054626 0.029907
0.882935 0.054901 0.029999
0.064240 0.047363 0.001678
0.063812 0.044434 0.002563
0.058502 0.038269 0.003784
0.052887 0.031799 0.005127
0.045990 0.024628 0.007111
0.042175 0.020264 0.009979
0.047028 0.020264 0.013184
0.053040 0.020355 0.013275
0.059265 0.020477 0.013367
0.065674 0.020599 0.013489
0.072205 0.020752 0.013611
0.078888 0.020874 0.013702
0.085724 0.021027 0.013824
0.092682 0.021179 0.013947
0.099670 0.021332 0.014069
0.106720 0.021484 0.014191
0.113831 0.021667 0.014313
0.120880 0.021851 0.014435
0.127899 0.022034 0.014526
0.134796 0.022217 0.014648
0.141602 0.022400 0.014771
0.148224 0.022583 0.014893
0.154572 0.022766 0.015015
0.160675 0.022949 0.015106
0.166382 0.023132 0.015228
0.171661 0.023285 0.015320
0.176514 0.023438 0.015411
0.181061 0.023590 0.015472
0.185333 0.023712 0.015564
0.189514 0.023865 0.015625
0.193756 0.023987 0.015717
0.198212 0.024139 0.015778
0.203064 0.024292 0.015869
0.208557 0.024475 0.015961
0.215088 0.024719 0.016083
0.222778 0.024994 0.016235
0.232147 0.025330 0.016388
0.243591 0.025757 0.016632
0.257599 0.026276 0.016876
0.274780 0.026947 0.017181
0.295868 0.027832 0.017609
0.321228 0.028900 0.018097
0.350891 0.030212 0.018646
0.384796 0.031799 0.019318
0.422241 0.033630 0.020081
0.462158 0.035675 0.020874
0.503723 0.037872 0.021729
0.546082 0.040192 0.022644
0.588379 0.042603 0.023529
0.629608 0.045013 0.024414
0.668976 0.047363 0.025299
0.705383 0.049561 0.026123
0.738159 0.051605 0.026855
0.766510 0.053345 0.027496
0.790771 0.054840 0.028046
0.811340 0.056152 0.028534
0.828430 0.057190 0.028931
0.842560 0.058105 0.029266
0.853943 0.058838 0.029572
0.862946 0.059387 0.029755
0.870026 0.059845 0.029938
0.875427 0.060181 0.030060
0.879761 0.060455 0.030151
0.883850 0.060730 0.030273
0.047455 0.042755 0.003967
0.041229 0.036224 0.005341
0.034210 0.029266 0.007385
0.031982 0.025665 0.009613
0.035706 0.025665 0.012726
0.041351 0.025757 0.013275
0.047211 0.025848 0.013367
0.053253 0.025970 0.013458
0.059479 0.026093 0.013550
0.065887 0.026215 0.013672
0.072449 0.026367 0.013794
0.079163 0.026489 0.013885
0.085999 0.026642 0.014008
0.092957 0.026825 0.014130
0.099976 0.027008 0.014252
0.107025 0.027161 0.014374
0.114136 0.027374 0.014496
0.121216 0.027527 0.014618
0.128235 0.027740 0.014740
0.135162 0.027924 0.014862
0.141968 0.028107 0.014954
0.148590 0.028320 0.015106
0.154968 0.028503 0.015198
0.161072 0.028687 0.015320
0.166779 0.028870 0.015411
0.172089 0.029022 0.015503
0.176941 0.029205 0.015594
0.181488 0.029358 0.015686
0.185760 0.029480 0.015747
0.189972 0.029633 0.015839
0.194214 0.029755 0.015900
0.198669 0.029907 0.015991
0.203522 0.030090 0.016083
0.209045 0.030273 0.016174
0.215576 0.030518 0.016296
0.223297 0.030792 0.016449
0.232666 0.031128 0.016602
0.244141 0.031586 0.016815
0.258148 0.032104 0.017090
0.275330 0.032806 0.017395
0.296478 0.033691 0.017822
0.321869 0.034790 0.018311
0.351532 0.036133 0.018890
0.385529 0.037750 0.019562
0.423004 0.039612 0.020294
0.462952 0.041656 0.021118
0.504547 0.043884 0.021973
0.546936 0.046234 0.022858
0.589264 0.048676 0.023773
0.630493 0.051086 0.024689
0.669891 0.053467 0.025574
0.706299 0.055664 0.026367
0.739136 0.057709 0.027130
0.767456 0.059479 0.027771
0.791718 0.060974 0.028320
0.812286 0.062286 0.028809
0.829407 0.063324 0.029205
0.843536 0.064240 0.029572
0.854919 0.064972 0.029816
0.863922 0.065521 0.030029
0.871002 0.065979 0.030212
0.876404 0.066315 0.030334
0.880737 0.066589 0.030426
0.884796 0.066864 0.030548
0.022125 0.033478 0.007996
0.020721 0.031281 0.010345
0.025299 0.031281 0.013184
0.030487 0.031372 0.013275
0.035919 0.031464 0.013367
0.041565 0.031586 0.013458
0.047455 0.031708 0.013550
0.053497 0.031830 0.013641
0.059723 0.031952 0.013763
0.066162 0.032104 0.013855
0.072723 0.032227 0.013977
0.079437 0.032379 0.014099
0.086304 0.032562 0.014191
0.093262 0.032715 0.014313
0.100311 0.032898 0.014435
0.107391 0.033081 0.014557
0.114502 0.033264 0.014679
0.121582 0.033478 0.014832
0.128632 0.033691 0.014923
0.135559 0.033875 0.015045
0.142365 0.034088 0.015167
0.149017 0.034302 0.015289
0.155396 0.034485 0.015411
0.161530 0.034698 0.015533
0.167236 0.034851 0.015625
0.172546 0.035034 0.015717
0.177429 0.035217 0.015808
0.181946 0.035339 0.015900
0.186218 0.035492 0.015961
0.190430 0.035645 0.016022
0.194702 0.035797 0.016113
0.199158 0.035950 0.016205
0.204041 0.036133 0.016296
0.209564 0.036316 0.016388
0.216064 0.036560 0.016510
0.223785 0.036835 0.016632
0.233215 0.037201 0.016815
0.244659 0.037628 0.017029
0.258759 0.038208 0.017303
0.275970 0.038910 0.017639
0.297089 0.039795 0.018036
0.322510 0.040924 0.018524
0.352234 0.042297 0.019104
0.386230 0.043915 0.019775
0.423767 0.045807 0.020538
0.463745 0.047913 0.021362
0.505432 0.050201 0.022247
0.547852 0.052551 0.023132
0.590210 0.055023 0.024048
0.631470 0.057434 0.024933
0.670868 0.059845 0.025818
0.707306 0.062042 0.026642
0.740082 0.064056 0.027405
0.768494 0.065857 0.028046
0.792755 0.067352 0.028625
0.813263 0.068634 0.029083
0.830414 0.069733 0.029510
0.844543 0.070648 0.029846
0.855896 0.071350 0.030121
0.864929 0.071930 0.030334
0.872009 0.072388 0.030518
0.877411 0.072723 0.030640
0.881775 0.072998 0.030731
0.885834 0.073273 0.030823
0.015747 0.037231 0.013214
0.020477 0.037292 0.013275
0.025513 0.037415 0.013367
0.030701 0.037476 0.013458
0.036133 0.037598 0.013550
0.041840 0.037720 0.013641
0.047699 0.037842 0.013763
0.053772 0.037964 0.013855
0.060028 0.038116 0.013947
0.066467 0.038269 0.014069
0.073029 0.038422 0.014191
0.079773 0.038574 0.014282
0.086639 0.038757 0.014404
0.093628 0.038940 0.014526
0.100647 0.039124 0.014648
0.107758 0.039307 0.014771
0.114899 0.039520 0.014893
0.121979 0.039703 0.015015
0.129028 0.039917 0.015137
0.136017 0.040161 0.015289
0.142822 0.040344 0.015381
0.149475 0.040558 0.015503
0.155853 0.040771 0.015625
0.161987 0.040955 0.015747
0.167725 0.041138 0.015839
0.173035 0.041351 0.015930
0.177917 0.041504 0.016022
0.182465 0.041687 0.016113
0.186768 0.041809 0.016174
0.190979 0.041962 0.016266
0.195221 0.042114 0.016327
0.199738 0.042297 0.016418
0.204620 0.042480 0.016510
0.210114 0.042664 0.016602
0.216675 0.042908 0.016724
0.224396 0.043213 0.016876
0.233795 0.043549 0.017059
0.245300 0.044037 0.017273
0.259369 0.044617 0.017548
0.276642 0.045349 0.017853
0.297821 0.046265 0.018280
0.323242 0.047394 0.018768
0.353027 0.048798 0.019348
0.387054 0.050446 0.020020
0.424622 0.052368 0.020782
0.464661 0.054504 0.021637
0.506317 0.056763 0.022491
0.548767 0.059174 0.023407
0.591187 0.061615 0.024323
0.632507 0.064117 0.025238
0.671875 0.066467 0.026123
0.708374 0.068756 0.026947
0.741150 0.070770 0.027679
0.769501 0.072540 0.028351
0.793854 0.074097 0.028931
0.814362 0.075378 0.029388
0.831512 0.076447 0.029816
0.845581 0.077332 0.030151
0.856964 0.078064 0.030426
0.865967 0.078613 0.030640
0.873047 0.079071 0.030792
0.878510 0.079437 0.030945
0.882843 0.079712 0.031036
0.886871 0.079926 0.031128
0.015991 0.043610 0.013428
0.020721 0.043701 0.013489
0.025757 0.043793 0.013580
0.030975 0.043884 0.013672
0.036438 0.044006 0.013763
0.042114 0.044128 0.013855
0.048004 0.044281 0.013947
0.054077 0.044403 0.014069
0.060364 0.044556 0.014160
0.066803 0.044708 0.014282
0.073395 0.044891 0.014374
0.080139 0.045044 0.014496
0.087006 0.045227 0.014618
0.094025 0.045410 0.014740
0.101074 0.045624 0.014862
0.108185 0.045837 0.014984
0.115326 0.046021 0.015106
0.122406 0.046234 0.015228
0.129517 0.046478 0.015381
0.136475 0.046692 0.015503
0.143311 0.046906 0.015625
0.149963 0.047119 0.015747
0.156403 0.047333 0.015869
0.162506 0.047546 0.015961
0.168274 0.047760 0.016083
0.173553 0.047913 0.016174
0.178467 0.048096 0.016235
0.183014 0.048279 0.016327
0.187317 0.048431 0.016418
0.191559 0.048584 0.016479
0.195801 0.048737 0.016571
0.200317 0.048889 0.016663
0.205200 0.049103 0.016754
0.210724 0.049316 0.016846
0.217285 0.049530 0.016968
0.225006 0.049835 0.017120
0.234467 0.050232 0.017303
0.245972 0.050690 0.017517
0.260040 0.051270 0.017761
0.277344 0.052032 0.018127
0.298553 0.052979 0.018524
0.324005 0.054138 0.019012
0.353821 0.055542 0.019592
0.387909 0.057251 0.020294
0.425507 0.059204 0.021057
0.465576 0.061340 0.021881
0.507263 0.063629 0.022766
0.549774 0.066040 0.023682
0.592194 0.068542 0.024597
0.633545 0.071045 0.025513
0.672913 0.073425 0.026398
0.709442 0.075714 0.027252
0.742249 0.077728 0.027985
0.770599 0.079498 0.028656
0.794922 0.081055 0.029236
0.815430 0.082336 0.029724
0.832611 0.083435 0.030121
0.846680 0.084290 0.030457
0.858063 0.085022 0.030731
0.867065 0.085571 0.030945
0.874115 0.086029 0.031128
0.879578 0.086395 0.031250
0.883942 0.086670 0.031372
0.887939 0.086914 0.031464
0.016235 0.050262 0.013641
0.020996 0.050354 0.013733
0.026031 0.050446 0.013794
0.031281 0.050568 0.013885
0.036743 0.050690 0.013977
0.042419 0.050812 0.014069
0.048340 0.050964 0.014191
0.054443 0.051117 0.014282
0.060730 0.051270 0.014374
0.067169 0.051422 0.014496
0.073792 0.051605 0.014618
0.080536 0.051788 0.014740
0.087433 0.052002 0.014862
0.094452 0.052185 0.014954
0.101501 0.052399 0.015106
0.108643 0.052612 0.015228
0.115784 0.052826 0.015350
0.122894 0.053040 0.015472
0.130035 0.053284 0.015625
0.136993 0.053497 0.015747
0.143860 0.053741 0.015869
0.150513 0.053955 0.015961
0.156921 0.054169 0.016083
0.163086 0.054382 0.016205
0.168854 0.054626 0.016327
0.174164 0.054779 0.016388
0.179047 0.054962 0.016479
0.183624 0.055145 0.016571
0.187927 0.055298 0.016663
0.192169 0.055450 0.016724
0.196411 0.055634 0.016815
0.200928 0.055817 0.016907
0.205841 0.056000 0.016998
0.211395 0.056213 0.017090
0.217926 0.056458 0.017212
0.225708 0.056763 0.017365
0.235168 0.057190 0.017548
0.246674 0.057648 0.017761
0.260773 0.058258 0.018036
0.278107 0.059021 0.018372
0.299316 0.059967 0.018768
0.324829 0.061157 0.019287
0.354675 0.062622 0.019867
0.388824 0.064331 0.020569
0.426453 0.066315 0.021332
0.466553 0.068481 0.022186
0.508301 0.070801 0.023071
0.550812 0.073242 0.023956
0.593262 0.075775 0.024902
0.634644 0.078278 0.025818
0.674042 0.080658 0.026703
0.710571 0.082947 0.027557
0.743378 0.084991 0.028320
0.771729 0.086761 0.028961
0.796082 0.088318 0.029572
0.816589 0.089600 0.030029
0.833740 0.090698 0.030457
0.847809 0.091583 0.030792
0.859222 0.092316 0.031067
0.868195 0.092834 0.031281
0.875275 0.093323 0.031464
0.880737 0.093689 0.031586
0.885071 0.093964 0.031708
0.889099 0.094177 0.031799
0.016541 0.057159 0.013855
0.021332 0.057251 0.013947
0.026367 0.057373 0.014038
0.031616 0.057495 0.014099
0.037079 0.057617 0.014191
0.042816 0.057770 0.014313
0.048706 0.057922 0.014404
0.054810 0.058075 0.014496
0.061127 0.058228 0.014618
0.067596 0.058411 0.014740
0.074219 0.058624 0.014862
0.080994 0.058777 0.014954
0.087891 0.058990 0.015076
0.094940 0.059204 0.015228
0.102020 0.059418 0.015350
0.109131 0.059631 0.015472
0.116333 0.059875 0.015594
0.123444 0.060120 0.015717
0.130554 0.060333 0.015839
0.137543 0.060577 0.015961
0.144409 0.060822 0.016083
0.151123 0.061066 0.016235
0.157532 0.061279 0.016327
0.163696 0.061523 0.016449
0.169464 0.061707 0.016541
0.174805 0.061920 0.016663
0.179718 0.062103 0.016754
0.184296 0.062286 0.016846
0.188599 0.062469 0.016907
0.192841 0.062622 0.016998
0.197113 0.062775 0.017059
0.201599 0.062958 0.017151
0.206512 0.063141 0.017242
0.212067 0.063354 0.017334
0.218658 0.063660 0.017487
0.226440 0.063965 0.017639
0.235870 0.064362 0.017792
0.247437 0.064880 0.018036
0.261566 0.065491 0.018311
0.278870 0.066254 0.018616
0.300140 0.067230 0.019043
0.325714 0.068451 0.019562
0.355591 0.069946 0.020172
0.389771 0.071686 0.020844
0.427460 0.073700 0.021637
0.467621 0.075897 0.022491
0.509369 0.078247 0.023376
0.551941 0.080719 0.024292
0.594421 0.083252 0.025238
0.635773 0.085754 0.026154
0.675232 0.088196 0.027039
0.711731 0.090424 0.027893
0.744568 0.092529 0.028656
0.772949 0.094299 0.029327
0.797211 0.095795 0.029877
0.817810 0.097137 0.030396
0.834900 0.098206 0.030792
0.849030 0.099091 0.031128
0.860413 0.099823 0.031403
0.869415 0.100372 0.031616
0.876495 0.100830 0.031799
0.881866 0.101166 0.031921
0.886230 0.101440 0.032043
0.890289 0.101715 0.032135
0.016876 0.064331 0.014099
0.021698 0.064453 0.014191
0.026733 0.064575 0.014252
0.032013 0.064728 0.014343
0.037506 0.064850 0.014435
0.043213 0.065002 0.014526
0.049164 0.065155 0.014648
0.055267 0.065338 0.014740
0.061584 0.065491 0.014862
0.068054 0.065674 0.014954
0.074707 0.065887 0.015106
0.081482 0.066071 0.015228
0.088409 0.066284 0.015350
0.095459 0.066528 0.015472
0.102539 0.066742 0.015594
0.109711 0.066986 0.015717
0.116882 0.067200 0.015839
0.124023 0.067444 0.015961
0.131165 0.067719 0.016113
0.138184 0.067963 0.016235
0.145050 0.068207 0.016357
0.151733 0.068420 0.016479
0.158173 0.068665 0.016602
0.164337 0.068909 0.016724
0.170135 0.069153 0.016815
0.175476 0.069336 0.016907
0.180389 0.069519 0.016998
0.184967 0.069702 0.017090
0.189301 0.069885 0.017181
0.193542 0.070038 0.017273
0.197815 0.070221 0.017334
0.202362 0.070404 0.017426
0.207275 0.070618 0.017517
0.212830 0.070831 0.017639
0.219391 0.071106 0.017761
0.227173 0.071442 0.017883
0.236694 0.071869 0.018097
0.248230 0.072357 0.018311
0.262390 0.072998 0.018585
0.279755 0.073792 0.018921
0.301056 0.074799 0.019348
0.326630 0.076019 0.019836
0.356537 0.077515 0.020447
0.390778 0.079315 0.021149
0.428497 0.081329 0.021942
0.468658 0.083557 0.022797
0.510498 0.085938 0.023682
0.553070 0.088440 0.024597
0.595581 0.090973 0.025543
0.636993 0.093536 0.026489
0.676422 0.095947 0.027374
0.712982 0.098267 0.028229
0.745789 0.100311 0.028992
0.774170 0.102081 0.029663
0.798492 0.103638 0.030243
0.819000 0.104919 0.030731
0.836182 0.106018 0.031158
0.850220 0.106903 0.031494
0.861633 0.107635 0.031769
0.870605 0.108154 0.031982
0.877686 0.108643 0.032166
0.883148 0.108978 0.032288
0.887482 0.109253 0.032410
0.891479 0.109497 0.032501
0.017303 0.071838 0.014343
0.022095 0.071960 0.014435
0.027161 0.072083 0.014496
0.032440 0.072235 0.014618
0.037933 0.072388 0.014709
0.043671 0.072540 0.014801
0.049622 0.072693 0.014893
0.055756 0.072876 0.015015
0.062073 0.073059 0.015106
0.068573 0.073242 0.015228
0.075226 0.073456 0.015350
0.082031 0.073669 0.015472
0.088989 0.073914 0.015594
0.096008 0.074127 0.015717
0.103119 0.074371 0.015839
0.110321 0.074615 0.015991
0.117523 0.074860 0.016113
0.124664 0.075104 0.016235
0.131805 0.075378 0.016388
0.138824 0.075623 0.016510
0.145721 0.075897 0.016632
0.152435 0.076141 0.016754
0.158905 0.076385 0.016876
0.165070 0.076599 0.016968
0.170868 0.076843 0.017090
0.176178 0.077057 0.017181
0.181122 0.077240 0.017273
0.185730 0.077454 0.017365
0.190063 0.077606 0.017456
0.194305 0.077789 0.017548
0.198578 0.077972 0.017609
0.203125 0.078156 0.017700
0.208038 0.078369 0.017792
0.213623 0.078613 0.017914
0.220215 0.078888 0.018036
0.227997 0.079224 0.018188
0.237518 0.079651 0.018372
0.249084 0.080170 0.018585
0.263275 0.080811 0.018860
0.280670 0.081635 0.019196
0.301971 0.082642 0.019623
0.327606 0.083923 0.020142
0.357544 0.085449 0.020752
0.391815 0.087250 0.021454
0.429565 0.089294 0.022247
0.469788 0.091553 0.023102
0.511627 0.093964 0.024017
0.554321 0.096527 0.024933
0.596863 0.099091 0.025909
0.638245 0.101624 0.026825
0.677673 0.104034 0.027740
0.714264 0.106354 0.028595
0.747070 0.108398 0.029358
0.775421 0.110199 0.030029
0.799774 0.111755 0.030609
0.820282 0.113037 0.031097
0.837433 0.114136 0.031525
0.851501 0.114990 0.031860
0.862885 0.115723 0.032135
0.871918 0.116333 0.032379
0.878937 0.116730 0.032532
0.884399 0.117096 0.032684
0.888733 0.117371 0.032776
0.892731 0.117584 0.032867
0.017731 0.079590 0.014587
0.022552 0.079742 0.014679
0.027649 0.079865 0.014771
0.032928 0.080017 0.014862
0.038452 0.080170 0.014954
0.044189 0.080322 0.015045
0.050140 0.080505 0.015167
0.056305 0.080719 0.015289
0.062622 0.080902 0.015381
0.069153 0.081085 0.015503
0.075806 0.081299 0.015625
0.082642 0.081543 0.015747
0.089600 0.081757 0.015869
0.096649 0.082001 0.015991
0.103760 0.082245 0.016113
0.110992 0.082520 0.016266
0.118195 0.082764 0.016388
0.125336 0.083038 0.016510
0.132538 0.083313 0.016663
0.139557 0.083588 0.016785
0.146454 0.083832 0.016907
0.153168 0.084076 0.017029
0.159637 0.084320 0.017151
0.165833 0.084595 0.017273
0.171661 0.084839 0.017395
0.176971 0.085052 0.017487
0.181915 0.085236 0.017578
0.186554 0.085449 0.017670
0.190857 0.085632 0.017761
0.195129 0.085815 0.017822
0.199432 0.085968 0.017914
0.203979 0.086182 0.018005
0.208893 0.086395 0.018097
0.214478 0.086639 0.018219
0.221069 0.086914 0.018341
0.228882 0.087280 0.018494
0.238434 0.087708 0.018677
0.250000 0.088226 0.018890
0.264191 0.088898 0.019165
0.281647 0.089752 0.019531
0.302979 0.090790 0.019958
0.328644 0.092072 0.020477
0.358643 0.093628 0.021088
0.392914 0.095459 0.021790
0.430725 0.097565 0.022583
0.471008 0.099823 0.023438
0.512878 0.102264 0.024353
0.555511 0.104797 0.025299
0.598083 0.107391 0.026245
0.639557 0.109955 0.027191
0.678986 0.112396 0.028107
0.715576 0.114716 0.028961
0.748383 0.116791 0.029724
0.776764 0.118561 0.030396
0.801086 0.120117 0.031006
0.821594 0.121399 0.031494
0.838745 0.122498 0.031921
0.852814 0.123383 0.032257
0.864197 0.124084 0.032532
0.873199 0.124634 0.032745
0.880249 0.125092 0.032928
0.885712 0.125458 0.033081
0.890045 0.125732 0.033173
0.894043 0.125946 0.033264
0.018250 0.087646 0.014862
0.023071 0.087799 0.014954
0.028168 0.087952 0.015045
0.033447 0.088104 0.015137
0.038971 0.088257 0.015228
0.044769 0.088440 0.015350
0.050720 0.088623 0.015442
0.056885 0.088806 0.015533
0.063232 0.089020 0.015656
0.069763 0.089233 0.015778
0.076447 0.089478 0.015900
0.083282 0.089691 0.016022
0.090240 0.089935 0.016144
0.097351 0.090210 0.016296
0.104492 0.090454 0.016418
0.111664 0.090729 0.016541
0.118927 0.091003 0.016693
0.126099 0.091278 0.016815
0.133270 0.091553 0.016937
0.140320 0.091797 0.017059
0.147217 0.092102 0.017212
0.153992 0.092377 0.017334
0.160461 0.092621 0.017456
0.166656 0.092896 0.017578
0.172455 0.093109 0.017670
0.177856 0.093353 0.017792
0.182800 0.093567 0.017883
0.187378 0.093750 0.017975
0.191772 0.093964 0.018066
0.196014 0.094147 0.018127
0.200317 0.094330 0.018219
0.204834 0.094513 0.018311
0.209778 0.094727 0.018402
0.215393 0.094971 0.018494
0.222015 0.095306 0.018646
0.229828 0.095642 0.018799
0.239349 0.096069 0.018982
0.250977 0.096649 0.019196
0.265228 0.097321 0.019501
0.282623 0.098145 0.019836
0.304016 0.099213 0.020264
0.329742 0.100555 0.020782
0.359772 0.102142 0.021423
0.394104 0.104004 0.022125
0.431976 0.106110 0.022919
0.472260 0.108429 0.023804
0.514191 0.110901 0.024719
0.556854 0.113434 0.025665
0.599426 0.116058 0.026611
0.640869 0.118591 0.027557
0.680389 0.121094 0.028473
0.716919 0.123383 0.029327
0.749786 0.125488 0.030121
0.778168 0.127258 0.030792
0.802429 0.128784 0.031372
0.822998 0.130096 0.031891
0.840088 0.131134 0.032288
0.854187 0.132050 0.032654
0.865570 0.132782 0.032959
0.874542 0.133331 0.033173
0.881622 0.133789 0.033356
0.887024 0.134094 0.033478
0.891357 0.134369 0.033569
0.895416 0.134644 0.033691
0.018799 0.095978 0.015137
0.023621 0.096130 0.015228
0.028748 0.096313 0.015320
0.034058 0.096466 0.015411
0.039612 0.096649 0.015533
0.045380 0.096832 0.015625
0.051361 0.097015 0.015747
0.057556 0.097229 0.015839
0.063904 0.097443 0.015961
0.070435 0.097656 0.016083
0.077148 0.097900 0.016205
0.083984 0.098145 0.016327
0.091003 0.098389 0.016449
0.098083 0.098663 0.016571
0.105225 0.098907 0.016724
0.112457 0.099213 0.016846
0.119690 0.099487 0.016968
0.126892 0.099762 0.017120
0.134094 0.100067 0.017273
0.141144 0.100342 0.017395
0.148102 0.100647 0.017517
0.154816 0.100891 0.017639
0.161316 0.101166 0.017761
0.167542 0.101440 0.017883
0.173370 0.101685 0.018005
0.178741 0.101898 0.018097
0.183685 0.102112 0.018188
0.188324 0.102356 0.018280
0.192657 0.102539 0.018372
0.196960 0.102722 0.018463
0.201263 0.102905 0.018524
0.205811 0.103119 0.018616
0.210754 0.103363 0.018738
0.216370 0.103607 0.018829
0.222992 0.103912 0.018951
0.230835 0.104279 0.019104
0.240387 0.104736 0.019318
0.252014 0.105286 0.019531
0.266235 0.105988 0.019806
0.283722 0.106873 0.020172
0.305145 0.107941 0.020599
0.330872 0.109283 0.021149
0.360931 0.110901 0.021759
0.395325 0.112793 0.022491
0.433228 0.114929 0.023285
0.473541 0.117249 0.024170
0.515503 0.119751 0.025085
0.558197 0.122314 0.026031
0.600800 0.124939 0.027008
0.642303 0.127563 0.027954
0.681763 0.130005 0.028870
0.718353 0.132324 0.029755
0.751160 0.134399 0.030518
0.779541 0.136169 0.031219
0.803864 0.137726 0.031799
0.824371 0.139008 0.032288
0.841522 0.140106 0.032745
0.855560 0.140961 0.033081
0.866943 0.141693 0.033356
0.875916 0.142242 0.033569
0.882965 0.142670 0.033752
0.888428 0.143036 0.033905
0.892761 0.143311 0.033997
0.896759 0.143524 0.034088
0.019409 0.104645 0.015442
0.024261 0.104797 0.015533
0.029388 0.104950 0.015625
0.034698 0.105133 0.015717
0.040253 0.105316 0.015808
0.046051 0.105499 0.015930
0.052063 0.105713 0.016022
0.058258 0.105957 0.016144
0.064636 0.106171 0.016266
0.071167 0.106384 0.016388
0.077881 0.106628 0.016510
0.084778 0.106903 0.016632
0.091766 0.107178 0.016754
0.098877 0.107422 0.016907
0.106049 0.107697 0.017029
0.113281 0.108002 0.017151
0.120544 0.108276 0.017303
0.127747 0.108582 0.017426
0.134979 0.108887 0.017578
0.142029 0.109192 0.017700
0.148987 0.109467 0.017853
0.155731 0.109741 0.017975
0.162262 0.110046 0.018097
0.168457 0.110291 0.018219
0.174316 0.110565 0.018341
0.179688 0.110809 0.018433
0.184662 0.111023 0.018524
0.189301 0.111237 0.018616
0.193665 0.111420 0.018707
0.197937 0.111633 0.018768
0.202240 0.111816 0.018860
0.206818 0.112061 0.018951
0.211792 0.112274 0.019043
0.217407 0.112549 0.019165
0.224030 0.112854 0.019287
0.231873 0.113220 0.019440
0.241455 0.113708 0.019653
0.253082 0.114258 0.019867
0.267365 0.114960 0.020172
0.284882 0.115875 0.020508
0.306305 0.116974 0.020966
0.332062 0.118347 0.021484
0.362183 0.119965 0.022125
0.396606 0.121887 0.022858
0.434509 0.124054 0.023651
0.474884 0.126434 0.024536
0.516876 0.128937 0.025452
0.559601 0.131531 0.026428
