custom_nodes/comfyui-vrgamedevgirl/LUTS/Dark_Soft_Vivid_Cool_2.cube
#Created by: Adobe Photoshop Export Color Lookup Plugin
#Copyright: (C) Copyright 2017 PremiumBeat
TITLE "Thames"
#LUT size
LUT_3D_SIZE 4
#data domain
DOMAIN_MIN 0.0 0.0 0.0
DOMAIN_MAX 1.0 1.0 1.0
#LUT data points
0.000000 0.000000 0.000000
0.127289 0.000000 0.000000
0.303345 0.000000 0.000000
0.772156 0.000000 0.000061
0.000000 0.133301 0.000000
0.177277 0.151978 0.000000
0.343597 0.162659 0.000000
0.805084 0.173584 0.000061
0.000000 0.317108 0.000000
0.187347 0.338318 0.000000
0.362946 0.356384 0.000000
0.845856 0.385773 0.000031
0.000000 0.833710 0.000000
0.176270 0.849609 0.000000
0.419525 0.862610 0.000000
0.907501 0.885651 0.000000
0.002441 0.002441 0.109467
0.138062 0.000000 0.110779
0.314941 0.000000 0.109955
0.778412 0.000000 0.115875
0.000000 0.141571 0.116364
0.182800 0.158783 0.132477
0.348419 0.172394 0.150665
0.811890 0.186310 0.183167
0.000000 0.325287 0.136383
0.194092 0.346252 0.167664
0.368256 0.363983 0.189484
0.855530 0.393860 0.191132
0.000000 0.840179 0.082428
0.193909 0.855347 0.100983
0.427032 0.867981 0.104523
0.909515 0.889130 0.017609
0.003723 0.003723 0.259949
0.149963 0.000000 0.264404
0.325287 0.000000 0.275177
0.784393 0.000000 0.323181
0.001373 0.151215 0.278107
0.190063 0.167816 0.297638
0.353912 0.181183 0.321808
0.819977 0.195007 0.374817
0.000000 0.333527 0.315338
0.199951 0.354523 0.344727
0.375610 0.372803 0.369080
0.864441 0.402313 0.393494
0.000000 0.846100 0.360229
0.205444 0.860870 0.372742
0.434387 0.872894 0.383789
0.911285 0.892273 0.387115
0.023987 0.023987 0.684875
0.185852 0.011810 0.701172
0.346069 0.000000 0.721466
0.802063 0.000000 0.794189
0.037781 0.177673 0.722809
0.213318 0.198578 0.752258
0.375519 0.213074 0.781586
0.845428 0.216583 0.832825
0.000000 0.361053 0.777771
0.225037 0.382812 0.805939
0.403198 0.399780 0.824799
0.888947 0.419067 0.852661
0.000000 0.862244 0.848602
0.225830 0.875946 0.861969
0.446686 0.886932 0.873688
0.922058 0.922058 0.922058
