custom_nodes/comfyui-vrgamedevgirl/LUTS/Dark_High_Contrast_Vivid_Cool.cube
#Created by: Adobe Photoshop Export Color Lookup Plugin
#Copyright: (C) Copyright 2017 PremiumBeat.com
TITLE "PB_Shade"
#LUT size
LUT_3D_SIZE 4
#data domain
DOMAIN_MIN 0.0 0.0 0.0
DOMAIN_MAX 1.0 1.0 1.0
#LUT data points
0.000183 0.000214 0.000214
0.101410 0.003265 0.003693
0.418732 0.012207 0.020630
0.804962 0.035492 0.071838
0.016357 0.106415 0.007507
0.115295 0.114746 0.014923
0.451660 0.138245 0.060577
0.867401 0.124664 0.138367
0.116333 0.444519 0.019897
0.192657 0.469391 0.044861
0.496429 0.499542 0.080505
0.879120 0.514679 0.113068
0.241180 0.821472 0.003937
0.306610 0.850677 0.033173
0.588135 0.892212 0.078125
0.919922 0.902435 0.316803
0.006165 0.000336 0.099152
0.105682 0.004333 0.105347
0.424896 0.016113 0.134216
0.809418 0.038422 0.181030
0.023468 0.107361 0.111938
0.120483 0.118317 0.125305
0.455292 0.141235 0.171448
0.871429 0.128113 0.249237
0.121185 0.446075 0.139252
0.196381 0.471161 0.165894
0.500000 0.501526 0.201904
0.883881 0.516754 0.231506
0.242249 0.820709 0.147705
0.308136 0.849762 0.177185
0.589813 0.892059 0.221466
0.919922 0.904785 0.448944
0.053802 0.000031 0.317657
0.130829 0.000031 0.417389
0.448425 0.026489 0.472198
0.822723 0.044434 0.510040
0.076721 0.093750 0.423431
0.155487 0.118103 0.451447
0.473450 0.144287 0.502350
0.891632 0.130127 0.585419
0.152130 0.445587 0.463654
0.221222 0.472565 0.492462
0.517822 0.506287 0.531891
0.900452 0.522339 0.561493
0.261932 0.823059 0.483093
0.327454 0.852478 0.512878
0.605621 0.898163 0.560364
0.919922 0.918640 0.775238
0.115326 0.000031 0.548187
0.178955 0.000031 0.704620
0.478241 0.028503 0.843964
0.842285 0.048889 0.882263
0.163147 0.067444 0.787598
0.226562 0.102661 0.825256
0.514709 0.135406 0.886047
0.919922 0.129181 0.965393
0.208618 0.434265 0.820526
0.269470 0.464569 0.852600
0.548767 0.506317 0.900055
0.919922 0.528259 0.929810
0.300964 0.819153 0.845673
0.363831 0.849854 0.877045
0.631470 0.902130 0.931488
0.919922 0.959930 0.999969
