custom_nodes/comfyui-vrgamedevgirl/LUTS/Dark_Soft_Vivid_Warm.cube
#Created by: Adobe Photoshop Export Color Lookup Plugin
#Copyright: (C) Copyright 2017 PremiumBeat.com
TITLE "Prague"
#LUT size
LUT_3D_SIZE 8
#data domain
DOMAIN_MIN 0.0 0.0 0.0
DOMAIN_MAX 1.0 1.0 1.0
#LUT data points
0.091034 0.000000 0.000000
0.162842 0.000000 0.000000
0.229950 0.000000 0.000000
0.328888 0.000000 0.000000
0.505371 0.000000 0.000031
0.636993 0.000000 0.000031
0.728699 0.000000 0.000031
0.821503 0.000000 0.000061
0.089111 0.106171 0.000000
0.163635 0.102356 0.000000
0.231354 0.099609 0.000000
0.330963 0.095123 0.000000
0.508057 0.082611 0.000031
0.639984 0.068024 0.000031
0.731934 0.052795 0.000031
0.825012 0.030334 0.000061
0.079224 0.204437 0.000000
0.160706 0.205566 0.000000
0.233734 0.204742 0.000000
0.334686 0.198120 0.000000
0.512848 0.186493 0.000000
0.645264 0.176697 0.000031
0.737549 0.168182 0.000031
0.831116 0.157928 0.000061
0.065430 0.295258 0.000000
0.151947 0.297089 0.000000
0.229126 0.300171 0.000000
0.340515 0.299286 0.000000
0.520111 0.284180 0.000000
0.653137 0.275726 0.000031
0.745941 0.269531 0.000031
0.839813 0.262512 0.000061
0.011261 0.478027 0.000000
0.123596 0.480530 0.000000
0.205353 0.484772 0.000000
0.323120 0.490723 0.000000
0.527893 0.492493 0.000000
0.662079 0.481018 0.000000
0.755524 0.474976 0.000000
0.850067 0.468170 0.000031
0.000000 0.631470 0.000000
0.080627 0.633820 0.000000
0.177795 0.637848 0.000000
0.302765 0.643463 0.000000
0.515320 0.649994 0.000000
0.670593 0.653748 0.000000
0.764709 0.643036 0.000000
0.859802 0.632629 0.000000
0.000000 0.731567 0.000000
0.020569 0.734100 0.000000
0.151245 0.738159 0.000000
0.286163 0.743805 0.000000
0.503510 0.750397 0.000000
0.661682 0.756836 0.000000
0.771820 0.760101 0.000000
0.867279 0.745880 0.000000
0.000000 0.827209 0.000000
0.000000 0.829895 0.000000
0.116821 0.834229 0.000000
0.266876 0.840363 0.000000
0.489685 0.847412 0.000000
0.647614 0.854218 0.000000
0.758850 0.859741 0.000000
0.872070 0.861877 0.000000
0.090271 0.000000 0.105469
0.163116 0.000000 0.102570
0.230255 0.000000 0.100342
0.329376 0.000000 0.096313
0.505981 0.000000 0.084503
0.637604 0.000000 0.070435
0.729309 0.000000 0.056091
0.822174 0.000000 0.035126
0.083344 0.103180 0.103180
0.164185 0.094025 0.094025
0.237854 0.083740 0.083740
0.345459 0.067627 0.067627
0.537598 0.027039 0.027039
0.678894 0.000000 0.000031
0.776093 0.000000 0.000061
0.875183 0.000000 0.000061
0.062347 0.209229 0.087463
0.155640 0.207275 0.083771
0.236053 0.203400 0.079956
0.344299 0.189941 0.065857
0.537018 0.163788 0.024994
0.678375 0.141632 0.000031
0.775665 0.123383 0.000031
0.874939 0.100433 0.000061
0.037476 0.303680 0.073059
0.138123 0.301788 0.067444
0.223969 0.302338 0.067322
0.342438 0.298035 0.060425
0.535980 0.275635 0.019958
0.677368 0.258911 0.000031
0.774841 0.246918 0.000031
0.874390 0.233215 0.000061
0.000000 0.496735 0.013550
0.091736 0.494537 0.004578
0.188629 0.495819 0.004333
0.317200 0.497437 0.000732
0.531952 0.494934 0.000000
0.674194 0.481232 0.000000
0.772186 0.472076 0.000031
0.872375 0.461945 0.000031
0.000000 0.655212 0.000000
0.011566 0.652008 0.000000
0.149536 0.652802 0.000000
0.289856 0.653778 0.000000
0.513367 0.654297 0.000000
0.670074 0.653076 0.000000
0.768860 0.643097 0.000000
0.869873 0.632599 0.000000
0.000000 0.755768 0.000000
0.000000 0.751892 0.000000
0.114197 0.752716 0.000000
0.269592 0.753723 0.000000
0.498108 0.754395 0.000000
0.657654 0.754944 0.000000
0.765991 0.754181 0.000000
0.867615 0.743927 0.000000
0.000000 0.852844 0.000000
0.000000 0.848633 0.000000
0.060608 0.849915 0.000000
0.246399 0.851532 0.000000
0.482178 0.853027 0.000000
0.643127 0.854370 0.000000
0.753082 0.855469 0.000000
0.864899 0.855103 0.000000
0.086975 0.000000 0.201447
0.161682 0.000000 0.202179
0.231018 0.000000 0.202057
0.330109 0.000000 0.197998
0.506866 0.000000 0.189209
0.638611 0.000000 0.180878
0.730316 0.000000 0.173431
0.823364 0.000000 0.164246
0.069183 0.090088 0.210449
0.158936 0.086731 0.208618
0.238098 0.082855 0.204559
0.345490 0.067932 0.190857
0.537567 0.027924 0.164764
0.678833 0.000000 0.142365
0.776062 0.000000 0.124268
0.875153 0.000000 0.101257
0.062408 0.209534 0.209534
0.147888 0.201813 0.201813
0.224854 0.193054 0.193054
0.334564 0.178741 0.178741
0.527710 0.148438 0.148438
0.669037 0.124084 0.124084
0.766327 0.104309 0.104309
0.865723 0.078369 0.078369
0.037506 0.304108 0.197083
0.128418 0.297546 0.186676
0.211121 0.293915 0.178925
0.333435 0.288666 0.174957
0.526978 0.264435 0.147003
0.668427 0.247009 0.122375
0.765930 0.234711 0.102417
0.865540 0.220703 0.075867
0.000000 0.497284 0.165100
0.079803 0.490814 0.152252
0.172089 0.487823 0.141571
0.305817 0.489563 0.140167
0.523621 0.486877 0.129242
0.665710 0.472412 0.105377
0.763733 0.463226 0.081909
0.864014 0.452881 0.047821
0.000000 0.655670 0.128174
0.000000 0.648682 0.113098
0.130615 0.644653 0.098816
0.277588 0.645844 0.097076
0.504242 0.646515 0.087646
0.662079 0.645325 0.072754
0.760864 0.635101 0.040680
0.861877 0.624298 0.000000
0.000000 0.756195 0.094330
0.000000 0.749115 0.075500
0.091125 0.744690 0.054169
0.257111 0.745941 0.051361
0.488922 0.746796 0.035034
0.649353 0.747528 0.013916
0.758331 0.746887 0.000000
0.860016 0.736237 0.000000
0.000000 0.853485 0.036713
0.000000 0.846588 0.006317
0.020752 0.842163 0.000000
0.233612 0.843964 0.000000
0.472900 0.845673 0.000000
0.634705 0.847198 0.000000
0.745239 0.848358 0.000000
0.857452 0.848145 0.000000
0.085510 0.000000 0.285278
0.159180 0.000000 0.286407
0.228699 0.000000 0.288513
0.331268 0.000000 0.288727
0.508148 0.000000 0.280975
0.640015 0.000000 0.275421
0.731873 0.000000 0.270905
0.824860 0.000000 0.265167
0.058289 0.080200 0.303497
0.147583 0.076080 0.301941
0.230164 0.075439 0.302246
0.345490 0.068481 0.297180
0.537567 0.029297 0.274170
0.678772 0.000000 0.257019
0.776001 0.000000 0.244537
0.875153 0.000000 0.230286
0.051208 0.198975 0.303925
0.134186 0.188690 0.297241
0.215149 0.181274 0.293610
0.335236 0.176575 0.287842
0.527802 0.148621 0.263031
0.669067 0.124573 0.245422
0.766388 0.104950 0.233124
0.865753 0.079163 0.218842
0.037506 0.304779 0.304779
0.128418 0.298187 0.298187
0.206970 0.291992 0.291992
0.322540 0.279510 0.279510
0.517761 0.253662 0.253662
0.659149 0.233398 0.233398
0.756439 0.219635 0.219635
0.855865 0.204041 0.204041
0.000000 0.498199 0.280182
0.079681 0.491730 0.271210
0.167206 0.486725 0.261749
0.291504 0.481812 0.249573
0.514801 0.478424 0.243805
0.656281 0.462646 0.229889
0.754089 0.452423 0.215881
0.854126 0.441406 0.199890
0.000000 0.656281 0.257904
0.000000 0.649292 0.248383
0.125427 0.643463 0.238312
0.260498 0.637238 0.223480
0.493103 0.637848 0.221924
0.652710 0.636414 0.218048
0.751068 0.625061 0.206696
0.851776 0.613617 0.192444
0.000000 0.756775 0.242432
0.000000 0.749756 0.232849
0.085388 0.743835 0.222473
0.237976 0.736877 0.205475
0.476410 0.737640 0.203888
0.638550 0.738220 0.201447
0.748322 0.737457 0.197937
0.849701 0.725769 0.182373
0.000000 0.854218 0.224091
0.000000 0.847412 0.213898
0.012878 0.841766 0.202637
0.212219 0.834656 0.183044
0.459290 0.836212 0.181000
0.622650 0.837646 0.177917
0.734131 0.838715 0.174744
0.847015 0.838287 0.168335
0.083710 0.000000 0.456329
0.156311 0.000000 0.457764
0.223816 0.000000 0.460449
0.325623 0.000000 0.464600
0.509827 0.000000 0.466553
0.641937 0.000000 0.463318
0.733887 0.000000 0.461182
0.826935 0.000000 0.457947
0.039642 0.062500 0.493164
0.127777 0.057953 0.491791
0.209564 0.057190 0.492615
0.329224 0.053711 0.493683
0.537537 0.030792 0.489380
0.678741 0.000000 0.475067
0.775970 0.000000 0.465515
0.875153 0.000000 0.455139
0.031921 0.179657 0.494934
0.113495 0.167816 0.488129
0.191467 0.158966 0.485199
0.316040 0.157715 0.486664
0.528015 0.147614 0.482513
0.669098 0.124786 0.467651
0.766418 0.105652 0.458252
0.865845 0.080078 0.447784
0.018433 0.284973 0.497803
0.107300 0.275940 0.491211
0.182404 0.266541 0.486115
0.300354 0.255402 0.481415
0.518524 0.250336 0.477142
0.659302 0.233093 0.461029
0.756500 0.219971 0.450928
0.855927 0.204803 0.439941
0.000000 0.499329 0.499329
0.079529 0.492920 0.492920
0.167023 0.487946 0.487946
0.285797 0.479980 0.479980
0.493256 0.459106 0.459106
0.636566 0.444153 0.444153
0.734833 0.432556 0.432556
0.834991 0.419373 0.419373
0.000000 0.657043 0.484314
0.000000 0.650085 0.477142
0.125305 0.644318 0.470978
0.254944 0.635468 0.460236
0.468323 0.620239 0.438660
0.634338 0.618347 0.437744
0.731659 0.606079 0.433990
0.832642 0.593475 0.420593
0.000000 0.757568 0.475739
0.000000 0.750549 0.468384
0.085205 0.744598 0.461700
0.232941 0.735474 0.449829
0.448792 0.720062 0.425385
0.617371 0.720612 0.426239
0.730011 0.719604 0.425537
0.830719 0.706146 0.417664
0.000000 0.855194 0.465485
0.000000 0.848419 0.457886
0.012299 0.842773 0.450928
0.207489 0.833893 0.438171
0.429352 0.818451 0.410889
0.598969 0.819855 0.411346
0.713226 0.820923 0.411530
0.828369 0.820312 0.409698
0.082458 0.000000 0.602020
0.154419 0.000000 0.603363
0.221313 0.000000 0.605927
0.321533 0.000000 0.609802
0.505310 0.000000 0.614594
0.643799 0.000000 0.618073
0.735901 0.000000 0.615936
0.829193 0.000000 0.612396
0.025116 0.048157 0.653656
0.111694 0.043488 0.651917
0.193207 0.042664 0.652466
0.312714 0.038696 0.653076
0.525330 0.019958 0.653137
0.678680 0.000000 0.650574
0.775879 0.000000 0.640503
0.875153 0.000000 0.629852
0.018616 0.164246 0.654907
0.097534 0.152252 0.647583
0.174835 0.143097 0.643982
0.298737 0.141937 0.644806
0.514679 0.135437 0.645294
0.669189 0.124969 0.642975
0.766449 0.106201 0.632751
0.865906 0.081085 0.622009
0.005981 0.269867 0.656769
0.091278 0.260498 0.649567
0.165680 0.250427 0.643585
0.281494 0.238098 0.638062
0.503052 0.236267 0.638550
0.659485 0.231934 0.636230
0.756561 0.220062 0.625092
0.856018 0.205505 0.613525
0.000000 0.484497 0.657623
0.059998 0.477203 0.650543
0.149933 0.470825 0.644684
0.266724 0.460022 0.635956
0.474670 0.439331 0.621216
0.638184 0.439117 0.618713
0.735443 0.430298 0.605743
0.835266 0.418457 0.593109
0.000000 0.657837 0.657867
0.000000 0.650909 0.650909
0.125092 0.645172 0.645172
0.255035 0.636322 0.636322
0.464935 0.618530 0.618530
0.616547 0.602081 0.602081
0.716095 0.592163 0.592163
0.817596 0.580017 0.580017
0.000000 0.758331 0.648102
0.000000 0.751343 0.640961
0.084991 0.745392 0.634521
0.232971 0.736298 0.624268
0.445923 0.719025 0.603607
0.599731 0.706360 0.588043
0.715271 0.705444 0.586884
0.815643 0.692871 0.580048
0.000000 0.856262 0.637604
0.000000 0.849457 0.630066
0.011658 0.843781 0.623383
0.207458 0.834839 0.611969
0.426849 0.818085 0.588715
0.580139 0.806610 0.571503
0.697113 0.807648 0.571381
0.814362 0.807068 0.569702
0.081512 0.000000 0.692322
0.153381 0.000000 0.693817
0.219818 0.000000 0.696472
0.319519 0.000000 0.700439
0.502136 0.000000 0.705505
0.640686 0.000000 0.711090
0.737701 0.000000 0.714417
0.831146 0.000000 0.710846
0.016327 0.039948 0.753082
0.101776 0.034912 0.751282
0.183044 0.034180 0.751740
0.302490 0.030029 0.752380
0.515167 0.011658 0.752594
0.670959 0.000000 0.752777
0.775848 0.000000 0.750610
0.875122 0.000000 0.740204
0.010254 0.154877 0.754333
0.087891 0.143005 0.746857
0.164764 0.133728 0.743042
0.288452 0.132568 0.743958
0.503998 0.125854 0.744507
0.660858 0.117279 0.745056
0.766571 0.106628 0.743286
0.865997 0.081848 0.732574
0.000000 0.260712 0.756165
0.081238 0.251312 0.748871
0.155640 0.241272 0.742676
0.270813 0.228363 0.736816
0.491577 0.226532 0.737427
0.649872 0.224060 0.738068
0.756622 0.220062 0.736298
0.856049 0.206024 0.724823
0.000000 0.475555 0.757355
0.046722 0.468048 0.750183
0.139313 0.461395 0.744141
0.255768 0.449554 0.735077
0.460663 0.426788 0.720551
0.625854 0.427795 0.721161
0.735992 0.427338 0.719360
0.835419 0.417328 0.705841
0.000000 0.648468 0.758179
0.000000 0.641113 0.751099
0.113129 0.634766 0.745178
0.243835 0.624603 0.736084
0.450897 0.604034 0.718933
0.603699 0.588989 0.706573
0.717834 0.588409 0.705231
0.818268 0.577972 0.691925
0.000000 0.759003 0.759003
0.000000 0.752045 0.752045
0.084808 0.746063 0.746063
0.232971 0.736969 0.736969
0.445923 0.719727 0.719727
0.598541 0.705933 0.705933
0.703033 0.694336 0.694336
0.805389 0.683746 0.683746
0.000000 0.857117 0.749054
0.000000 0.850342 0.741730
0.010834 0.844696 0.735413
0.207397 0.835724 0.724945
0.426819 0.819000 0.704956
0.579224 0.806702 0.689758
0.685852 0.798096 0.679474
0.804230 0.797638 0.678253
0.080658 0.000000 0.775055
0.152222 0.000000 0.776733
0.218567 0.000000 0.779663
0.317963 0.000000 0.784149
0.499481 0.000000 0.789886
0.636719 0.000000 0.796234
0.734039 0.000000 0.802002
0.832764 0.000000 0.804413
0.008240 0.032623 0.844543
0.092773 0.027740 0.842743
0.173798 0.027039 0.843445
0.293182 0.023041 0.844482
0.505676 0.004730 0.845398
0.661194 0.000000 0.846344
0.768524 0.000000 0.847198
0.875122 0.000000 0.844757
0.002747 0.146362 0.846283
0.078888 0.134552 0.838867
0.155579 0.125031 0.835236
0.279205 0.123871 0.836609
0.494263 0.116730 0.837830
0.650757 0.107574 0.839203
0.758667 0.098602 0.840424
0.866089 0.082397 0.838440
0.000000 0.252167 0.848999
0.071899 0.242828 0.841705
0.146393 0.232635 0.835724
0.261017 0.219452 0.830048
0.481110 0.217529 0.831543
0.639038 0.214905 0.832916
0.747620 0.212524 0.834106
0.856049 0.206329 0.832245
0.000000 0.466949 0.851624
0.033478 0.459320 0.844574
0.129333 0.452423 0.838776
0.245697 0.440063 0.829926
0.448395 0.415680 0.815887
0.612549 0.416565 0.817352
0.724335 0.417145 0.818512
0.835663 0.415283 0.816864
0.000000 0.639465 0.854187
0.000000 0.631927 0.847260
0.101349 0.625153 0.841553
0.233490 0.614014 0.832764
0.438354 0.591156 0.816223
0.589081 0.575012 0.805389
0.704285 0.575134 0.806641
0.819092 0.573669 0.805420
0.000000 0.749756 0.856537
0.000000 0.742645 0.849731
0.069641 0.736237 0.844116
0.222137 0.726013 0.835236
0.433258 0.706146 0.818634
0.583801 0.691132 0.806549
0.689819 0.681152 0.798279
0.806854 0.680237 0.797516
0.000000 0.857910 0.857910
0.000000 0.851074 0.851074
0.010437 0.845398 0.845398
0.207397 0.836456 0.836456
0.426819 0.819672 0.819672
0.579132 0.807373 0.807373
0.685211 0.798187 0.798187
0.792358 0.786591 0.786591
