custom_nodes/comfyui-vrgamedevgirl/LUTS/Dark_Muted_Cool_Cinematic_2.cube
#Created by: Adobe Photoshop Export Color Lookup Plugin
TITLE "ComfyUI_00055_.png"
#LUT size
LUT_3D_SIZE 9
#data domain
DOMAIN_MIN 0.0 0.0 0.0
DOMAIN_MAX 1.0 1.0 1.0
#LUT data points
0.105988 0.141144 0.203918
0.133606 0.129456 0.196136
0.180847 0.129517 0.192108
0.216217 0.133453 0.176575
0.251495 0.141144 0.168762
0.285522 0.144928 0.168762
0.325073 0.164368 0.184143
0.380157 0.184265 0.192108
0.439331 0.219543 0.203918
0.082367 0.156891 0.188171
0.129578 0.149078 0.172485
0.169159 0.149048 0.176361
0.212250 0.149109 0.172607
0.247925 0.145569 0.164795
0.285583 0.160645 0.176331
0.325134 0.168793 0.176636
0.376343 0.196045 0.192230
0.447144 0.223633 0.211792
0.094025 0.184601 0.172668
0.121643 0.184601 0.156769
0.165039 0.176880 0.152863
0.212189 0.173065 0.160706
0.244202 0.173340 0.168976
0.285706 0.188385 0.180359
0.333038 0.203979 0.188202
0.391998 0.223602 0.200104
0.451508 0.255402 0.227509
0.110138 0.212402 0.172760
0.125763 0.216217 0.172577
0.153381 0.212494 0.156799
0.208618 0.216309 0.157135
0.248413 0.216553 0.161133
0.297821 0.220337 0.180237
0.356537 0.243713 0.207458
0.411957 0.267609 0.227570
0.490814 0.307037 0.251740
0.134399 0.260071 0.189026
0.142181 0.264008 0.181274
0.170044 0.268097 0.173187
0.217010 0.268311 0.169464
0.272552 0.276306 0.177612
0.329498 0.287506 0.192291
0.388733 0.303741 0.223267
0.455963 0.334991 0.247711
0.534698 0.374481 0.283051
0.191254 0.335846 0.226776
0.199066 0.339752 0.222839
0.219116 0.343750 0.210907
0.259094 0.348053 0.207367
0.314240 0.355865 0.211456
0.386322 0.378723 0.230438
0.456970 0.405762 0.253876
0.531647 0.437408 0.285400
0.625610 0.484222 0.339996
0.277710 0.449799 0.281769
0.300903 0.453644 0.285553
0.320831 0.465363 0.277710
0.352448 0.473175 0.273682
0.403656 0.485260 0.281616
0.468506 0.504333 0.293060
0.551025 0.531555 0.316620
0.641571 0.578766 0.351868
0.751343 0.629639 0.406799
0.442413 0.622467 0.391510
0.442566 0.622559 0.391541
0.466064 0.630371 0.383789
0.486542 0.639038 0.380035
0.545319 0.673553 0.383789
0.609863 0.688812 0.402863
0.700470 0.728210 0.426575
0.810364 0.786926 0.469696
0.928558 0.846100 0.517181
0.666656 0.866669 0.548950
0.666870 0.866730 0.541260
0.678772 0.874634 0.545044
0.721954 0.894257 0.541138
0.750183 0.910492 0.541443
0.810791 0.933105 0.548950
0.889343 0.952698 0.576324
0.948639 0.968719 0.580444
1.000000 0.968750 0.584381
0.082214 0.141083 0.243408
0.129578 0.133331 0.223633
0.169098 0.133362 0.219604
0.208191 0.137360 0.211761
0.243835 0.141327 0.203949
0.281494 0.145081 0.196411
0.325073 0.160645 0.207825
0.372314 0.184265 0.211823
0.435364 0.219543 0.227539
0.082397 0.156891 0.215698
0.117828 0.152954 0.215729
0.157166 0.152954 0.211884
0.200531 0.149109 0.204010
0.247711 0.152985 0.200195
0.277863 0.156769 0.196442
0.321198 0.172607 0.204102
0.380096 0.196045 0.215668
0.443237 0.227417 0.235535
0.082642 0.180786 0.211792
0.110077 0.180695 0.207825
0.153320 0.176819 0.188477
0.204437 0.176910 0.196259
0.240082 0.180817 0.203827
0.281616 0.188324 0.203857
0.332733 0.200104 0.211884
0.388000 0.227417 0.227386
0.455231 0.259186 0.251282
0.106293 0.212372 0.208069
0.114258 0.216217 0.200104
0.153320 0.212463 0.180786
0.208557 0.212555 0.188477
0.252014 0.216553 0.188782
0.293854 0.220459 0.204102
0.345123 0.247528 0.223511
0.404297 0.267456 0.239899
0.486633 0.306946 0.270966
0.134613 0.264069 0.216461
0.145782 0.260376 0.208588
0.169922 0.268127 0.200867
0.213257 0.268311 0.196747
0.264709 0.276154 0.193359
0.325989 0.287506 0.211884
0.388611 0.307404 0.235931
0.452271 0.335052 0.267456
0.534729 0.386047 0.310791
0.191498 0.336060 0.246857
0.202637 0.339874 0.246552
0.226440 0.340149 0.238770
0.251495 0.347931 0.226929
0.314117 0.363220 0.235138
0.378479 0.378571 0.250244
0.453094 0.401978 0.266022
0.524109 0.429596 0.297577
0.625580 0.484436 0.344696
0.289062 0.446014 0.301849
0.300995 0.457550 0.305359
0.317017 0.457886 0.293793
0.348602 0.473358 0.297119
0.404053 0.485199 0.297394
0.472260 0.511871 0.312958
0.551147 0.531799 0.332489
0.641510 0.582489 0.367889
0.751282 0.633728 0.418884
0.438538 0.626221 0.407227
0.454132 0.618835 0.403687
0.469879 0.630493 0.399628
0.509369 0.654053 0.403320
0.545990 0.666351 0.392609
0.617889 0.696533 0.418945
0.708130 0.735809 0.450165
0.814240 0.783081 0.485443
0.924683 0.846161 0.532867
0.670532 0.866669 0.556976
0.686188 0.870575 0.564667
0.694275 0.874695 0.560883
0.718323 0.894318 0.557007
0.765442 0.914215 0.556976
0.807312 0.933105 0.564545
0.893280 0.956696 0.580658
0.948730 0.968719 0.596130
1.000000 0.968781 0.600128
0.078705 0.133270 0.290558
0.125610 0.129364 0.274933
0.160980 0.133331 0.259094
0.196594 0.137482 0.247253
0.235870 0.141388 0.239624
0.266022 0.148926 0.235992
0.309570 0.164581 0.236023
0.364441 0.184418 0.247559
0.431244 0.223511 0.266968
0.062714 0.153015 0.270813
0.102142 0.152985 0.266968
0.153168 0.149078 0.251221
0.192657 0.152954 0.243408
0.228058 0.153198 0.243317
0.273590 0.164581 0.239502
0.317139 0.176575 0.239716
0.368408 0.199921 0.247467
0.431335 0.231445 0.267090
0.090332 0.184601 0.239563
0.106232 0.180725 0.239594
0.145355 0.173035 0.235718
0.184998 0.176971 0.239746
0.228119 0.180939 0.243378
0.269958 0.188538 0.239716
0.324829 0.204071 0.247528
0.380310 0.227661 0.263092
0.458923 0.259308 0.278931
0.102539 0.212280 0.239716
0.114288 0.212341 0.239746
0.145660 0.216278 0.243469
0.197021 0.212524 0.223969
0.240540 0.220306 0.231934
0.289734 0.228027 0.243805
0.344604 0.247589 0.262878
0.400391 0.271423 0.279083
0.482880 0.310822 0.306793
0.146118 0.260132 0.248260
0.157715 0.260315 0.252075
0.173798 0.264282 0.248047
0.209290 0.264557 0.228485
0.272308 0.276154 0.236389
0.318329 0.291412 0.251740
0.380981 0.311188 0.275177
0.448303 0.339142 0.303284
0.530884 0.382599 0.338531
0.203064 0.332062 0.285950
0.203308 0.332367 0.286102
0.222900 0.343781 0.278290
0.258850 0.351746 0.270294
0.313934 0.363251 0.270416
0.374725 0.378632 0.278137
0.452881 0.402069 0.301544
0.524048 0.437469 0.333130
0.614197 0.484741 0.380310
0.301147 0.453552 0.344757
0.301422 0.453705 0.344666
0.324677 0.461456 0.348419
0.356232 0.473358 0.336670
0.396545 0.489197 0.325653
0.464539 0.511993 0.348267
0.543518 0.528198 0.360291
0.637848 0.582611 0.399414
0.751251 0.637634 0.450653
0.446472 0.618530 0.435303
0.461792 0.626343 0.442993
0.481567 0.634583 0.443115
0.505768 0.650238 0.435364
0.549438 0.670227 0.439270
0.621246 0.696533 0.450470
0.704376 0.736053 0.474213
0.802979 0.783325 0.509613
0.924683 0.853760 0.568481
0.670959 0.862823 0.588898
0.671112 0.862946 0.588776
0.694550 0.882446 0.592560
0.722443 0.890411 0.596466
0.765808 0.914398 0.600311
0.815155 0.929657 0.589172
0.881683 0.952942 0.612030
0.941101 0.968750 0.619873
1.000000 0.972656 0.631561
0.093781 0.125641 0.334015
0.121704 0.129364 0.329773
0.157074 0.133301 0.306244
0.188843 0.141266 0.278839
0.224243 0.145325 0.274933
0.262299 0.156555 0.271271
0.297821 0.168579 0.274750
0.364014 0.192200 0.290466
0.431122 0.231140 0.310242
0.066315 0.152802 0.310455
0.102081 0.152863 0.310425
0.149231 0.145233 0.302429
0.180969 0.153015 0.278717
0.224121 0.157074 0.271149
0.258514 0.164642 0.271179
0.309387 0.180511 0.278717
0.364197 0.203857 0.286713
0.431213 0.239441 0.310394
0.070770 0.180786 0.282806
0.086426 0.180725 0.286621
0.133667 0.176910 0.286804
0.184753 0.176971 0.271149
0.224213 0.184753 0.278656
0.265839 0.184937 0.274780
0.313385 0.207977 0.283051
0.376343 0.231567 0.298523
0.455017 0.267120 0.322388
0.106323 0.212280 0.267242
0.118195 0.212402 0.271118
0.141907 0.212494 0.263672
0.185303 0.212646 0.271515
0.228607 0.220459 0.279419
0.278046 0.228149 0.286774
0.333374 0.244171 0.291138
0.400085 0.279114 0.314606
0.478851 0.310944 0.338409
0.134674 0.263855 0.287109
0.150177 0.264008 0.283478
0.177704 0.268005 0.294891
0.205536 0.272064 0.287628
0.264740 0.276306 0.279877
0.310303 0.287903 0.295166
0.377106 0.315399 0.319092
0.444122 0.342804 0.353668
0.530975 0.386475 0.382019
0.202759 0.335968 0.317688
0.210846 0.332336 0.314178
0.234650 0.336548 0.321838
0.262421 0.347931 0.321838
0.310211 0.367584 0.321655
0.378510 0.378845 0.325531
0.441376 0.402496 0.345184
0.519836 0.441772 0.388306
0.614258 0.496094 0.430908
0.312683 0.453461 0.387817
0.324493 0.450043 0.387878
0.332916 0.457855 0.388275
0.360504 0.469696 0.388214
0.407654 0.489258 0.384216
0.464447 0.508209 0.384064
0.543274 0.539673 0.404175
0.645142 0.590118 0.443085
0.743469 0.641602 0.497833
0.473755 0.622406 0.486053
0.474182 0.622589 0.486328
0.482361 0.630646 0.486267
0.525177 0.654053 0.490295
0.561005 0.677460 0.490265
0.617920 0.696991 0.487000
0.700653 0.736084 0.517548
0.814117 0.794739 0.560486
0.924683 0.853912 0.611633
0.694122 0.866669 0.647583
0.694366 0.866669 0.628296
0.706818 0.874756 0.632507
0.741943 0.898254 0.644257
0.773834 0.910492 0.640076
0.819427 0.940796 0.640594
0.889343 0.964355 0.647980
0.948547 0.972565 0.659454
0.996216 0.968750 0.659668
0.089966 0.125519 0.369507
0.102539 0.129364 0.365234
0.152710 0.133270 0.349487
0.196167 0.137238 0.322205
0.220306 0.149109 0.306580
0.258423 0.156647 0.302795
0.297852 0.172577 0.310211
0.352722 0.199707 0.321960
0.419678 0.231415 0.345520
0.051819 0.148956 0.357208
0.094055 0.148956 0.353516
0.137634 0.145203 0.338104
0.177368 0.149200 0.322357
0.220306 0.160950 0.302826
0.261780 0.164978 0.302979
0.305481 0.184418 0.306976
0.360565 0.211578 0.325989
0.427307 0.243378 0.349487
0.031433 0.177032 0.334015
0.066803 0.173126 0.334015
0.114624 0.176941 0.330170
0.173431 0.177032 0.322357
0.216553 0.184906 0.306671
0.258514 0.188812 0.303284
0.309814 0.208038 0.318085
0.372528 0.235718 0.337616
0.439789 0.267365 0.354004
0.114044 0.212402 0.302795
0.110443 0.212372 0.306580
0.134094 0.212646 0.310791
0.169983 0.212952 0.311218
0.232483 0.224487 0.311096
0.281311 0.235992 0.318298
0.329468 0.251984 0.334259
0.396088 0.283173 0.357574
0.482880 0.322845 0.377930
0.138458 0.264282 0.315002
0.154266 0.264038 0.311066
0.178162 0.268188 0.319061
0.209503 0.275970 0.326813
0.256927 0.280212 0.334717
0.306488 0.291809 0.342712
0.373260 0.319153 0.365723
0.451813 0.354156 0.389313
0.530945 0.394318 0.413696
0.206818 0.339630 0.352661
0.214478 0.336273 0.352875
0.238617 0.343811 0.353241
0.269867 0.351715 0.360992
0.310181 0.363831 0.372864
0.374969 0.382629 0.368988
0.444946 0.410095 0.400177
0.516083 0.445404 0.431122
0.602936 0.496246 0.470306
0.320312 0.457703 0.415863
0.331757 0.457703 0.419434
0.336853 0.458069 0.423431
0.372314 0.469940 0.427612
0.411713 0.489349 0.439392
0.468994 0.519653 0.436096
0.554840 0.554779 0.466187
0.637512 0.586853 0.490326
0.743378 0.649567 0.549042
0.488831 0.626434 0.521515
0.485687 0.626587 0.521729
0.501892 0.630920 0.529724
0.533417 0.650391 0.541321
0.569427 0.670532 0.541840
0.640442 0.711609 0.549408
0.708496 0.744263 0.568817
0.825989 0.806427 0.608368
0.932312 0.861542 0.659027
0.706146 0.863068 0.675385
0.714111 0.870697 0.683014
0.737549 0.878601 0.694916
0.750427 0.890717 0.691772
0.789185 0.914093 0.698975
0.830597 0.937042 0.703430
0.885895 0.964355 0.695465
0.945007 0.968872 0.706940
0.999847 0.972656 0.703003
0.089996 0.129303 0.407227
0.106293 0.129303 0.406921
0.141479 0.133209 0.394989
0.184723 0.137360 0.367920
0.223755 0.148956 0.347931
0.254486 0.160461 0.336792
0.301575 0.180176 0.344330
0.356506 0.203552 0.356018
0.423431 0.239197 0.372192
0.063110 0.145203 0.395203
0.079010 0.148926 0.395264
0.133667 0.145203 0.379974
0.184540 0.149109 0.367767
0.224152 0.157043 0.351868
0.250824 0.172455 0.333038
0.301819 0.184448 0.344513
0.360535 0.215363 0.356171
0.435059 0.247162 0.372406
0.053284 0.176880 0.375824
0.070526 0.173279 0.372223
0.114868 0.176880 0.375549
0.169769 0.173279 0.371613
0.220642 0.184723 0.351746
0.258331 0.196259 0.344360
0.313293 0.215607 0.348419
0.376251 0.239563 0.368103
0.443542 0.278656 0.391968
0.075745 0.212524 0.355621
0.087402 0.216156 0.367035
0.115326 0.220032 0.363586
0.173462 0.216797 0.360229
0.224915 0.220886 0.363983
0.278046 0.235870 0.352509
0.333374 0.255798 0.364502
0.400177 0.286957 0.388062
0.479065 0.330353 0.412079
0.153900 0.264404 0.345032
0.154419 0.268005 0.348694
0.181793 0.271637 0.352356
0.206268 0.275848 0.364105
0.249573 0.284424 0.372986
0.306274 0.295593 0.376648
0.369690 0.323090 0.395996
0.447845 0.354370 0.416473
0.527039 0.401855 0.459076
0.218048 0.339996 0.375641
0.222534 0.343597 0.379242
0.246490 0.347778 0.387115
0.277924 0.352081 0.391266
0.314240 0.367981 0.403198
0.370697 0.386444 0.418030
0.448883 0.421295 0.449402
0.523865 0.452942 0.472748
0.614258 0.508057 0.516083
0.316864 0.461456 0.449860
0.332214 0.465271 0.449921
0.348145 0.469238 0.453705
0.379883 0.477295 0.461731
0.419891 0.493042 0.477356
0.483734 0.523438 0.500183
0.562561 0.558716 0.515900
0.648895 0.601868 0.554779
0.747437 0.664795 0.602142
0.485229 0.630219 0.559387
0.493164 0.626587 0.559387
0.509460 0.642303 0.563660
0.548340 0.661438 0.575470
0.588501 0.674225 0.591370
0.648895 0.716003 0.617584
0.715973 0.755280 0.621765
0.833832 0.813965 0.668854
0.932251 0.869232 0.712219
0.713684 0.866791 0.713348
0.736664 0.878204 0.724762
0.745239 0.886108 0.732910
0.780365 0.902191 0.744598
0.808350 0.918243 0.756042
0.834717 0.936768 0.752075
0.889496 0.964264 0.759674
0.944885 0.972565 0.755920
0.999878 0.972656 0.752075
0.097931 0.129364 0.442841
0.106140 0.125671 0.435150
0.141541 0.129578 0.430725
0.177551 0.133453 0.414948
0.217010 0.145203 0.399078
0.266083 0.156616 0.384094
0.301605 0.184082 0.376007
0.356506 0.207581 0.387848
0.427185 0.243225 0.411346
0.070374 0.145172 0.434937
0.090363 0.145233 0.434845
0.122498 0.148956 0.434540
0.181091 0.149048 0.411285
0.224152 0.157043 0.402954
0.262115 0.168671 0.384125
0.301575 0.192108 0.380035
0.360535 0.219421 0.395630
0.435455 0.255096 0.415405
0.051270 0.176941 0.419159
0.070923 0.176941 0.418915
0.114655 0.176941 0.418854
0.169434 0.180664 0.411377
0.220459 0.181091 0.406982
0.269806 0.196106 0.391846
0.313568 0.219543 0.391724
0.376434 0.243622 0.403717
0.451202 0.282837 0.423523
0.037201 0.219971 0.414581
0.071136 0.216309 0.407349
0.118439 0.216461 0.407501
0.181122 0.216675 0.403839
0.232391 0.224548 0.407776
0.285614 0.243591 0.411255
0.337128 0.259644 0.407623
0.404022 0.294678 0.419800
0.482849 0.334290 0.454865
0.127869 0.268188 0.395782
0.135529 0.271973 0.403320
0.158905 0.272186 0.414551
0.198242 0.283691 0.423218
0.256683 0.291840 0.431335
0.317352 0.303406 0.435364
0.380768 0.330566 0.439148
0.448120 0.362396 0.459137
0.534454 0.409790 0.487122
0.229706 0.347687 0.410980
0.230347 0.351532 0.422394
0.257355 0.355316 0.430023
0.288635 0.363373 0.434753
0.321411 0.379089 0.454529
0.370758 0.398163 0.473145
0.445160 0.421509 0.484650
0.527588 0.464661 0.508484
0.629303 0.519684 0.559021
0.339752 0.465363 0.481201
0.344025 0.469177 0.485016
0.363831 0.473389 0.485443
0.395477 0.485107 0.501038
0.435089 0.501221 0.513092
0.487885 0.531372 0.535706
0.558685 0.558838 0.559204
0.645447 0.609833 0.606323
0.747498 0.668640 0.653320
0.496948 0.642120 0.595062
0.509033 0.642456 0.595398
0.520935 0.653839 0.610535
0.560028 0.669586 0.618713
0.607544 0.689575 0.631042
0.664459 0.727631 0.665039
0.743011 0.770935 0.700378
0.841644 0.818268 0.724243
0.932373 0.877228 0.771484
0.733337 0.886108 0.764191
0.741180 0.886322 0.764404
0.749512 0.898010 0.772430
0.769714 0.902557 0.776489
0.808868 0.918396 0.788727
0.865814 0.944702 0.818817
0.901550 0.964264 0.826508
0.940826 0.972565 0.803345
0.988434 0.968750 0.803436
0.105957 0.129395 0.478149
0.117737 0.129425 0.470428
0.141388 0.129517 0.466522
0.184540 0.137238 0.458618
0.223969 0.149109 0.450500
0.258240 0.160461 0.435364
0.309479 0.184113 0.427063
0.364227 0.215485 0.419342
0.435364 0.254883 0.454742
0.078339 0.145142 0.470306
0.098022 0.145233 0.470306
0.125854 0.149109 0.466370
0.173187 0.149231 0.462341
0.216644 0.160980 0.446625
0.262238 0.176331 0.439178
0.317200 0.195831 0.430969
0.372314 0.227203 0.430969
0.435577 0.266785 0.454865
0.039948 0.176880 0.462402
0.082153 0.176941 0.458649
0.117859 0.176910 0.458588
0.165497 0.180939 0.458557
0.216766 0.188751 0.454437
0.270050 0.192535 0.443146
0.328888 0.219727 0.439117
0.376678 0.251434 0.443176
0.459045 0.294525 0.466766
0.070618 0.216400 0.451080
0.078644 0.220367 0.454865
0.126312 0.220337 0.454803
0.169891 0.224426 0.458923
0.228912 0.232178 0.458862
0.289215 0.243774 0.459167
0.349091 0.263397 0.455292
0.415649 0.306671 0.466827
0.494476 0.345947 0.494263
0.112122 0.272125 0.458618
0.123871 0.275879 0.466187
0.139893 0.279907 0.470520
0.201904 0.287842 0.470978
0.253479 0.296112 0.475128
0.321564 0.311066 0.490021
0.385162 0.334686 0.487030
0.459991 0.374268 0.502716
0.546570 0.421478 0.534363
0.221619 0.359192 0.473785
0.222137 0.355438 0.473755
0.238434 0.363251 0.481781
0.284851 0.378876 0.497589
0.325165 0.387268 0.513672
0.378540 0.406006 0.528259
0.464630 0.433411 0.547699
0.535706 0.468872 0.559296
0.626007 0.527618 0.602478
0.340179 0.473175 0.524567
0.355865 0.477112 0.528381
0.382874 0.484894 0.528656
0.414368 0.496887 0.544312
0.450500 0.513245 0.564331
0.503571 0.546936 0.594635
0.566711 0.578491 0.625885
0.657135 0.625427 0.649658
0.771027 0.688293 0.696625
0.520660 0.657806 0.642334
0.536194 0.657898 0.638550
0.540619 0.661987 0.642731
0.572266 0.674133 0.650818
0.630463 0.705200 0.673889
0.676300 0.739288 0.700684
0.766724 0.782745 0.739838
0.849487 0.841675 0.794830
0.944214 0.893005 0.834595
0.748871 0.894012 0.803741
0.756744 0.902008 0.811493
0.768890 0.902313 0.815521
0.788818 0.921509 0.827087
0.828247 0.937347 0.835724
0.877533 0.956299 0.854553
0.917175 0.956726 0.858673
0.944885 0.964630 0.862640
0.992096 0.964630 0.850800
0.097931 0.133331 0.517700
0.117859 0.133362 0.517670
0.129730 0.133484 0.509888
0.181152 0.137482 0.505859
0.220459 0.145355 0.489807
0.269775 0.164246 0.486084
0.324738 0.184296 0.478455
0.376282 0.219391 0.478394
0.443237 0.274475 0.497925
0.070679 0.149048 0.509857
0.094116 0.149109 0.509857
0.141418 0.149078 0.509735
0.169617 0.153107 0.505859
0.224304 0.161194 0.490112
0.269836 0.172760 0.486328
0.321350 0.195984 0.478546
0.380280 0.227386 0.478546
0.447205 0.274628 0.502136
0.062531 0.180847 0.509735
0.078888 0.180786 0.502045
0.125977 0.177032 0.497986
0.181152 0.181000 0.498047
0.220764 0.192657 0.502075
0.273834 0.204132 0.494476
0.336945 0.223755 0.494171
0.396118 0.255341 0.490417
0.474640 0.314026 0.514099
0.078949 0.220337 0.498047
0.079376 0.220367 0.498047
0.134216 0.220581 0.502289
0.178070 0.232178 0.502441
0.240601 0.240356 0.514038
0.290009 0.247925 0.517944
0.360870 0.275085 0.510712
0.431396 0.306854 0.525635
0.502899 0.361725 0.541840
0.115936 0.283813 0.514252
0.134979 0.287598 0.518005
0.147552 0.284119 0.514557
0.194733 0.292053 0.522217
0.276611 0.303894 0.530182
0.333344 0.315826 0.538025
0.401062 0.342957 0.553619
0.483154 0.378387 0.561676
0.562195 0.429626 0.581665
0.214233 0.367371 0.533112
0.225861 0.367371 0.533142
0.249969 0.378967 0.548584
0.281830 0.383209 0.560089
0.329865 0.398682 0.568237
0.401703 0.421234 0.587128
0.472717 0.441467 0.599091
0.558868 0.488037 0.626068
0.653320 0.547119 0.649872
0.359283 0.492706 0.579926
0.367126 0.488953 0.580109
0.379456 0.500702 0.587891
0.418396 0.516357 0.603973
0.458069 0.532166 0.623749
0.503693 0.551147 0.650116
0.586121 0.590332 0.681305
0.688263 0.645203 0.716705
0.786835 0.704224 0.740082
0.540344 0.665833 0.673981
0.551971 0.665894 0.677948
0.560211 0.673737 0.685760
0.607391 0.697449 0.705688
0.642944 0.709839 0.717926
0.711426 0.762695 0.759521
0.774689 0.806152 0.806610
0.857422 0.845856 0.850128
0.959961 0.905060 0.881714
0.764587 0.909882 0.843231
0.772736 0.917694 0.851044
0.799927 0.921539 0.851044
0.812286 0.933228 0.866669
0.847748 0.945190 0.870880
0.877930 0.956543 0.889771
0.913635 0.964508 0.893921
0.956543 0.964569 0.897949
0.980469 0.968750 0.897919
