custom_nodes/comfyui-vrgamedevgirl/LUTS/Dark_Soft_Vivid_Warm.cube
#Created by: Adobe Photoshop Export Color Lookup Plugin
#Copyright: (C) Copyright 2017 PremiumBeat.com
TITLE "Prague"
#LUT size
LUT_3D_SIZE 4
#data domain
DOMAIN_MIN 0.0 0.0 0.0
DOMAIN_MAX 1.0 1.0 1.0
#LUT data points
0.091034 0.000000 0.000000
0.253357 0.000000 0.000000
0.600922 0.000000 0.000031
0.821503 0.000000 0.000061
0.075989 0.229950 0.000000
0.259186 0.231354 0.000000
0.611237 0.205780 0.000031
0.833710 0.185516 0.000061
0.000000 0.589996 0.000000
0.215698 0.598267 0.000000
0.630920 0.610107 0.000000
0.856812 0.587738 0.000000
0.000000 0.827209 0.000000
0.156647 0.836182 0.000000
0.604340 0.852112 0.000000
0.872070 0.861877 0.000000
0.086487 0.000000 0.225616
0.254791 0.000000 0.227081
0.602875 0.000000 0.209534
0.823792 0.000000 0.192169
0.056091 0.236267 0.236267
0.247253 0.217346 0.217346
0.627991 0.160370 0.160370
0.863220 0.114746 0.114746
0.000000 0.613739 0.174255
0.173859 0.601166 0.145111
0.622009 0.601288 0.130280
0.860077 0.576202 0.076263
0.000000 0.853699 0.102020
0.086365 0.840515 0.049835
0.588074 0.844482 0.016541
0.854980 0.845825 0.000000
0.082764 0.000000 0.563232
0.245361 0.000000 0.568390
0.607025 0.000000 0.577515
0.828552 0.000000 0.571198
0.019257 0.197540 0.612976
0.203247 0.172821 0.600372
0.628235 0.159729 0.599030
0.863434 0.116364 0.573853
0.000000 0.615692 0.615692
0.169098 0.601410 0.601410
0.582794 0.564148 0.564148
0.822388 0.537384 0.537384
0.000000 0.855927 0.591766
0.080170 0.841583 0.574860
0.538849 0.809814 0.528168
0.818237 0.810760 0.526459
0.080658 0.000000 0.775055
0.241699 0.000000 0.781067
0.598633 0.000000 0.794128
0.832764 0.000000 0.804413
0.000397 0.175415 0.847076
0.179474 0.150330 0.834015
0.605194 0.138855 0.837250
0.863586 0.117493 0.837189
0.000000 0.593506 0.853271
0.142883 0.576874 0.838654
0.550110 0.532074 0.807983
0.823669 0.530914 0.808380
0.000000 0.857910 0.857910
0.079437 0.843475 0.843475
0.537537 0.810730 0.810730
0.792358 0.786591 0.786591
