custom_nodes/comfyui-vrgamedevgirl/LUTS/Dark_High_Contrast_Vivid_Cinematic.cube
#Created by: Adobe Photoshop Export Color Lookup Plugin
#Copyright: (C) Copyright 2017 PremiumBeat
TITLE "Everest"
#LUT size
LUT_3D_SIZE 64
#data domain
DOMAIN_MIN 0.0 0.0 0.0
DOMAIN_MAX 1.0 1.0 1.0
#LUT data points
0.000305 0.000458 0.000977
0.001740 0.000458 0.000977
0.003571 0.000519 0.001038
0.005676 0.000549 0.001068
0.008118 0.000641 0.001068
0.010956 0.000763 0.001190
0.014069 0.000824 0.001251
0.017639 0.001068 0.001434
0.021454 0.001251 0.001740
0.025818 0.001587 0.002289
0.030548 0.001984 0.003082
0.035706 0.002594 0.004364
0.041168 0.002899 0.005157
0.046997 0.002869 0.005157
0.053284 0.002777 0.005066
0.060211 0.002747 0.005066
0.067780 0.002686 0.005005
0.076111 0.002625 0.004974
0.085205 0.002563 0.004974
0.095367 0.002502 0.004913
0.106506 0.002441 0.004974
0.118805 0.002319 0.004883
0.132385 0.002289 0.004974
0.147308 0.002228 0.005066
0.163635 0.002106 0.005096
0.181458 0.002075 0.005249
0.200897 0.001984 0.005341
0.221954 0.001892 0.005524
0.244812 0.001831 0.005707
0.269379 0.001740 0.005859
0.295837 0.001648 0.006226
0.324219 0.001617 0.006500
0.354584 0.001526 0.006775
0.386688 0.001495 0.007202
0.419037 0.001434 0.007568
0.451538 0.001404 0.008057
0.483887 0.001404 0.008362
0.515564 0.001343 0.008789
0.546539 0.001251 0.009003
0.576538 0.001221 0.009491
0.605316 0.001190 0.009674
0.632721 0.001129 0.009888
0.658691 0.001038 0.010071
0.683136 0.000977 0.009949
0.705963 0.000916 0.010101
0.727020 0.000824 0.010193
0.746490 0.000763 0.010284
0.764130 0.000702 0.010101
0.780060 0.000610 0.010162
0.794373 0.000549 0.010162
0.807037 0.000488 0.009888
0.818481 0.000427 0.009949
0.828796 0.000366 0.009949
0.838043 0.000305 0.009949
0.846436 0.000275 0.009949
0.854034 0.000244 0.009674
0.861053 0.000214 0.009735
0.867371 0.000183 0.009735
0.873260 0.000153 0.009735
0.878601 0.000122 0.009735
0.883514 0.000092 0.009735
0.887909 0.000061 0.009735
0.891876 0.000061 0.009766
0.895294 0.000000 0.009674
0.000366 0.002502 0.001068
0.001862 0.002594 0.001251
0.003693 0.002655 0.001282
0.005829 0.002716 0.001251
0.008301 0.002777 0.001282
0.011139 0.002930 0.001434
0.014282 0.003082 0.001556
0.017822 0.003296 0.001892
0.021729 0.003540 0.002289
0.026062 0.003998 0.003052
0.030823 0.004517 0.004089
0.035889 0.005035 0.005280
0.041199 0.004974 0.005249
0.047028 0.004913 0.005249
0.053284 0.004822 0.005157
0.060211 0.004822 0.005157
0.067780 0.004730 0.005157
0.076141 0.004730 0.005157
0.085236 0.004578 0.005066
0.095398 0.004517 0.005005
0.106537 0.004486 0.005066
0.118835 0.004395 0.005066
0.132416 0.004303 0.005096
0.147308 0.004242 0.005157
0.163635 0.004120 0.005188
0.181488 0.004059 0.005341
0.200897 0.004028 0.005371
0.221954 0.003876 0.005615
0.244812 0.003845 0.005829
0.269379 0.003784 0.006012
0.295837 0.003723 0.006317
0.324188 0.003632 0.006531
0.354553 0.003571 0.006958
0.386658 0.003540 0.007416
0.419037 0.003448 0.007660
0.451508 0.003418 0.008057
0.483887 0.003387 0.008484
0.515564 0.003326 0.008911
0.546539 0.003296 0.009216
0.576538 0.003235 0.009521
0.605316 0.003174 0.009827
0.632721 0.003113 0.009857
0.658661 0.003052 0.010162
0.683136 0.002960 0.010193
0.705933 0.002869 0.010193
0.727051 0.002808 0.010223
0.746460 0.002716 0.010223
0.764069 0.002655 0.010223
0.780060 0.002563 0.010223
0.794312 0.002502 0.010193
0.807037 0.002441 0.010193
0.818451 0.002380 0.009888
0.828766 0.002319 0.009857
0.838013 0.002289 0.009888
0.846436 0.002258 0.009857
0.854034 0.002197 0.009827
0.861023 0.002167 0.009827
0.867371 0.002136 0.009827
0.873230 0.002075 0.009766
0.878571 0.002075 0.009735
0.883453 0.002045 0.009735
0.887909 0.002045 0.009766
0.891876 0.002014 0.009735
0.895294 0.002014 0.009766
0.000427 0.004944 0.001282
0.001984 0.005066 0.001343
0.003876 0.005188 0.001495
0.006073 0.005219 0.001556
0.008545 0.005371 0.001648
0.011383 0.005493 0.001801
0.014557 0.005707 0.002045
0.018097 0.005951 0.002411
0.022034 0.006348 0.003174
0.026367 0.006775 0.004059
0.031097 0.007385 0.005432
0.035919 0.007355 0.005432
0.041229 0.007324 0.005371
0.047028 0.007263 0.005371
0.053314 0.007202 0.005280
0.060242 0.007172 0.005280
0.067810 0.007111 0.005249
0.076172 0.007050 0.005249
0.085266 0.006958 0.005157
0.095398 0.006866 0.005188
0.106506 0.006775 0.005188
0.118866 0.006744 0.005188
0.132446 0.006653 0.005280
0.147308 0.006592 0.005280
0.163666 0.006500 0.005371
0.181519 0.006409 0.005524
0.200928 0.006348 0.005615
0.221985 0.006287 0.005798
0.244812 0.006226 0.006012
0.269409 0.006073 0.006165
0.295868 0.006042 0.006500
0.324219 0.005981 0.006775
0.354584 0.005981 0.007202
0.386658 0.005890 0.007477
0.419037 0.005798 0.007935
0.451508 0.005829 0.008301
0.483887 0.005768 0.008636
0.515564 0.005676 0.009003
0.546509 0.005676 0.009338
0.576508 0.005554 0.009613
0.605286 0.005463 0.009674
0.632690 0.005402 0.010071
0.658661 0.005371 0.010010
0.683105 0.005280 0.010162
0.705933 0.005219 0.010315
0.727020 0.005127 0.010193
0.746460 0.005066 0.010162
0.764038 0.004974 0.010315
0.780029 0.004852 0.010193
0.794312 0.004791 0.010162
0.807007 0.004730 0.010071
0.818451 0.004700 0.010010
0.828705 0.004608 0.009949
0.837982 0.004547 0.009857
0.846405 0.004517 0.009857
0.854034 0.004517 0.009827
0.861023 0.004486 0.009766
0.867340 0.004425 0.009735
0.873230 0.004395 0.009674
0.878571 0.004364 0.009949
0.883453 0.004333 0.009644
0.887878 0.004303 0.009613
0.891876 0.004303 0.009613
0.895294 0.004272 0.009552
0.000610 0.007721 0.001404
0.002167 0.007874 0.001556
0.004028 0.007965 0.001678
0.006317 0.008148 0.001892
0.008789 0.008301 0.002045
0.011688 0.008514 0.002380
0.014832 0.008759 0.002747
0.018433 0.009155 0.003510
0.022369 0.009552 0.004364
0.026672 0.010101 0.005615
0.031128 0.010040 0.005554
0.035950 0.010010 0.005554
0.041229 0.009949 0.005524
0.047028 0.009918 0.005463
0.053345 0.009888 0.005463
0.060272 0.009827 0.005432
0.067841 0.009735 0.005371
0.076172 0.009705 0.005371
0.085297 0.009583 0.005341
0.095398 0.009552 0.005371
0.106537 0.009491 0.005341
0.118896 0.009399 0.005371
0.132477 0.009369 0.005432
0.147369 0.009277 0.005463
0.163696 0.009186 0.005524
0.181549 0.009125 0.005646
0.200958 0.009003 0.005798
0.222015 0.008972 0.005951
0.244843 0.008850 0.006134
0.269440 0.008789 0.006409
0.295898 0.008789 0.006714
0.324249 0.008698 0.007019
0.354614 0.008667 0.007355
0.386688 0.008545 0.007751
0.419098 0.008545 0.008179
0.451538 0.008484 0.008484
0.483887 0.008392 0.008850
0.515594 0.008331 0.009216
0.546539 0.008301 0.009491
0.576538 0.008209 0.009766
0.605316 0.008179 0.009979
0.632721 0.008057 0.010101
0.658691 0.007935 0.010284
0.683167 0.007904 0.010345
0.705933 0.007812 0.010345
0.727020 0.007721 0.010406
0.746490 0.007599 0.010406
0.764069 0.007568 0.010315
0.780029 0.007599 0.010315
0.794312 0.007416 0.010284
0.807007 0.007355 0.010162
0.818451 0.007385 0.010193
0.828705 0.007202 0.010162
0.837982 0.007141 0.010071
0.846405 0.007111 0.009979
0.854034 0.007111 0.009979
0.861023 0.007080 0.009949
0.867340 0.007080 0.009888
0.873230 0.007080 0.009888
0.878571 0.007050 0.009857
0.883484 0.007019 0.009827
0.887878 0.007019 0.009766
0.891876 0.006805 0.009766
0.895294 0.006775 0.009735
0.000763 0.010956 0.001678
0.002380 0.011108 0.001831
0.004303 0.011292 0.002136
0.006561 0.011475 0.002380
0.009155 0.011780 0.002899
0.011993 0.011963 0.003265
0.015259 0.012421 0.004089
0.018768 0.012817 0.004913
0.022675 0.013184 0.005737
0.026672 0.013123 0.005737
0.031128 0.013062 0.005737
0.035980 0.013031 0.005707
0.041260 0.012970 0.005646
0.047089 0.012939 0.005615
0.053375 0.012909 0.005646
0.060272 0.012878 0.005615
0.067871 0.012756 0.005524
0.076202 0.012756 0.005524
0.085327 0.012604 0.005524
0.095428 0.012604 0.005554
0.106567 0.012512 0.005524
0.118927 0.012451 0.005554
0.132507 0.012390 0.005615
0.147369 0.012299 0.005707
0.163757 0.012238 0.005798
0.181580 0.012115 0.005859
0.200989 0.012054 0.006073
0.222076 0.011963 0.006165
0.244873 0.011932 0.006409
0.269470 0.011871 0.006622
0.295959 0.011810 0.006958
0.324310 0.011749 0.007233
0.354645 0.011658 0.007629
0.386749 0.011597 0.008026
0.419128 0.011597 0.008392
0.451599 0.011536 0.008728
0.483978 0.011383 0.009094
0.515656 0.011383 0.009430
0.546600 0.011353 0.009674
0.576630 0.011292 0.009949
0.605377 0.011169 0.010193
0.632751 0.011200 0.010345
0.658722 0.010956 0.010437
0.683167 0.011047 0.010529
0.705963 0.010895 0.010620
0.727051 0.010834 0.010529
0.746521 0.010773 0.010529
0.764099 0.010620 0.010437
0.780090 0.010498 0.010406
0.794342 0.010559 0.010345
0.807037 0.010376 0.010315
0.818481 0.010284 0.010315
0.828796 0.010284 0.010223
0.838013 0.010284 0.010193
0.846436 0.010071 0.010101
0.854095 0.010101 0.010101
0.861053 0.010101 0.010071
0.867371 0.010101 0.010010
0.873230 0.010101 0.009979
0.878601 0.009918 0.009979
0.883484 0.009918 0.009949
0.887939 0.009918 0.009888
0.891907 0.009918 0.009857
0.895294 0.009918 0.009857
0.001038 0.014679 0.002289
0.002686 0.014862 0.002563
0.004639 0.015045 0.002899
0.006866 0.015320 0.003448
0.009491 0.015656 0.003998
0.012451 0.016113 0.004913
0.015625 0.016541 0.005951
0.019012 0.016541 0.005951
0.022705 0.016541 0.005920
0.026703 0.016479 0.005920
0.031158 0.016449 0.005920
0.036011 0.016388 0.005829
0.041290 0.016327 0.005798
0.047089 0.016296 0.005798
0.053406 0.016266 0.005798
0.060333 0.016205 0.005737
0.067902 0.016113 0.005707
0.076263 0.016083 0.005737
0.085358 0.016022 0.005707
0.095459 0.015961 0.005737
0.106598 0.015900 0.005737
0.118958 0.015839 0.005798
0.132538 0.015717 0.005798
0.147400 0.015625 0.005920
0.163788 0.015625 0.006012
0.181610 0.015503 0.006073
0.201019 0.015472 0.006256
0.222107 0.015320 0.006439
0.244934 0.015320 0.006653
0.269501 0.015228 0.006927
0.295959 0.015167 0.007202
0.324341 0.015106 0.007538
0.354706 0.015076 0.007904
0.386780 0.014984 0.008240
0.419189 0.014923 0.008606
0.451630 0.014954 0.009003
0.484009 0.014801 0.009399
0.515717 0.014709 0.009674
0.546631 0.014679 0.009979
0.576660 0.014709 0.010193
0.605408 0.014557 0.010406
0.632812 0.014404 0.010559
0.658752 0.014313 0.010651
0.683228 0.014313 0.010681
0.706024 0.014252 0.010742
0.727081 0.014130 0.010681
0.746582 0.014160 0.010681
0.764160 0.013885 0.010620
0.780121 0.013824 0.010559
0.794403 0.013794 0.010529
0.807068 0.013672 0.010498
0.818512 0.013733 0.010437
0.828827 0.013611 0.010406
0.838104 0.013641 0.010315
0.846497 0.013458 0.010284
0.854126 0.013489 0.010223
0.861084 0.013367 0.010223
0.867432 0.013336 0.010162
0.873291 0.013397 0.010162
0.878632 0.013397 0.010101
0.883514 0.013245 0.010071
0.887970 0.013245 0.010010
0.891907 0.013275 0.010010
0.895325 0.013275 0.009979
0.001343 0.018860 0.003326
0.003021 0.019073 0.003693
0.004944 0.019348 0.004242
0.007263 0.019745 0.005066
0.009857 0.020172 0.005951
0.012604 0.020203 0.006042
0.015656 0.020233 0.006073
0.019043 0.020233 0.006134
0.022736 0.020203 0.006073
0.026764 0.020142 0.006042
0.031219 0.020111 0.006042
0.036041 0.020050 0.006012
0.041321 0.019989 0.006012
0.047119 0.019958 0.005951
0.053406 0.019928 0.005951
0.060364 0.019897 0.005951
0.067932 0.019836 0.005920
0.076294 0.019775 0.005920
0.085419 0.019684 0.005920
0.095520 0.019623 0.005920
0.106628 0.019531 0.005951
0.118958 0.019501 0.006012
0.132568 0.019409 0.006042
0.147461 0.019348 0.006134
0.163818 0.019318 0.006256
0.181641 0.019196 0.006348
0.201080 0.019165 0.006531
0.222168 0.019073 0.006714
0.244965 0.019043 0.006927
0.269562 0.018951 0.007202
0.295990 0.018890 0.007446
0.324371 0.018860 0.007812
0.354706 0.018707 0.008179
0.386841 0.018677 0.008575
0.419189 0.018646 0.008911
0.451691 0.018585 0.009277
0.484070 0.018585 0.009644
0.515717 0.018494 0.009979
0.546692 0.018341 0.010284
0.576691 0.018311 0.010498
0.605469 0.018280 0.010651
0.632843 0.018127 0.010773
0.658813 0.018158 0.010864
0.683228 0.017975 0.010895
0.706055 0.017853 0.010956
0.727173 0.017822 0.010895
0.746613 0.017731 0.010864
0.764191 0.017609 0.010834
0.780182 0.017548 0.010681
0.794434 0.017578 0.010681
0.807098 0.017303 0.010651
0.818542 0.017242 0.010620
0.828857 0.017303 0.010529
0.838135 0.017212 0.010498
0.846527 0.017120 0.010498
0.854187 0.017181 0.010437
0.861145 0.016998 0.010345
0.867493 0.017059 0.010315
0.873322 0.017090 0.010284
0.878693 0.016937 0.010223
0.883575 0.016968 0.010193
0.888000 0.016815 0.010193
0.891968 0.016815 0.010162
0.895386 0.016876 0.010162
0.001709 0.023712 0.005188
0.003418 0.024048 0.005829
0.005249 0.024048 0.005859
0.007355 0.024078 0.005920
0.009796 0.024139 0.006012
0.012543 0.024170 0.006073
0.015625 0.024200 0.006165
0.019073 0.024261 0.006256
0.022766 0.024261 0.006256
0.026794 0.024231 0.006226
0.031250 0.024170 0.006226
0.036102 0.024109 0.006226
0.041351 0.024078 0.006165
0.047180 0.024017 0.006134
0.053467 0.023987 0.006165
0.060425 0.023926 0.006134
0.067963 0.023895 0.006165
0.076355 0.023804 0.006134
0.085419 0.023773 0.006165
0.095551 0.023712 0.006165
0.106689 0.023651 0.006165
0.118988 0.023560 0.006226
0.132599 0.023468 0.006317
0.147491 0.023407 0.006409
0.163849 0.023376 0.006500
0.181671 0.023285 0.006622
0.201111 0.023224 0.006836
0.222229 0.023132 0.006958
0.244995 0.023102 0.007202
0.269623 0.023041 0.007477
0.296021 0.022980 0.007812
0.324432 0.022888 0.008148
0.354736 0.022888 0.008453
0.386902 0.022797 0.008850
0.419220 0.022736 0.009216
0.451752 0.022705 0.009552
0.484100 0.022614 0.009979
0.515747 0.022583 0.010223
0.546753 0.022552 0.010529
0.576752 0.022430 0.010742
0.605530 0.022278 0.010895
0.632935 0.022308 0.011017
0.658875 0.022186 0.011108
0.683289 0.022125 0.011169
0.706146 0.021942 0.011108
0.727234 0.021820 0.011078
0.746674 0.021851 0.011078
0.764221 0.021637 0.011017
0.780182 0.021667 0.010895
0.794464 0.021576 0.010895
0.807159 0.021515 0.010773
0.818604 0.021515 0.010742
0.828918 0.021271 0.010681
0.838165 0.021179 0.010651
0.846588 0.021332 0.010651
0.854218 0.021210 0.010559
0.861145 0.021118 0.010529
0.867523 0.021149 0.010437
0.873413 0.021057 0.010437
0.878723 0.021118 0.010406
0.883575 0.020935 0.010345
0.888062 0.021027 0.010345
0.891998 0.020844 0.010315
0.895416 0.020905 0.010315
0.001801 0.028381 0.005859
0.003387 0.028381 0.005859
0.005219 0.028381 0.005920
0.007324 0.028412 0.006012
0.009766 0.028442 0.006042
0.012512 0.028503 0.006134
0.015594 0.028534 0.006226
0.019012 0.028595 0.006317
0.022766 0.028625 0.006439
0.026825 0.028656 0.006500
0.031311 0.028625 0.006500
0.036102 0.028564 0.006409
0.041412 0.028503 0.006409
0.047180 0.028442 0.006348
0.053497 0.028412 0.006409
0.060425 0.028320 0.006409
0.068024 0.028320 0.006409
0.076355 0.028290 0.006409
0.085480 0.028198 0.006409
0.095612 0.028137 0.006439
0.106750 0.028046 0.006500
0.119049 0.028015 0.006531
0.132660 0.027893 0.006561
0.147552 0.027863 0.006653
0.163910 0.027832 0.006836
0.181732 0.027740 0.006927
0.201172 0.027679 0.007111
0.222260 0.027618 0.007355
0.245056 0.027496 0.007538
0.269653 0.027496 0.007843
0.296082 0.027374 0.008118
0.324493 0.027313 0.008453
0.354797 0.027313 0.008820
0.386963 0.027283 0.009216
0.419281 0.027191 0.009552
0.451813 0.027161 0.009949
0.484161 0.027130 0.010284
0.515808 0.027100 0.010529
0.546814 0.027008 0.010773
0.576782 0.026886 0.011017
0.605560 0.026794 0.011200
0.632965 0.026703 0.011322
0.658936 0.026703 0.011353
0.683350 0.026459 0.011353
0.706207 0.026428 0.011353
0.727295 0.026215 0.011292
0.746735 0.026154 0.011230
0.764282 0.026215 0.011200
0.780243 0.026001 0.011108
0.794525 0.025940 0.011078
0.807220 0.026001 0.010986
0.818695 0.025848 0.010956
0.828979 0.025635 0.010895
0.838226 0.025574 0.010834
0.846649 0.025757 0.010773
0.854248 0.025696 0.010742
0.861206 0.025604 0.010681
0.867584 0.025513 0.010620
0.873474 0.025421 0.010620
0.878784 0.025543 0.010620
0.883636 0.025391 0.010559
0.888092 0.025452 0.010529
0.892029 0.025299 0.010498
0.895447 0.025330 0.010437
0.001770 0.033112 0.005951
0.003326 0.033112 0.005951
0.005188 0.033142 0.006012
0.007294 0.033173 0.006042
0.009735 0.033203 0.006134
0.012482 0.033203 0.006226
0.015564 0.033234 0.006317
0.018982 0.033295 0.006439
0.022736 0.033356 0.006531
0.026855 0.033417 0.006653
0.031342 0.033417 0.006653
0.036133 0.033386 0.006653
0.041443 0.033325 0.006622
0.047241 0.033264 0.006622
0.053558 0.033234 0.006653
0.060455 0.033203 0.006622
0.068054 0.033173 0.006714
0.076385 0.033142 0.006653
0.085541 0.033051 0.006714
0.095642 0.033020 0.006744
0.106781 0.032898 0.006744
0.119110 0.032867 0.006836
0.132721 0.032776 0.006927
0.147614 0.032684 0.007019
0.163971 0.032654 0.007141
0.181793 0.032562 0.007263
0.201172 0.032501 0.007446
0.222290 0.032501 0.007660
0.245117 0.032410 0.007904
0.269714 0.032379 0.008179
0.296143 0.032257 0.008484
0.324524 0.032227 0.008820
0.354889 0.032135 0.009186
0.387024 0.032135 0.009552
0.419373 0.032043 0.009949
0.451874 0.031982 0.010284
0.484222 0.031982 0.010620
0.515900 0.031891 0.010864
0.546875 0.031830 0.011169
0.576843 0.031769 0.011322
0.605621 0.031586 0.011505
0.633026 0.031677 0.011566
0.658997 0.031433 0.011658
0.683411 0.031464 0.011627
0.706299 0.031250 0.011627
0.727325 0.031189 0.011536
0.746765 0.031067 0.011505
0.764343 0.031006 0.011414
0.780304 0.030884 0.011322
0.794556 0.030701 0.011292
0.807312 0.030640 0.011200
0.818726 0.030548 0.011169
0.829041 0.030609 0.011078
0.838287 0.030426 0.011017
0.846680 0.030396 0.010956
0.854309 0.030365 0.010895
0.861237 0.030334 0.010864
0.867645 0.030243 0.010834
0.873474 0.030426 0.010834
0.878815 0.030304 0.010773
0.883698 0.030212 0.010742
0.888153 0.030304 0.010681
0.892090 0.030182 0.010651
0.895538 0.030243 0.010651
0.001709 0.038239 0.006012
0.003265 0.038239 0.006042
0.005127 0.038269 0.006134
0.007233 0.038300 0.006165
0.009705 0.038330 0.006256
0.012451 0.038330 0.006348
0.015472 0.038391 0.006439
0.018921 0.038422 0.006531
0.022705 0.038483 0.006622
0.026825 0.038544 0.006775
0.031342 0.038635 0.006866
0.036194 0.038605 0.006927
0.041534 0.038574 0.006958
0.047272 0.038513 0.006927
0.053619 0.038483 0.006927
0.060486 0.038452 0.006927
0.068085 0.038391 0.006958
0.076416 0.038330 0.007019
0.085602 0.038300 0.007019
0.095673 0.038269 0.007050
0.106873 0.038239 0.007141
0.119171 0.038147 0.007202
0.132782 0.038055 0.007263
0.147675 0.038055 0.007416
0.164001 0.037933 0.007477
0.181854 0.037872 0.007660
0.201263 0.037781 0.007904
0.222351 0.037781 0.008057
0.245209 0.037659 0.008301
0.269745 0.037628 0.008606
0.296234 0.037628 0.008942
0.324585 0.037567 0.009216
0.354950 0.037415 0.009613
0.387054 0.037445 0.009979
0.419403 0.037292 0.010315
0.451935 0.037323 0.010681
0.484314 0.037262 0.010956
0.515991 0.037201 0.011200
0.546936 0.037140 0.011444
0.576904 0.036926 0.011658
0.605682 0.036987 0.011780
0.633057 0.036835 0.011871
0.659119 0.036774 0.011902
0.683472 0.036652 0.011871
0.706360 0.036530 0.011841
0.727386 0.036285 0.011749
0.746826 0.036255 0.011658
0.764435 0.036224 0.011658
0.780365 0.036163 0.011536
0.794647 0.036041 0.011444
0.807373 0.035919 0.011444
0.818787 0.035828 0.011322
0.829102 0.035767 0.011292
0.838348 0.035828 0.011230
0.846741 0.035645 0.011169
0.854370 0.035675 0.011108
0.861298 0.035675 0.011078
0.867706 0.035645 0.011017
0.873535 0.035583 0.010986
0.878876 0.035553 0.010986
0.883759 0.035492 0.010956
0.888245 0.035431 0.010956
0.892181 0.035522 0.010895
0.895599 0.035400 0.010864
0.001709 0.043762 0.006165
0.003235 0.043762 0.006165
0.005096 0.043793 0.006226
0.007202 0.043823 0.006317
0.009674 0.043884 0.006348
0.012421 0.043915 0.006439
0.015472 0.043976 0.006531
0.018890 0.044037 0.006653
0.022644 0.044067 0.006775
0.026794 0.044128 0.006927
0.031311 0.044189 0.007111
0.036224 0.044250 0.007233
0.041565 0.044250 0.007233
0.047363 0.044220 0.007263
0.053650 0.044189 0.007233
0.060577 0.044098 0.007263
0.068176 0.044067 0.007324
0.076477 0.044006 0.007324
0.085602 0.043976 0.007355
0.095734 0.043884 0.007416
0.106934 0.043854 0.007477
0.119232 0.043793 0.007568
0.132812 0.043732 0.007660
0.147736 0.043701 0.007812
0.164062 0.043640 0.007935
0.181915 0.043610 0.008057
0.201324 0.043549 0.008240
0.222412 0.043457 0.008484
0.245239 0.043457 0.008728
0.269806 0.043335 0.009003
0.296295 0.043335 0.009308
0.324677 0.043243 0.009674
0.355042 0.043182 0.010010
0.387115 0.043152 0.010315
0.419495 0.043091 0.010742
0.451996 0.043060 0.011078
0.484344 0.043030 0.011353
0.516083 0.042877 0.011658
0.547028 0.042816 0.011871
0.576996 0.042694 0.011993
0.605774 0.042572 0.012115
0.633179 0.042603 0.012177
0.659210 0.042389 0.012177
0.683594 0.042328 0.012177
0.706421 0.042084 0.012115
0.727448 0.041992 0.012024
0.746918 0.041931 0.011963
0.764496 0.041931 0.011871
0.780487 0.041779 0.011749
0.794708 0.041595 0.011688
0.807434 0.041534 0.011627
0.818817 0.041595 0.011566
0.829132 0.041565 0.011505
0.838409 0.041504 0.011444
0.846802 0.041412 0.011414
0.854431 0.041260 0.011353
0.861359 0.041260 0.011292
0.867767 0.041321 0.011292
0.873596 0.041260 0.011200
0.878937 0.041260 0.011200
0.883850 0.041199 0.011169
0.888306 0.041168 0.011169
0.892242 0.041046 0.011078
0.895660 0.041138 0.011017
0.001678 0.049866 0.006317
0.003235 0.049835 0.006317
0.005066 0.049896 0.006409
0.007172 0.049927 0.006439
0.009613 0.049957 0.006531
0.012421 0.049988 0.006561
0.015442 0.050049 0.006714
0.018829 0.050079 0.006836
0.022614 0.050140 0.006927
0.026733 0.050201 0.007111
0.031250 0.050262 0.007202
0.036163 0.050293 0.007416
0.041595 0.050385 0.007538
0.047424 0.050385 0.007629
0.053711 0.050354 0.007629
0.060608 0.050293 0.007629
0.068207 0.050262 0.007660
0.076538 0.050232 0.007660
0.085663 0.050171 0.007751
0.095795 0.050110 0.007812
0.106964 0.050079 0.007904
0.119293 0.050049 0.007965
0.132874 0.049988 0.008057
0.147797 0.049896 0.008179
0.164124 0.049866 0.008301
0.182007 0.049805 0.008514
0.201416 0.049713 0.008698
0.222473 0.049683 0.008942
0.245331 0.049622 0.009216
0.269897 0.049561 0.009491
0.296387 0.049500 0.009827
0.324768 0.049500 0.010101
0.355103 0.049469 0.010498
0.387207 0.049408 0.010834
0.419586 0.049286 0.011200
0.452087 0.049194 0.011536
0.484436 0.049225 0.011841
0.516174 0.049103 0.012024
0.547058 0.048950 0.012207
0.577087 0.048859 0.012329
0.605835 0.048859 0.012451
0.633270 0.048737 0.012512
0.659241 0.048615 0.012512
0.683685 0.048523 0.012421
0.706451 0.048279 0.012360
0.727539 0.048187 0.012299
0.746979 0.048065 0.012177
0.764587 0.048004 0.012085
0.780548 0.047913 0.012085
0.794800 0.047760 0.011902
0.807526 0.047821 0.011902
0.818878 0.047699 0.011780
0.829193 0.047760 0.011749
0.838501 0.047577 0.011688
0.846863 0.047485 0.011627
0.854492 0.047394 0.011566
0.861481 0.047485 0.011536
0.867828 0.047363 0.011536
0.873657 0.047363 0.011444
0.879028 0.047363 0.011414
0.883942 0.047333 0.011353
0.888367 0.047333 0.011353
0.892303 0.047241 0.011292
0.895721 0.047180 0.011292
0.001648 0.056427 0.006439
0.003143 0.056427 0.006409
0.005005 0.056458 0.006500
0.007141 0.056458 0.006622
0.009583 0.056488 0.006714
0.012360 0.056549 0.006775
0.015381 0.056610 0.006927
0.018768 0.056610 0.007019
0.022552 0.056671 0.007111
0.026672 0.056763 0.007263
0.031189 0.056824 0.007416
0.036102 0.056885 0.007568
0.041534 0.056976 0.007812
0.047455 0.057068 0.007965
0.053772 0.057037 0.008026
0.060669 0.056976 0.007965
0.068298 0.056976 0.008057
0.076599 0.056946 0.008148
0.085724 0.056854 0.008179
0.095825 0.056824 0.008240
0.107025 0.056763 0.008301
0.119385 0.056732 0.008453
0.132965 0.056671 0.008514
0.147827 0.056610 0.008636
0.164215 0.056580 0.008820
0.182068 0.056580 0.008942
0.201508 0.056488 0.009216
0.222534 0.056458 0.009399
0.245422 0.056366 0.009674
0.269989 0.056366 0.009979
0.296417 0.056274 0.010315
0.324829 0.056305 0.010651
0.355133 0.056183 0.010956
0.387268 0.056091 0.011292
0.419678 0.056061 0.011688
0.452148 0.056000 0.011993
0.484558 0.055969 0.012238
0.516235 0.055786 0.012512
0.547180 0.055695 0.012634
0.577179 0.055695 0.012787
0.605957 0.055573 0.012878
0.633362 0.055481 0.012848
0.659332 0.055237 0.012787
0.683777 0.055115 0.012787
0.706543 0.055023 0.012665
0.727661 0.054962 0.012634
0.747070 0.054840 0.012451
0.764679 0.054749 0.012360
