custom_nodes/comfyui-vrgamedevgirl/LUTS/Dark_High_Contrast_Vivid_Cinematic_2.cube
#Created by: Adobe Photoshop Export Color Lookup Plugin
#Copyright: (C) Copyright 2017 PremiumBeat.com
TITLE "Phoenix"
#LUT size
LUT_3D_SIZE 4
#data domain
DOMAIN_MIN 0.0 0.0 0.0
DOMAIN_MAX 1.0 1.0 1.0
#LUT data points
0.002167 0.002167 0.002167
0.147888 0.017181 0.014709
0.350250 0.024597 0.018463
0.882935 0.054901 0.029999
0.026764 0.184479 0.018280
0.165497 0.191254 0.021057
0.374268 0.203094 0.025513
0.910370 0.236237 0.038635
0.071838 0.498993 0.031342
0.213379 0.507843 0.034851
0.422150 0.520111 0.040314
0.952209 0.554047 0.066010
0.131165 0.923615 0.060638
0.269745 0.932678 0.069702
0.473511 0.945007 0.083801
0.985413 0.975006 0.124573
0.016052 0.015472 0.173737
0.150116 0.019043 0.176056
0.354034 0.027527 0.179932
0.888245 0.058929 0.191803
0.030487 0.187378 0.179779
0.169983 0.194641 0.182617
0.379486 0.207031 0.187225
0.914825 0.239746 0.200592
0.077179 0.503052 0.193176
0.218445 0.511749 0.196747
0.426361 0.523468 0.202301
0.955963 0.558075 0.230499
0.135254 0.927795 0.224945
0.273254 0.936554 0.234222
0.476440 0.948608 0.248413
0.986755 0.978027 0.289825
0.019104 0.018127 0.455872
0.155273 0.023132 0.458405
0.361542 0.033234 0.462524
0.897461 0.065948 0.474915
0.037933 0.193024 0.462341
0.178467 0.201080 0.465363
0.388794 0.214081 0.470184
0.921875 0.245483 0.483917
0.086212 0.509979 0.476318
0.226685 0.518188 0.479980
0.432678 0.528717 0.485657
0.961853 0.564758 0.518311
0.141754 0.934784 0.512604
0.278839 0.943085 0.522095
0.481445 0.955017 0.536591
0.989014 0.982941 0.578644
0.025818 0.023499 0.833649
0.164276 0.030060 0.836365
0.372894 0.041809 0.840820
0.909058 0.074951 0.853821
0.049194 0.201538 0.840607
0.190643 0.210236 0.843842
0.401276 0.223511 0.848907
0.932312 0.254486 0.864929
0.097382 0.518677 0.855316
0.236328 0.525970 0.859100
0.444977 0.539703 0.868622
0.968872 0.573273 0.903473
0.149292 0.943542 0.897705
0.285614 0.951477 0.907288
0.487122 0.963776 0.923309
1.000000 1.000000 1.000000
