custom_nodes/comfyui-vrgamedevgirl/LUTS/Dark_Soft_Vivid_Cinematic_2.cube
#Created by: Adobe Photoshop Export Color Lookup Plugin
#Copyright: (C) Copyright 2017 PremiumBeat
TITLE "Stillwater"
#LUT size
LUT_3D_SIZE 8
#data domain
DOMAIN_MIN 0.0 0.0 0.0
DOMAIN_MAX 1.0 1.0 1.0
#LUT data points
0.018433 0.017334 0.016479
0.066528 0.018860 0.017151
0.143097 0.021637 0.018372
0.248932 0.026062 0.020264
0.385162 0.032745 0.023224
0.532196 0.041016 0.027100
0.662140 0.049103 0.031158
0.778534 0.055634 0.034698
0.024170 0.065857 0.017883
0.072937 0.067719 0.018677
0.150452 0.070984 0.020081
0.257385 0.076111 0.022339
0.394440 0.083527 0.025726
0.541718 0.092438 0.030121
0.670654 0.100464 0.034424
0.782104 0.103668 0.036194
0.035767 0.143707 0.020599
0.085327 0.146057 0.021637
0.163879 0.150055 0.023438
0.271820 0.156067 0.026215
0.409424 0.164520 0.030426
0.554077 0.172638 0.034760
0.676270 0.176270 0.036804
0.788116 0.179901 0.038879
0.054810 0.252350 0.025543
0.105011 0.255310 0.026947
0.184143 0.260132 0.029327
0.292206 0.267151 0.032990
0.423340 0.272156 0.035767
0.562042 0.276520 0.038239
0.684753 0.280731 0.040680
0.796967 0.284790 0.043060
0.080688 0.393738 0.034210
0.127777 0.395020 0.034943
0.202148 0.397186 0.036163
0.304016 0.400391 0.037964
0.433899 0.404816 0.040527
0.573273 0.409943 0.043518
0.696381 0.414642 0.046295
0.808868 0.419067 0.048920
0.091461 0.535156 0.038910
0.138855 0.536804 0.039856
0.213654 0.539429 0.041412
0.315979 0.543213 0.043610
0.446381 0.548218 0.046570
0.586060 0.553741 0.049866
0.709290 0.558685 0.052826
0.821777 0.563202 0.055542
0.102203 0.661316 0.044006
0.149719 0.663116 0.045074
0.224731 0.666016 0.046783
0.327301 0.670105 0.049194
0.457794 0.675323 0.052338
0.597443 0.680939 0.055695
0.720551 0.685852 0.058655
0.832764 0.690186 0.061249
0.112518 0.777161 0.049103
0.160065 0.779053 0.050232
0.235138 0.782043 0.052032
0.337708 0.786194 0.054535
0.468079 0.791412 0.057648
0.607483 0.796844 0.060944
0.730225 0.801453 0.063721
0.842041 0.805481 0.066162
0.019409 0.017883 0.062073
0.067596 0.019470 0.062775
0.144348 0.022339 0.063995
0.250488 0.026917 0.065979
0.386902 0.033722 0.069000
0.533966 0.042114 0.072968
0.663940 0.050354 0.077148
0.779205 0.056122 0.080292
0.025391 0.066498 0.063507
0.074249 0.068451 0.064331
0.151978 0.071838 0.065796
0.259003 0.077026 0.068085
0.396179 0.084564 0.071564
0.543518 0.093658 0.076080
0.671295 0.100952 0.080017
0.782776 0.104218 0.081848
0.037262 0.144531 0.066315
0.086914 0.146942 0.067352
0.165619 0.151062 0.069214
0.273560 0.157135 0.072083
0.411163 0.165680 0.076355
0.554749 0.173126 0.080383
0.676971 0.176788 0.082458
0.788849 0.180481 0.084564
0.056610 0.253448 0.071381
0.106750 0.256378 0.072815
0.185944 0.261322 0.075287
0.293976 0.268433 0.079041
0.423981 0.272675 0.081390
0.562744 0.277069 0.083893
0.685516 0.281342 0.086365
0.797760 0.285461 0.088776
0.081329 0.394196 0.079834
0.128418 0.395508 0.080536
0.202820 0.397705 0.081787
0.304749 0.400970 0.083649
0.434662 0.405457 0.086243
0.574036 0.410583 0.089233
0.697205 0.415314 0.092041
0.809692 0.419769 0.094696
0.092224 0.535767 0.084595
0.139618 0.537384 0.085541
0.214417 0.540070 0.087097
0.316803 0.543884 0.089325
0.447174 0.548889 0.092316
0.586853 0.554443 0.095612
0.710144 0.559418 0.098572
0.822601 0.563934 0.101288
0.102997 0.661957 0.089722
0.150513 0.663788 0.090790
0.225555 0.666718 0.092529
0.328125 0.670776 0.094940
0.458588 0.676025 0.098083
0.598236 0.681610 0.101440
0.721344 0.686523 0.104401
0.833557 0.690857 0.107025
0.113312 0.777832 0.094849
0.160919 0.779755 0.096008
0.235962 0.782745 0.097809
0.338501 0.786896 0.100281
0.468872 0.792084 0.103394
0.608246 0.797516 0.106689
0.730957 0.802094 0.109436
0.842712 0.806061 0.111847
0.021027 0.018768 0.133972
0.069427 0.020477 0.134705
0.146454 0.023468 0.136017
0.252899 0.028259 0.138092
0.389587 0.035309 0.141235
0.536743 0.043854 0.145355
0.666687 0.052277 0.149689
0.780243 0.056915 0.152252
0.027405 0.067596 0.135498
0.076447 0.069611 0.136353
0.154358 0.073151 0.137878
0.261627 0.078522 0.140289
0.398956 0.086273 0.143890
0.546295 0.095551 0.148590
0.672302 0.101715 0.151947
0.783875 0.105042 0.153839
0.039734 0.145905 0.138428
0.089478 0.148376 0.139526
0.168304 0.152618 0.141449
0.276367 0.158875 0.144440
0.413940 0.167572 0.148865
0.555786 0.173920 0.152344
0.678101 0.177673 0.154449
0.790039 0.181427 0.156616
0.059387 0.255127 0.143707
0.109558 0.258148 0.145203
0.188751 0.263184 0.147766
0.295776 0.269745 0.151276
0.425079 0.273499 0.153381
0.563904 0.277985 0.155945
0.686737 0.282318 0.158447
0.799011 0.286499 0.160889
0.082336 0.394958 0.151733
0.129456 0.396301 0.152496
0.203918 0.398560 0.153778
0.305908 0.401886 0.155701
0.435883 0.406433 0.158325
0.575317 0.411621 0.161377
0.698486 0.416412 0.164215
0.811005 0.420868 0.166870
0.093414 0.536682 0.156647
0.140808 0.538361 0.157623
0.215668 0.541077 0.159210
0.318085 0.544922 0.161469
0.448486 0.549988 0.164459
0.588165 0.555542 0.167786
0.711426 0.560516 0.170746
0.823883 0.565033 0.173462
0.104248 0.663025 0.161865
0.151794 0.664856 0.162933
0.226837 0.667816 0.164703
0.329407 0.671875 0.167114
0.459900 0.677124 0.170258
0.599548 0.682739 0.173645
0.722565 0.687592 0.176544
0.834747 0.691895 0.179169
0.114624 0.778931 0.167023
0.162231 0.780853 0.168182
0.237274 0.783875 0.169983
0.339783 0.787964 0.172455
0.470123 0.793152 0.175568
0.609467 0.798553 0.178833
0.732086 0.803070 0.181580
0.843781 0.807007 0.183929
0.023438 0.020111 0.232300
0.072113 0.021942 0.233093
0.149536 0.025146 0.234467
0.256348 0.030182 0.236664
0.393341 0.037506 0.240021
0.540588 0.046356 0.244354
0.670258 0.054840 0.248840
0.781677 0.058014 0.250610
0.030304 0.069214 0.233917
0.079559 0.071350 0.234833
0.157776 0.075073 0.236481
0.265320 0.080688 0.239014
0.402802 0.088684 0.242828
0.550018 0.098145 0.247742
0.673737 0.102783 0.250305
0.785431 0.106232 0.252258
0.043243 0.147888 0.237030
0.093109 0.150482 0.238220
0.172089 0.154877 0.240265
0.280212 0.161316 0.243378
0.417694 0.170258 0.248047
0.557220 0.175018 0.250702
0.679657 0.178894 0.252899
0.791656 0.182739 0.255127
0.063232 0.257538 0.242645
0.113403 0.260651 0.244202
0.192474 0.265747 0.246857
0.297150 0.270782 0.249603
0.426575 0.274658 0.251770
0.565521 0.279297 0.254425
0.688416 0.283691 0.257019
0.800751 0.287933 0.259491
0.083771 0.396027 0.250092
0.130920 0.397430 0.250885
0.205444 0.399750 0.252197
0.307495 0.403168 0.254181
0.437561 0.407806 0.256866
0.577057 0.413055 0.259949
0.700256 0.417908 0.262817
0.812744 0.422363 0.265503
0.095062 0.538025 0.255157
0.142487 0.539703 0.256165
0.217346 0.542450 0.257751
0.319824 0.546356 0.260071
0.450256 0.551483 0.263092
0.589935 0.557068 0.266449
0.713196 0.562042 0.269409
0.825623 0.566528 0.272125
0.106018 0.664459 0.260468
0.153564 0.666321 0.261566
0.228577 0.669281 0.263306
0.331177 0.673401 0.265778
0.461670 0.678650 0.268921
0.601227 0.684204 0.272278
0.724243 0.689026 0.275177
0.836365 0.693298 0.277740
0.116394 0.780457 0.265686
0.163971 0.782349 0.266815
0.239044 0.785400 0.268646
0.341553 0.789490 0.271118
0.471832 0.794647 0.274200
0.611084 0.799988 0.277435
0.733612 0.804413 0.280121
0.845245 0.808258 0.282440
0.026794 0.021942 0.357422
0.075836 0.023956 0.358307
0.153625 0.027405 0.359802
0.260834 0.032745 0.362152
0.398102 0.040405 0.365753
0.545471 0.049622 0.370361
0.671997 0.056122 0.373901
0.783539 0.059448 0.375763
0.034271 0.071381 0.359192
0.083771 0.073669 0.360199
0.162231 0.077576 0.361938
0.270111 0.083527 0.364685
0.407684 0.091827 0.368774
0.553467 0.100647 0.373444
0.675598 0.104218 0.375458
0.787384 0.107788 0.377472
0.047821 0.150513 0.362579
0.097809 0.153229 0.363831
0.176880 0.157776 0.365997
0.285095 0.164520 0.369354
0.420654 0.172394 0.373566
0.559113 0.176483 0.375854
0.681671 0.180511 0.378174
0.793762 0.184418 0.380463
0.068054 0.260651 0.368530
0.118256 0.263885 0.370209
0.197235 0.269165 0.373047
0.298950 0.272156 0.374695
0.428528 0.276184 0.376984
0.567627 0.280975 0.379761
0.690552 0.285461 0.382385
0.802948 0.289764 0.384918
0.085602 0.397430 0.375214
0.132843 0.398895 0.376068
0.207428 0.401306 0.377441
0.309570 0.404816 0.379456
0.439697 0.409576 0.382233
0.579285 0.414917 0.385406
0.702484 0.419769 0.388275
0.815033 0.424286 0.390991
0.097137 0.539703 0.380493
0.144623 0.541473 0.381531
0.219543 0.544250 0.383179
0.322021 0.548218 0.385498
0.452484 0.553375 0.388580
0.592194 0.558990 0.391937
0.715393 0.563934 0.394897
0.827789 0.568390 0.397583
0.108215 0.666321 0.385895
0.155823 0.668213 0.387024
0.230865 0.671204 0.388794
0.333405 0.675293 0.391266
0.463867 0.680542 0.394409
0.603424 0.686096 0.397736
0.726349 0.690857 0.400604
0.838348 0.695038 0.403137
0.118652 0.782379 0.391174
0.166229 0.784271 0.392303
0.241241 0.787292 0.394104
0.343750 0.791412 0.396576
0.473969 0.796478 0.399658
0.613068 0.801727 0.402832
0.735535 0.806091 0.405457
0.847015 0.809814 0.407715
0.030762 0.024109 0.491486
0.080048 0.026276 0.492401
0.158295 0.029999 0.494049
0.265869 0.035645 0.496613
0.403351 0.043701 0.500458
0.550537 0.053192 0.505402
0.673950 0.057617 0.507843
0.785645 0.061096 0.509827
0.038727 0.073853 0.493378
0.088440 0.076294 0.494476
0.167236 0.080475 0.496368
0.275238 0.086670 0.499298
0.412842 0.095306 0.503662
0.555359 0.102081 0.507355
0.677643 0.105804 0.509460
0.789551 0.109528 0.511597
0.052826 0.153442 0.497040
0.102905 0.156281 0.498383
0.182098 0.161102 0.500732
0.290222 0.168030 0.504303
0.422546 0.173828 0.507477
0.561218 0.178101 0.509918
0.683868 0.182251 0.512299
0.796051 0.186310 0.514679
0.073273 0.264130 0.503448
0.123352 0.267456 0.505219
0.199280 0.270691 0.506989
0.300964 0.273682 0.508698
0.430664 0.277893 0.511078
0.569885 0.282806 0.513947
0.692902 0.287415 0.516632
0.805359 0.291779 0.519226
0.087646 0.399017 0.509247
0.134918 0.400513 0.510101
0.209595 0.403046 0.511536
0.311829 0.406647 0.513641
0.442047 0.411499 0.516510
0.581665 0.416931 0.519714
0.704926 0.421844 0.522644
0.817444 0.426361 0.525360
0.099426 0.541595 0.514709
0.146912 0.543365 0.515747
0.221924 0.546234 0.517456
0.324432 0.550232 0.519806
0.454895 0.555420 0.522919
0.594635 0.561066 0.526306
0.717773 0.565979 0.529236
0.830078 0.570404 0.531921
0.110626 0.668335 0.520233
0.158203 0.670227 0.521332
0.233276 0.673248 0.523132
0.335846 0.677368 0.525604
0.466248 0.682617 0.528748
0.605743 0.688110 0.532074
0.728546 0.692780 0.534912
0.840454 0.696869 0.537384
0.121063 0.784424 0.525513
0.168640 0.786346 0.526672
0.243652 0.789368 0.528473
0.346069 0.793396 0.530914
0.476196 0.798431 0.533966
0.615204 0.803558 0.537079
0.737488 0.807800 0.539612
0.848816 0.811371 0.541779
0.034515 0.026154 0.609802
0.084015 0.028473 0.610809
0.162506 0.032410 0.612549
0.270386 0.038361 0.615326
0.407959 0.046692 0.619415
0.553558 0.055389 0.624054
0.675720 0.058960 0.626068
0.787537 0.062561 0.628113
0.042908 0.076172 0.611877
0.092773 0.078766 0.613037
0.171753 0.083130 0.615051
0.279846 0.089569 0.618164
0.417358 0.098480 0.622833
0.557098 0.103424 0.625549
0.679504 0.107269 0.627747
0.791534 0.111115 0.629974
0.057373 0.156158 0.615784
0.107513 0.159119 0.617218
0.186737 0.164093 0.619690
0.294708 0.171234 0.623474
0.424286 0.175171 0.625671
0.563110 0.179596 0.628204
0.685852 0.183868 0.630676
0.798096 0.187988 0.633118
0.077820 0.267303 0.622589
0.126678 0.269867 0.623993
0.200989 0.271973 0.625153
0.302795 0.275116 0.626923
0.432617 0.279449 0.629425
0.571899 0.284454 0.632355
0.695007 0.289154 0.635101
0.807465 0.293549 0.637726
0.089508 0.400452 0.627502
0.136810 0.402039 0.628418
0.211548 0.404602 0.629913
0.313843 0.408325 0.632080
0.444153 0.413239 0.634979
0.583801 0.418701 0.638214
0.707062 0.423676 0.641174
0.819580 0.428192 0.643890
0.101501 0.543274 0.633148
0.149017 0.545074 0.634216
0.223969 0.547974 0.635925
0.326569 0.552032 0.638336
0.457031 0.557251 0.641449
0.596710 0.562866 0.644806
0.719849 0.567780 0.647766
0.832092 0.572144 0.650421
0.112762 0.670135 0.638733
0.160339 0.672058 0.639862
0.235382 0.675049 0.641663
0.337952 0.679199 0.644165
0.468353 0.684418 0.647278
0.607727 0.689819 0.650574
0.730469 0.694458 0.653351
0.842255 0.698456 0.655762
0.123169 0.786255 0.644043
0.170715 0.788147 0.645203
0.245728 0.791168 0.647003
0.348083 0.795166 0.649414
0.478149 0.800110 0.652435
0.617035 0.805176 0.655457
0.739197 0.809265 0.657959
0.850372 0.812744 0.660034
0.038116 0.028168 0.717896
0.087799 0.030579 0.718964
0.166504 0.034698 0.720825
0.274536 0.040894 0.723755
0.412140 0.049500 0.728088
0.555084 0.056549 0.731903
0.677368 0.060242 0.734009
0.789276 0.063965 0.736115
0.046844 0.078430 0.720093
0.096802 0.081116 0.721313
0.175903 0.085663 0.723480
0.284058 0.092316 0.726776
0.420258 0.100616 0.731201
0.558746 0.104675 0.733459
0.681244 0.108643 0.735748
0.793335 0.112579 0.738037
0.061554 0.158722 0.724213
0.111725 0.161804 0.725739
0.190887 0.166931 0.728394
0.296539 0.172577 0.731445
0.425903 0.176422 0.733612
0.564850 0.181000 0.736237
0.687683 0.185364 0.738770
0.799988 0.189545 0.741241
0.081116 0.269684 0.731110
0.128174 0.270996 0.731812
0.202606 0.273224 0.733063
0.304474 0.276428 0.734894
0.434418 0.280884 0.737488
0.573761 0.286011 0.740479
0.696930 0.290741 0.743286
0.809418 0.295197 0.745911
0.091217 0.401825 0.735504
0.138580 0.403442 0.736450
0.213348 0.406067 0.737976
0.315704 0.409851 0.740173
0.446075 0.414856 0.743134
0.585724 0.420349 0.746399
0.709015 0.425323 0.749390
0.821503 0.429840 0.752106
0.103363 0.544830 0.741272
0.150909 0.546661 0.742371
0.225922 0.549591 0.744080
0.328491 0.553650 0.746521
0.458984 0.558899 0.749664
0.598633 0.564514 0.753021
0.721710 0.569397 0.755951
0.833893 0.573730 0.758575
0.114716 0.671783 0.746918
0.162292 0.673706 0.748077
0.237366 0.676727 0.749878
0.339874 0.680847 0.752350
0.470215 0.686035 0.755463
0.609528 0.691406 0.758728
0.732178 0.695953 0.761475
0.843872 0.699860 0.763824
0.125092 0.787903 0.752258
0.172668 0.789825 0.753418
0.247620 0.792786 0.755188
0.349915 0.796753 0.757599
0.479889 0.801636 0.760559
0.618652 0.806580 0.763550
0.740692 0.810577 0.765961
0.851715 0.813904 0.767975
