custom_nodes/comfyui-vrgamedevgirl/LUTS/Dark_High_Contrast_Vivid_Warm.cube
#Created by: Adobe Photoshop Export Color Lookup Plugin
#Copyright: (C) Copyright 2017 PremiumBeat.com
TITLE "PB_Shadow"
#LUT size
LUT_3D_SIZE 4
#data domain
DOMAIN_MIN 0.0 0.0 0.0
DOMAIN_MAX 1.0 1.0 1.0
#LUT data points
0.000000 0.000000 0.000000
0.064117 0.000000 0.000000
0.710632 0.000000 0.000000
1.000000 0.000000 0.000000
0.000000 0.076355 0.000000
0.064117 0.076355 0.000000
0.710632 0.076355 0.000000
1.000000 0.076355 0.000000
0.000000 0.669220 0.000000
0.064117 0.669220 0.000000
0.710632 0.669220 0.000000
1.000000 0.669220 0.000000
0.000000 0.999969 0.000000
0.064117 0.999969 0.000000
0.710632 0.999969 0.000000
1.000000 0.999969 0.000000
0.000000 0.000000 0.085510
0.064117 0.000000 0.085510
0.710632 0.000000 0.085510
1.000000 0.000000 0.085510
0.000000 0.076355 0.085510
0.064117 0.076355 0.085510
0.710632 0.076355 0.085510
1.000000 0.076355 0.085510
0.000000 0.669220 0.085510
0.064117 0.669220 0.085510
0.710632 0.669220 0.085510
1.000000 0.669220 0.085510
0.000000 0.999969 0.085510
0.064117 0.999969 0.085510
0.710632 0.999969 0.085510
1.000000 0.999969 0.085510
0.000000 0.000000 0.672913
0.064117 0.000000 0.672913
0.710632 0.000000 0.672913
1.000000 0.000000 0.672913
0.000000 0.076355 0.672913
0.064117 0.076355 0.672913
0.710632 0.076355 0.672913
1.000000 0.076355 0.672913
0.000000 0.669220 0.672913
0.064117 0.669220 0.672913
0.710632 0.669220 0.672913
1.000000 0.669220 0.672913
0.000000 0.999969 0.672913
0.064117 0.999969 0.672913
0.710632 0.999969 0.672913
1.000000 0.999969 0.672913
0.000000 0.000000 0.999969
0.064117 0.000000 0.999969
0.710632 0.000000 0.999969
1.000000 0.000000 0.999969
0.000000 0.076355 0.999969
0.064117 0.076355 0.999969
0.710632 0.076355 0.999969
1.000000 0.076355 0.999969
0.000000 0.669220 0.999969
0.064117 0.669220 0.999969
0.710632 0.669220 0.999969
1.000000 0.669220 0.999969
0.000000 0.999969 0.999969
0.064117 0.999969 0.999969
0.710632 0.999969 0.999969
1.000000 0.999969 0.999969
