custom_nodes/comfyui-vrgamedevgirl/LUTS/Dark_High_Contrast_Vivid_Cool.cube
#Created by: Adobe Photoshop Export Color Lookup Plugin
#Copyright: (C) Copyright 2017 PremiumBeat.com
TITLE "PB_Shade"
#LUT size
LUT_3D_SIZE 8
#data domain
DOMAIN_MIN 0.0 0.0 0.0
DOMAIN_MAX 1.0 1.0 1.0
#LUT data points
0.000183 0.000214 0.000214
0.029633 0.001678 0.002075
0.079224 0.002808 0.003540
0.157196 0.004303 0.005371
0.285309 0.007263 0.009521
0.497192 0.017365 0.032837
0.718292 0.032166 0.064362
0.804962 0.035492 0.071838
0.005463 0.031342 0.004089
0.036102 0.032532 0.006378
0.086395 0.033936 0.009491
0.166107 0.035614 0.014862
0.303223 0.037323 0.029694
0.528137 0.045471 0.068817
0.743378 0.055969 0.091125
0.830353 0.059418 0.099030
0.012421 0.083374 0.006805
0.042145 0.085632 0.008698
0.091248 0.088531 0.011536
0.169495 0.093079 0.017334
0.306244 0.101715 0.035645
0.532837 0.109802 0.073669
0.777374 0.095093 0.127136
0.868805 0.095612 0.140167
0.027679 0.165649 0.008087
0.057800 0.169464 0.011841
0.104065 0.176971 0.019196
0.183228 0.186371 0.032532
0.319214 0.199554 0.049683
0.532745 0.207306 0.070526
0.753845 0.210388 0.099731
0.847443 0.209839 0.113953
0.071503 0.306946 0.019501
0.099335 0.316711 0.028809
0.139496 0.325989 0.037872
0.211395 0.334991 0.047394
0.339142 0.345306 0.059845
0.548279 0.357086 0.079681
0.764374 0.364777 0.101349
0.855164 0.366608 0.110809
0.142151 0.520996 0.019043
0.161804 0.531158 0.029022
0.196411 0.543091 0.041199
0.260162 0.556427 0.054962
0.381317 0.570374 0.070801
0.588501 0.584015 0.089020
0.804688 0.593048 0.106659
0.894531 0.596008 0.114075
0.212006 0.734253 0.010315
0.229706 0.744751 0.021179
0.261963 0.757935 0.034637
0.321899 0.773346 0.050171
0.438080 0.790009 0.068054
0.639893 0.806519 0.087952
0.850311 0.819611 0.107727
0.919922 0.821472 0.188080
0.241180 0.821472 0.003937
0.259064 0.832001 0.014374
0.290833 0.845581 0.028076
0.349670 0.861633 0.044250
0.463165 0.879608 0.063202
0.661041 0.898590 0.086029
0.869141 0.914062 0.107605
0.919922 0.902435 0.316803
0.002045 0.000671 0.027985
0.031311 0.002319 0.029633
0.080780 0.003571 0.031616
0.158569 0.005249 0.035065
0.286407 0.008392 0.042969
0.499847 0.019287 0.068085
0.719818 0.033264 0.097504
0.806458 0.036560 0.105103
0.008179 0.031494 0.032593
0.037933 0.033203 0.035278
0.087219 0.035309 0.038727
0.166809 0.037384 0.045837
0.304779 0.039246 0.064880
0.530487 0.046906 0.102875
0.744843 0.056976 0.124969
0.831787 0.060455 0.133026
0.014343 0.084229 0.036438
0.044891 0.086243 0.039307
0.092590 0.089935 0.044495
0.171570 0.094574 0.052216
0.308136 0.103668 0.070221
0.533783 0.111206 0.107025
0.778595 0.096222 0.161835
0.870300 0.096619 0.174744
0.030151 0.166840 0.042084
0.060486 0.170990 0.046509
0.106750 0.178589 0.054962
0.185181 0.188263 0.066193
0.320404 0.200684 0.083740
0.533905 0.208191 0.106384
0.755157 0.211487 0.135132
0.848785 0.210968 0.149384
0.073151 0.308655 0.054047
0.100861 0.318054 0.063782
0.141052 0.326691 0.073212
0.212616 0.335815 0.083527
0.340088 0.346191 0.097046
0.549377 0.357910 0.117096
0.765839 0.365631 0.138092
0.856659 0.367584 0.147034
0.143097 0.521545 0.059265
0.162537 0.531555 0.070221
0.196808 0.543610 0.082550
0.260773 0.556763 0.096985
0.381989 0.570679 0.112915
0.589386 0.584259 0.130951
0.805847 0.593414 0.147339
0.895782 0.596436 0.154266
0.211975 0.733856 0.058380
0.229797 0.744293 0.069214
0.262024 0.757446 0.082642
0.322021 0.772858 0.098602
0.438263 0.789490 0.116486
0.639984 0.806000 0.136169
0.850494 0.819519 0.155121
0.919922 0.821899 0.233490
0.240936 0.820679 0.054504
0.258850 0.831268 0.065155
0.290741 0.844727 0.079346
0.349365 0.860779 0.096100
0.462921 0.878754 0.114929
0.660736 0.897919 0.137817
0.868958 0.913574 0.158691
0.919922 0.902863 0.360779
0.004700 0.000580 0.077209
0.034668 0.001862 0.078827
0.082672 0.003876 0.081848
0.159882 0.005768 0.085999
0.287628 0.009064 0.094849
0.503296 0.021545 0.122955
0.721832 0.034546 0.150360
0.808563 0.037903 0.157776
0.009674 0.032196 0.082550
0.040436 0.033539 0.085236
0.090149 0.035370 0.089996
0.169189 0.037750 0.098389
0.307190 0.040619 0.118408
0.533508 0.048615 0.157501
0.746918 0.058197 0.178314
0.833923 0.061829 0.185974
0.017517 0.084320 0.087280
0.047821 0.086517 0.090424
0.094574 0.090790 0.096191
0.173370 0.096222 0.105164
0.310516 0.105621 0.124542
0.535645 0.112366 0.160675
0.780243 0.097839 0.214844
0.872528 0.097992 0.228027
0.033142 0.167633 0.094788
0.063263 0.172272 0.099701
0.109314 0.180237 0.108643
0.187408 0.190338 0.120850
0.322205 0.201843 0.137787
0.535583 0.209686 0.160248
0.756836 0.213074 0.188782
0.850739 0.212524 0.202911
0.076355 0.310120 0.109741
0.103424 0.318634 0.118713
0.143219 0.327545 0.128265
0.214233 0.336975 0.138855
0.341766 0.347443 0.152527
0.551086 0.359283 0.172363
0.767792 0.366943 0.192810
0.858948 0.368805 0.201599
0.145264 0.522278 0.118408
0.164307 0.532227 0.128845
0.198792 0.544128 0.141418
0.262573 0.557526 0.155579
0.383698 0.571503 0.171265
0.591492 0.585114 0.188629
0.808014 0.594299 0.204346
0.897888 0.597382 0.211304
0.213196 0.734009 0.122040
0.230957 0.744385 0.132690
0.263336 0.757599 0.146210
0.323425 0.772980 0.161804
0.439789 0.789703 0.179352
0.641327 0.806366 0.198486
0.852020 0.820343 0.216644
0.919922 0.823242 0.296082
0.241730 0.820496 0.121338
0.259613 0.831024 0.132080
0.291626 0.844543 0.145813
0.350464 0.860596 0.162018
0.463898 0.878601 0.180939
0.662018 0.898315 0.202789
0.869934 0.914154 0.222290
0.919922 0.904144 0.422943
0.011139 0.000031 0.149933
0.040710 0.000671 0.156433
0.086914 0.003448 0.160583
0.162506 0.006226 0.165985
0.290527 0.010193 0.176331
0.509094 0.025146 0.208221
0.724762 0.036194 0.232300
0.811646 0.039703 0.239716
0.018036 0.029968 0.161316
0.048218 0.031708 0.164185
0.095123 0.035004 0.170441
0.173401 0.038208 0.180023
0.311951 0.042145 0.201904
0.538269 0.050934 0.241730
0.750000 0.059998 0.260468
0.837067 0.063629 0.268188
0.025757 0.082733 0.166138
0.054291 0.085938 0.169922
0.099304 0.091248 0.176788
0.177917 0.097992 0.187469
0.314789 0.108337 0.207947
0.538788 0.114014 0.243073
0.783539 0.099548 0.297668
0.875885 0.099823 0.310730
0.041962 0.167175 0.174316
0.070709 0.172974 0.180817
0.114960 0.182190 0.191071
0.192719 0.192810 0.204041
0.325562 0.203369 0.220001
0.538635 0.211578 0.242950
0.760132 0.214966 0.271545
0.853851 0.214508 0.285431
0.083008 0.310791 0.191498
0.108765 0.319244 0.200531
0.147888 0.328430 0.210571
0.218445 0.338135 0.221619
0.345123 0.349152 0.235687
0.554352 0.361053 0.255768
0.771240 0.368683 0.275879
0.862579 0.370575 0.284515
0.149872 0.523560 0.203369
0.168518 0.533173 0.213470
0.202637 0.545349 0.226257
0.266388 0.558716 0.240417
0.387390 0.572845 0.256073
0.595215 0.586517 0.273346
0.811584 0.595825 0.288849
0.901367 0.598999 0.295563
0.216125 0.735077 0.209991
0.234314 0.745300 0.220459
0.266815 0.758514 0.233856
0.327057 0.773865 0.249542
0.443237 0.790710 0.266937
0.644196 0.807587 0.286072
0.855011 0.822113 0.304260
0.919922 0.825928 0.387421
0.244507 0.821350 0.210907
0.262665 0.831818 0.221436
0.294769 0.845367 0.235138
0.353699 0.861481 0.251526
0.466797 0.879517 0.270142
0.664886 0.899841 0.292206
0.872437 0.915741 0.311188
0.919922 0.906647 0.512665
0.030518 0.000031 0.238739
0.055450 0.000031 0.263367
0.097717 0.001190 0.288605
0.169586 0.005707 0.296692
0.297577 0.011810 0.310760
0.517548 0.028809 0.346161
0.730042 0.038544 0.366882
0.816925 0.042267 0.374603
0.041748 0.021698 0.288635
0.067413 0.025726 0.293732
0.109406 0.031586 0.302826
0.184235 0.037170 0.314911
0.322021 0.043640 0.339783
0.544373 0.053314 0.376587
0.755402 0.062531 0.395416
0.842529 0.066223 0.403229
0.046967 0.076752 0.293274
0.072052 0.081665 0.298981
0.113190 0.090179 0.309052
0.189056 0.099213 0.322784
0.324219 0.111328 0.345215
0.545746 0.115509 0.379089
0.791077 0.100800 0.434937
0.881531 0.102417 0.445923
0.061310 0.164429 0.303375
0.087280 0.172424 0.312195
0.128815 0.183319 0.324677
0.203583 0.195496 0.339386
0.332672 0.204987 0.354431
0.544708 0.213898 0.378265
0.766083 0.217499 0.407013
0.860229 0.216827 0.420929
0.097626 0.309082 0.321930
0.121307 0.318512 0.331970
0.158783 0.328552 0.342987
0.227142 0.339294 0.355377
0.352142 0.351166 0.370575
0.560425 0.363586 0.390961
0.777710 0.371155 0.410889
0.869263 0.372955 0.419312
0.160095 0.523926 0.337280
0.178101 0.534027 0.347870
0.211884 0.546265 0.360809
0.274597 0.560089 0.375519
0.394775 0.574646 0.391479
0.602142 0.588654 0.408966
0.818054 0.598145 0.424530
0.907379 0.601532 0.431213
0.224396 0.736053 0.346436
0.242432 0.746521 0.357025
0.274811 0.759766 0.370483
0.334717 0.775269 0.386322
0.450317 0.792480 0.404144
0.650452 0.810211 0.423920
0.860565 0.825256 0.442474
0.919922 0.831329 0.528564
0.251953 0.822601 0.348602
0.270081 0.833130 0.359222
0.302338 0.846680 0.372955
0.360809 0.862915 0.389374
0.473114 0.881317 0.408447
0.670776 0.902649 0.431305
0.877411 0.918549 0.450287
0.919922 0.911774 0.650238
0.066284 0.000031 0.363678
0.085632 0.000031 0.406036
0.120483 0.000031 0.461517
0.187805 0.002319 0.499969
0.314484 0.014191 0.522705
0.530243 0.032043 0.558289
0.739624 0.041779 0.577759
0.826202 0.045593 0.585632
0.090302 0.002899 0.491089
0.109894 0.009918 0.499786
0.145020 0.019592 0.512878
0.214142 0.030182 0.531128
0.345490 0.042084 0.558960
0.555328 0.055695 0.586426
0.765198 0.065735 0.606415
0.852081 0.069641 0.614349
0.091400 0.062347 0.493622
0.111542 0.071075 0.503204
0.147461 0.083160 0.517700
0.215790 0.097076 0.535889
0.344879 0.110840 0.560364
0.562927 0.113739 0.595886
0.804199 0.101868 0.649353
0.891510 0.105804 0.657104
0.100250 0.156372 0.504913
0.122955 0.167358 0.516998
0.159302 0.180939 0.532166
0.225769 0.193329 0.547211
0.348755 0.205048 0.564545
0.557861 0.215485 0.590607
0.778656 0.219269 0.620087
0.873108 0.218353 0.634247
0.127991 0.303009 0.523315
0.149780 0.313232 0.534454
0.182983 0.325348 0.547516
0.246704 0.338409 0.562347
0.367126 0.352386 0.579895
0.572998 0.365845 0.601562
0.790222 0.373566 0.621613
0.881897 0.375458 0.630188
0.182281 0.521759 0.542572
0.200012 0.532166 0.553406
0.232117 0.545197 0.567139
0.292572 0.560028 0.582916
0.410187 0.575867 0.600189
0.615326 0.590942 0.618744
0.829376 0.601227 0.635071
0.917938 0.604736 0.642090
0.242310 0.735748 0.554108
0.260284 0.746338 0.564850
0.292267 0.759857 0.578583
0.351044 0.775970 0.595062
0.464294 0.794098 0.613922
0.662262 0.813812 0.635712
0.870667 0.829559 0.655121
0.919922 0.842560 0.729401
0.268372 0.822906 0.557343
0.286591 0.833496 0.568054
0.318359 0.847229 0.582001
0.375793 0.863953 0.599060
0.486450 0.884003 0.619781
0.681946 0.906494 0.643951
0.886261 0.922089 0.662903
0.919922 0.923645 0.837616
0.101166 0.000031 0.493866
0.118378 0.000031 0.543243
0.149384 0.000031 0.612427
0.213715 0.000031 0.694000
0.338806 0.016510 0.735809
0.543762 0.033051 0.766815
0.751038 0.043945 0.787872
0.837311 0.048126 0.796173
0.130707 0.000031 0.634033
0.150574 0.000031 0.686371
0.183228 0.010132 0.716492
0.245605 0.025299 0.739685
0.368378 0.042480 0.770294
0.569061 0.056793 0.795319
0.776978 0.068024 0.816742
0.863464 0.072205 0.824921
0.143372 0.044312 0.701935
0.161469 0.055481 0.713806
0.192749 0.070740 0.730713
0.253845 0.088684 0.752075
0.373749 0.102448 0.777252
0.591217 0.104645 0.820526
0.816284 0.104156 0.859589
0.903168 0.108337 0.867401
0.145111 0.145874 0.708405
0.165375 0.158722 0.722229
0.196533 0.171906 0.736938
0.255615 0.186371 0.753967
0.371582 0.201416 0.775085
0.575867 0.214172 0.803833
0.795715 0.218231 0.834747
0.890594 0.217041 0.849426
0.165497 0.293640 0.723389
0.184265 0.305023 0.735535
0.214935 0.318420 0.750153
0.273376 0.333862 0.767548
0.387573 0.350708 0.787964
0.589447 0.366058 0.811462
0.805481 0.374390 0.832184
0.896820 0.376434 0.841034
0.211578 0.516418 0.744873
0.228516 0.527069 0.756042
0.258972 0.540863 0.770447
0.316467 0.557159 0.787598
0.429871 0.574982 0.806824
0.631165 0.591736 0.827240
0.842377 0.603119 0.844818
0.919922 0.614288 0.848785
0.266174 0.732849 0.758240
0.283783 0.743591 0.769135
0.314911 0.757568 0.783356
0.371765 0.774506 0.800781
0.481354 0.794159 0.821320
0.676544 0.816345 0.845764
0.882324 0.832581 0.865875
0.919922 0.859131 0.895294
0.290497 0.820709 0.762238
0.308258 0.831543 0.773224
0.339233 0.845612 0.787598
0.394928 0.863159 0.805634
0.503448 0.885193 0.828430
0.695190 0.909058 0.854126
0.896576 0.924377 0.873291
0.919922 0.946899 0.973938
0.115326 0.000031 0.548187
0.132233 0.000031 0.599060
0.162811 0.000031 0.674927
0.226013 0.000031 0.768341
0.350128 0.016785 0.822662
0.550232 0.033081 0.852142
0.756378 0.044617 0.873932
0.842285 0.048889 0.882263
0.146332 0.000031 0.690735
0.165985 0.000031 0.748383
0.198975 0.006805 0.799133
0.259247 0.023285 0.824097
0.378235 0.041656 0.855255
0.575531 0.056915 0.880798
0.782318 0.068695 0.902771
0.868622 0.072998 0.911011
0.167694 0.035217 0.790741
0.185211 0.047272 0.803253
0.214600 0.063690 0.820312
0.273254 0.082886 0.842712
0.389587 0.096497 0.868622
0.606171 0.098724 0.915161
0.821869 0.104889 0.945618
0.908478 0.109131 0.953400
0.164459 0.140961 0.792664
0.183716 0.153381 0.806000
0.213409 0.166656 0.820831
0.269806 0.182404 0.839020
0.383026 0.198761 0.861725
0.584778 0.212677 0.891663
0.804321 0.216827 0.923431
0.899567 0.215302 0.938690
0.181885 0.289337 0.805603
0.200195 0.300781 0.817902
0.229462 0.314819 0.833069
0.285919 0.331268 0.851471
0.397552 0.349274 0.873108
0.597443 0.365387 0.897522
0.812744 0.374176 0.918732
0.903717 0.376343 0.927673
0.225037 0.513489 0.827393
0.241669 0.524261 0.838531
0.271515 0.538391 0.853363
0.327789 0.555267 0.871063
0.439362 0.573944 0.891205
0.638428 0.591675 0.912567
0.848602 0.603729 0.931061
0.919922 0.619781 0.927094
0.277435 0.730957 0.841309
0.294922 0.741730 0.852234
0.325775 0.755859 0.866730
0.381470 0.773376 0.884613
0.489594 0.793823 0.906067
0.683167 0.816956 0.931519
0.887482 0.833466 0.952026
0.919922 0.868134 0.949127
0.300964 0.819153 0.845673
0.318573 0.830017 0.856720
0.349121 0.844330 0.871338
0.404114 0.862518 0.890015
0.511322 0.885345 0.913605
0.701324 0.909576 0.939880
0.901672 0.926575 0.961029
0.919922 0.959930 0.999969
