custom_nodes/comfyui-vrgamedevgirl/LUTS/Dark_Soft_Vivid_Cool.cube
#Created by: Adobe Photoshop Export Color Lookup Plugin
#Copyright: (C) Copyright 2017 PremiumBeat
TITLE "Boulder"
#LUT size
LUT_3D_SIZE 64
#data domain
DOMAIN_MIN 0.0 0.0 0.0
DOMAIN_MAX 1.0 1.0 1.0
#LUT data points
0.064911 0.054779 0.071594
0.064972 0.054749 0.071564
0.065277 0.054749 0.071564
0.065704 0.054718 0.071503
0.066437 0.054626 0.071442
0.067383 0.054596 0.071411
0.068726 0.054504 0.071289
0.070374 0.054382 0.071167
0.072723 0.054199 0.070984
0.075470 0.054016 0.070801
0.078918 0.053772 0.070557
0.082947 0.053497 0.070221
0.087677 0.053101 0.069855
0.093170 0.052704 0.069489
0.099243 0.052277 0.069000
0.106140 0.051758 0.068512
0.113556 0.051178 0.067902
0.121674 0.050568 0.067291
0.130371 0.049896 0.066589
0.139557 0.049164 0.065826
0.148987 0.048431 0.065125
0.158936 0.047607 0.064270
0.169128 0.046722 0.063385
0.179657 0.045837 0.062469
0.190338 0.044861 0.061493
0.201416 0.043884 0.060486
0.212616 0.042816 0.059387
0.224152 0.041779 0.058289
0.235901 0.040680 0.057129
0.248108 0.039520 0.055939
0.260590 0.038300 0.054718
0.273499 0.037079 0.053436
0.286957 0.035767 0.052094
0.301117 0.034424 0.050690
0.316223 0.033020 0.049286
0.332367 0.031586 0.047791
0.349792 0.030060 0.046234
0.368774 0.028534 0.044617
0.389496 0.026917 0.042938
0.412323 0.025116 0.041199
0.437653 0.023315 0.039337
0.464722 0.021545 0.037506
0.491882 0.019775 0.035675
0.518036 0.017975 0.033844
0.541962 0.016174 0.031982
0.562683 0.014587 0.030182
0.579803 0.012878 0.028412
0.593964 0.010986 0.026611
0.605774 0.009277 0.024872
0.615814 0.007599 0.023102
0.624695 0.005951 0.021423
0.632843 0.004303 0.019714
0.640747 0.002655 0.018036
0.648743 0.001038 0.016296
0.657257 0.000000 0.014648
0.666626 0.000000 0.013000
0.677094 0.000000 0.011353
0.688934 0.000000 0.009766
0.702362 0.000000 0.008179
0.717255 0.000000 0.006622
0.733734 0.000000 0.005127
0.751740 0.000000 0.003662
0.770996 0.000000 0.002228
0.790924 0.000000 0.000854
0.064911 0.054871 0.071564
0.065002 0.054871 0.071564
0.065308 0.054871 0.071564
0.065704 0.054840 0.071503
0.066406 0.054749 0.071442
0.067444 0.054688 0.071381
0.068726 0.054596 0.071289
0.070465 0.054474 0.071167
0.072693 0.054382 0.071014
0.075439 0.054169 0.070801
0.078949 0.053925 0.070557
0.083008 0.053619 0.070221
0.087738 0.053253 0.069855
0.093231 0.052856 0.069489
0.099426 0.052399 0.069000
0.106201 0.051880 0.068481
0.113678 0.051331 0.067902
0.121796 0.050690 0.067291
0.130432 0.050049 0.066589
0.139496 0.049316 0.065826
0.148987 0.048523 0.065094
0.159027 0.047729 0.064270
0.169373 0.046814 0.063354
0.179901 0.045929 0.062439
0.190582 0.044983 0.061493
0.201752 0.044006 0.060425
0.212982 0.042969 0.059387
0.224518 0.041840 0.058258
0.236328 0.040741 0.057098
0.248444 0.039581 0.055908
0.260895 0.038391 0.054688
0.273834 0.037109 0.053406
0.287323 0.035797 0.052063
0.301514 0.034454 0.050659
0.316589 0.033020 0.049286
0.332672 0.031586 0.047791
0.350220 0.030060 0.046234
0.369141 0.028534 0.044617
0.389893 0.026917 0.042938
0.412720 0.025177 0.041168
0.438171 0.023376 0.039276
0.465271 0.021637 0.037476
0.492401 0.019867 0.035614
0.518494 0.018066 0.033783
0.542419 0.016266 0.031952
0.563049 0.014557 0.030151
0.580139 0.012878 0.028412
0.594208 0.011169 0.026611
0.605988 0.009491 0.024872
0.616028 0.007782 0.023102
0.624878 0.006073 0.021393
0.633026 0.004456 0.019684
0.640900 0.002838 0.018005
0.648926 0.001221 0.016266
0.657471 0.000000 0.014618
0.666840 0.000000 0.012970
0.677338 0.000000 0.011322
0.689270 0.000000 0.009766
0.702667 0.000000 0.008179
0.717621 0.000000 0.006653
0.734161 0.000000 0.005127
0.752136 0.000000 0.003632
0.771484 0.000000 0.002197
0.791443 0.000000 0.000824
0.064880 0.055054 0.071564
0.065002 0.055054 0.071564
0.065277 0.055084 0.071564
0.065735 0.054993 0.071503
0.066406 0.054932 0.071442
0.067383 0.054932 0.071411
0.068726 0.054779 0.071289
0.070465 0.054626 0.071167
0.072754 0.054474 0.070984
0.075562 0.054321 0.070801
0.079010 0.054077 0.070557
0.083191 0.053741 0.070221
0.087982 0.053406 0.069855
0.093231 0.053070 0.069489
0.099426 0.052582 0.069000
0.106201 0.052063 0.068481
0.113678 0.051544 0.067902
0.121918 0.050842 0.067261
0.130463 0.050262 0.066589
0.139526 0.049500 0.065887
0.149139 0.048706 0.065094
0.159149 0.047882 0.064270
0.169312 0.047028 0.063354
0.180023 0.046143 0.062439
0.190704 0.045197 0.061432
0.201843 0.044220 0.060425
0.213226 0.043091 0.059357
0.224701 0.042053 0.058258
0.236694 0.040894 0.057098
0.248871 0.039764 0.055908
0.261322 0.038544 0.054688
0.274292 0.037323 0.053406
0.287720 0.035950 0.052063
0.301910 0.034637 0.050659
0.317017 0.033264 0.049225
0.333160 0.031830 0.047760
0.350616 0.030334 0.046173
0.369629 0.028809 0.044556
0.390442 0.027069 0.042877
0.413330 0.025482 0.041107
0.438690 0.023590 0.039246
0.465820 0.021881 0.037476
0.493011 0.020081 0.035614
0.519073 0.018341 0.033783
0.542908 0.016571 0.031952
0.563507 0.014862 0.030151
0.580475 0.013184 0.028381
0.594513 0.011444 0.026581
0.606232 0.009827 0.024841
0.616241 0.008087 0.023071
0.625061 0.006226 0.021332
0.633209 0.004669 0.019684
0.641083 0.003021 0.018005
0.649139 0.001373 0.016266
0.657715 0.000000 0.014618
0.667084 0.000000 0.012970
0.677612 0.000000 0.011322
0.689575 0.000000 0.009735
0.703003 0.000000 0.008148
0.718048 0.000000 0.006592
0.734619 0.000000 0.005066
0.752716 0.000000 0.003571
0.772003 0.000000 0.002167
0.792053 0.000000 0.000763
0.064850 0.055481 0.071503
0.064972 0.055481 0.071503
0.065277 0.055481 0.071503
0.065765 0.055481 0.071503
0.066437 0.055420 0.071442
0.067444 0.055359 0.071381
0.068787 0.055267 0.071289
0.070465 0.055145 0.071167
0.072784 0.054962 0.070984
0.075531 0.054779 0.070801
0.079041 0.054504 0.070526
0.083191 0.054230 0.070221
0.087860 0.053864 0.069855
0.093384 0.053528 0.069489
0.099426 0.053040 0.069000
0.106384 0.052521 0.068481
0.113892 0.051941 0.067902
0.122070 0.051331 0.067291
0.130585 0.050629 0.066589
0.139709 0.049927 0.065887
0.149109 0.049225 0.065094
0.159210 0.048370 0.064270
0.169464 0.047485 0.063354
0.180115 0.046570 0.062439
0.190887 0.045624 0.061432
0.201904 0.044678 0.060425
0.213257 0.043579 0.059357
0.224854 0.042480 0.058258
0.236786 0.041321 0.057098
0.249023 0.040100 0.055878
0.261658 0.038910 0.054626
0.274689 0.037659 0.053314
0.288177 0.036438 0.052002
0.302338 0.035034 0.050629
0.317505 0.033661 0.049194
0.333649 0.032166 0.047760
0.351135 0.030701 0.046173
0.370148 0.029205 0.044556
0.390961 0.027466 0.042847
0.413910 0.025818 0.041107
0.439331 0.024078 0.039246
0.466461 0.022186 0.037445
0.493683 0.020477 0.035553
0.519684 0.018768 0.033752
0.543427 0.016998 0.031921
0.563904 0.015289 0.030121
0.580841 0.013489 0.028351
0.594849 0.011780 0.026581
0.606506 0.010071 0.024811
0.616516 0.008423 0.023071
0.625305 0.006805 0.021332
0.633423 0.005188 0.019623
0.641327 0.003540 0.017914
0.649384 0.001984 0.016235
0.657928 0.000183 0.014587
0.667389 0.000000 0.012909
0.677948 0.000000 0.011292
0.689941 0.000000 0.009735
0.703430 0.000000 0.008148
0.718536 0.000000 0.006592
0.735199 0.000000 0.005066
0.753296 0.000000 0.003571
0.772705 0.000000 0.002167
0.792816 0.000000 0.000763
0.064819 0.056091 0.071472
0.064941 0.056152 0.071472
0.065277 0.056091 0.071472
0.065735 0.056152 0.071472
0.066437 0.056122 0.071442
0.067474 0.056030 0.071381
0.068787 0.055969 0.071289
0.070526 0.055817 0.071167
0.072815 0.055664 0.070984
0.075684 0.055481 0.070770
0.079102 0.055206 0.070526
0.083252 0.054932 0.070221
0.088074 0.054565 0.069855
0.093475 0.054199 0.069458
0.099579 0.053741 0.068970
0.106476 0.053253 0.068481
0.113770 0.052673 0.067902
0.122009 0.052063 0.067291
0.130554 0.051422 0.066620
0.139648 0.050629 0.065887
0.149292 0.049896 0.065094
0.159302 0.049072 0.064270
0.169556 0.048187 0.063354
0.180176 0.047302 0.062439
0.190887 0.046356 0.061432
0.202026 0.045349 0.060394
0.213348 0.044312 0.059387
0.225006 0.043152 0.058258
0.236816 0.042023 0.057098
0.249146 0.040802 0.055878
0.261810 0.039581 0.054596
0.274902 0.038269 0.053375
0.288513 0.037018 0.052002
0.302856 0.035706 0.050629
0.317993 0.034271 0.049164
0.334167 0.032806 0.047699
0.351746 0.031342 0.046143
0.370758 0.029755 0.044495
0.391571 0.028168 0.042816
0.414612 0.026428 0.041046
0.440125 0.024689 0.039246
0.467163 0.022949 0.037384
0.494354 0.021118 0.035553
0.520355 0.019379 0.033722
0.544098 0.017578 0.031921
0.564453 0.015900 0.030121
0.581299 0.014221 0.028320
0.595215 0.012573 0.026550
0.606812 0.010773 0.024780
0.616791 0.009125 0.023041
0.625549 0.007538 0.021301
0.633636 0.005737 0.019623
0.641541 0.004150 0.017914
0.649628 0.002563 0.016205
0.658203 0.001007 0.014526
0.667694 0.000000 0.012909
0.678284 0.000000 0.011292
0.690338 0.000000 0.009705
0.703918 0.000000 0.008118
0.719055 0.000000 0.006531
0.735748 0.000000 0.005035
0.753937 0.000000 0.003510
0.773407 0.000000 0.002075
0.793549 0.000000 0.000763
0.064758 0.057037 0.071411
0.064880 0.057068 0.071411
0.065216 0.057068 0.071411
0.065704 0.057037 0.071411
0.066376 0.057068 0.071411
0.067505 0.057037 0.071381
0.068848 0.056946 0.071289
0.070618 0.056824 0.071167
0.072815 0.056702 0.070984
0.075775 0.056427 0.070770
0.079102 0.056244 0.070526
0.083344 0.055878 0.070190
0.087982 0.055664 0.069855
0.093475 0.055176 0.069458
0.099609 0.054749 0.068970
0.106476 0.054321 0.068481
0.113983 0.053711 0.067902
0.122070 0.053070 0.067291
0.130646 0.052399 0.066589
0.139893 0.051697 0.065887
0.149445 0.050903 0.065094
0.159424 0.050049 0.064240
0.169647 0.049225 0.063354
0.180176 0.048340 0.062439
0.191071 0.047333 0.061401
0.202087 0.046326 0.060394
0.213440 0.045288 0.059357
0.225006 0.044250 0.058258
0.236938 0.043060 0.057068
0.249207 0.041809 0.055878
0.261841 0.040619 0.054596
0.274994 0.039307 0.053375
0.288635 0.037994 0.052002
0.303040 0.036652 0.050598
0.318359 0.035187 0.049164
0.334778 0.033722 0.047699
0.352325 0.032135 0.046112
0.371429 0.030640 0.044495
0.392303 0.029022 0.042816
0.415314 0.027344 0.041046
0.440887 0.025604 0.039185
0.468018 0.023804 0.037354
0.495239 0.022003 0.035522
0.521149 0.020203 0.033691
0.544769 0.018555 0.031891
0.565033 0.016785 0.030090
0.581787 0.015198 0.028320
0.595581 0.013367 0.026489
0.607178 0.011810 0.024780
0.617065 0.010010 0.023010
0.625824 0.008392 0.021271
0.633911 0.006866 0.019562
0.641815 0.005096 0.017853
0.649872 0.003540 0.016174
0.658508 0.002014 0.014496
0.668030 0.000305 0.012878
0.678680 0.000000 0.011261
0.690796 0.000000 0.009644
0.704407 0.000000 0.008087
0.719666 0.000000 0.006500
0.736420 0.000000 0.005005
0.754639 0.000000 0.003510
0.774231 0.000000 0.002075
0.794495 0.000000 0.000702
0.064697 0.058350 0.071350
0.064819 0.058319 0.071350
0.065125 0.058319 0.071350
0.065613 0.058350 0.071350
0.066437 0.058350 0.071350
0.067474 0.058380 0.071289
0.068878 0.058350 0.071259
0.070648 0.058258 0.071167
0.073059 0.057983 0.070984
0.075928 0.057861 0.070770
0.079163 0.057648 0.070526
0.083282 0.057404 0.070221
0.088135 0.057037 0.069855
0.093689 0.056580 0.069458
0.099701 0.056152 0.068970
0.106659 0.055634 0.068420
0.114166 0.055084 0.067902
0.122253 0.054443 0.067291
0.130890 0.053802 0.066589
0.139893 0.053162 0.065887
0.149384 0.052338 0.065094
0.159637 0.051514 0.064240
0.169678 0.050659 0.063354
0.180267 0.049683 0.062439
0.191132 0.048706 0.061401
0.202209 0.047760 0.060425
0.213501 0.046661 0.059357
0.225067 0.045624 0.058228
0.237000 0.044495 0.057068
0.249329 0.043304 0.055878
0.261902 0.042053 0.054596
0.274963 0.040771 0.053375
0.288696 0.039398 0.052002
0.303070 0.037964 0.050598
0.318420 0.036591 0.049133
0.334900 0.035034 0.047699
0.352783 0.033478 0.046082
0.372131 0.031830 0.044464
0.393066 0.030182 0.042786
0.416077 0.028595 0.041016
0.441742 0.026794 0.039185
0.468903 0.025055 0.037323
0.496063 0.023346 0.035461
0.521942 0.021484 0.033661
0.545502 0.019775 0.031860
0.565674 0.018127 0.030029
0.582306 0.016388 0.028229
0.596069 0.014679 0.026459
0.607544 0.013000 0.024719
0.617401 0.011230 0.022949
0.626129 0.009735 0.021271
0.634186 0.007996 0.019531
0.642090 0.006470 0.017853
0.650177 0.004730 0.016144
0.658844 0.003265 0.014465
0.668396 0.001587 0.012848
0.679138 0.000122 0.011230
0.691284 0.000000 0.009644
0.705017 0.000000 0.008087
0.720276 0.000000 0.006500
0.737152 0.000000 0.004974
0.755402 0.000000 0.003479
0.775085 0.000000 0.002045
0.795410 0.000000 0.000702
0.064636 0.060089 0.071198
0.064697 0.060089 0.071198
0.065002 0.060089 0.071198
0.065552 0.060028 0.071198
0.066345 0.060089 0.071198
0.067444 0.060089 0.071198
0.068909 0.060089 0.071198
0.070740 0.060028 0.071167
0.073059 0.059906 0.070984
0.075958 0.059662 0.070770
0.079346 0.059509 0.070526
0.083374 0.059235 0.070190
0.088257 0.058838 0.069824
0.093750 0.058411 0.069489
0.099915 0.057953 0.069000
0.106750 0.057526 0.068481
0.114136 0.056915 0.067902
0.122253 0.056396 0.067291
0.130890 0.055725 0.066589
0.140015 0.054993 0.065826
0.149780 0.054169 0.065063
0.159576 0.053467 0.064240
0.169861 0.052460 0.063324
0.180359 0.051636 0.062378
0.191223 0.050598 0.061432
0.202332 0.049591 0.060394
0.213623 0.048584 0.059357
0.225281 0.047485 0.058228
0.237183 0.046326 0.057068
0.249359 0.045135 0.055847
0.262085 0.043915 0.054626
0.275055 0.042572 0.053314
0.288788 0.041290 0.051971
0.303284 0.039856 0.050598
0.318604 0.038452 0.049164
0.335022 0.036896 0.047638
0.352936 0.035248 0.046082
0.372284 0.033661 0.044464
0.393677 0.031952 0.042755
0.417053 0.030212 0.040955
0.442719 0.028473 0.039154
0.469849 0.026733 0.037323
0.497009 0.024933 0.035431
0.522888 0.023132 0.033630
0.546234 0.021515 0.031799
0.566345 0.019684 0.029999
0.582825 0.018005 0.028198
0.596497 0.016327 0.026428
0.607941 0.014648 0.024658
0.617737 0.013062 0.022949
0.626404 0.011353 0.021240
0.634521 0.009705 0.019501
0.642426 0.008057 0.017792
0.650513 0.006592 0.016144
0.659180 0.005005 0.014496
0.668793 0.003326 0.012848
0.679596 0.001923 0.011230
0.691864 0.000305 0.009613
0.705597 0.000000 0.008026
0.720917 0.000000 0.006500
0.737946 0.000000 0.005005
0.756348 0.000000 0.003510
0.776001 0.000000 0.002075
0.796417 0.000000 0.000702
0.064484 0.062317 0.071075
0.064606 0.062317 0.071075
0.064880 0.062347 0.071075
0.065430 0.062347 0.071075
0.066193 0.062378 0.071075
0.067261 0.062408 0.071075
0.068787 0.062378 0.071075
0.070679 0.062408 0.071075
0.073059 0.062378 0.070984
0.075897 0.062195 0.070770
0.079437 0.061890 0.070526
0.083588 0.061554 0.070221
0.088348 0.061279 0.069855
0.093781 0.060944 0.069489
0.100037 0.060425 0.068970
0.106812 0.059937 0.068481
0.114258 0.059357 0.067902
0.122375 0.058746 0.067261
0.131042 0.058105 0.066559
0.140259 0.057373 0.065826
0.149872 0.056549 0.065063
0.159760 0.055786 0.064178
0.170105 0.054932 0.063324
0.180481 0.054047 0.062439
0.191284 0.053101 0.061432
0.202484 0.052032 0.060394
0.213684 0.051025 0.059357
0.225403 0.049835 0.058197
0.237305 0.048706 0.057037
0.249512 0.047607 0.055847
0.262146 0.046356 0.054626
0.275269 0.044983 0.053314
0.288849 0.043732 0.051971
0.303345 0.042328 0.050598
0.318726 0.040771 0.049164
0.335205 0.039307 0.047638
0.352997 0.037720 0.046082
0.372467 0.036041 0.044464
0.393646 0.034332 0.042755
0.417297 0.032562 0.040985
0.443451 0.030609 0.039124
0.470917 0.028748 0.037292
0.498077 0.027039 0.035400
0.523834 0.025238 0.033630
0.547180 0.023529 0.031769
0.567047 0.021851 0.029999
0.583466 0.020081 0.028198
0.597015 0.018524 0.026428
0.608368 0.016754 0.024658
0.618164 0.015198 0.022919
0.626770 0.013641 0.021240
0.634857 0.011871 0.019531
0.642761 0.010223 0.017792
0.650909 0.008667 0.016144
0.659607 0.007141 0.014496
0.669250 0.005524 0.012848
0.680115 0.003937 0.011230
0.692413 0.002594 0.009613
0.706268 0.001038 0.008026
0.721710 0.000000 0.006500
0.738770 0.000000 0.005005
0.757233 0.000000 0.003510
0.777100 0.000000 0.002075
0.797638 0.000000 0.000732
0.064270 0.065125 0.070862
0.064392 0.065186 0.070862
0.064697 0.065186 0.070862
0.065247 0.065125 0.070862
0.065948 0.065277 0.070862
0.067108 0.065186 0.070862
0.068665 0.065247 0.070862
0.070435 0.065308 0.070862
0.072968 0.065277 0.070862
0.075928 0.065247 0.070770
0.079498 0.064911 0.070557
0.083740 0.064636 0.070221
0.088470 0.064301 0.069855
0.093842 0.063965 0.069489
0.100006 0.063507 0.069000
0.106995 0.062988 0.068481
0.114410 0.062469 0.067902
0.122437 0.061859 0.067261
0.131073 0.061218 0.066559
0.140320 0.060486 0.065826
0.149872 0.059723 0.065063
0.159821 0.058838 0.064178
0.170074 0.058044 0.063324
0.180573 0.057129 0.062439
0.191376 0.056183 0.061432
0.202454 0.055176 0.060394
0.213715 0.054169 0.059357
0.225464 0.052948 0.058197
0.237335 0.051819 0.057037
0.249573 0.050629 0.055878
0.262207 0.049438 0.054596
0.275360 0.048096 0.053314
0.288849 0.046753 0.051971
0.303375 0.045471 0.050629
0.318726 0.043945 0.049164
0.335297 0.042297 0.047638
0.353058 0.040833 0.046082
0.372498 0.039154 0.044434
0.393799 0.037445 0.042725
0.417389 0.035461 0.040955
0.443512 0.033630 0.039124
0.471588 0.031708 0.037292
0.499176 0.029694 0.035431
0.524841 0.027954 0.033630
0.548065 0.026215 0.031769
0.567780 0.024475 0.029999
0.584076 0.022858 0.028198
0.597473 0.021240 0.026428
0.608826 0.019562 0.024658
0.618530 0.017975 0.022949
0.627167 0.016235 0.021240
0.635193 0.014587 0.019531
0.643097 0.013062 0.017792
0.651276 0.011414 0.016174
0.660004 0.009888 0.014496
0.669769 0.008362 0.012848
0.680664 0.006866 0.011230
0.693054 0.005219 0.009644
0.707001 0.003906 0.008087
0.722473 0.002441 0.006500
0.739624 0.001038 0.005035
0.758270 0.000000 0.003540
0.778198 0.000000 0.002106
0.798798 0.000000 0.000732
0.064056 0.068573 0.070587
0.064148 0.068542 0.070587
0.064484 0.068573 0.070587
0.065002 0.068573 0.070587
0.065796 0.068634 0.070587
0.066956 0.068634 0.070587
0.068390 0.068665 0.070587
0.070404 0.068634 0.070587
0.072784 0.068787 0.070587
0.075897 0.068695 0.070618
0.079559 0.068634 0.070526
0.083679 0.068420 0.070221
0.088379 0.068085 0.069855
0.093994 0.067657 0.069458
0.100189 0.067200 0.068970
0.106964 0.066742 0.068481
0.114441 0.066193 0.067902
0.122498 0.065582 0.067261
0.131226 0.064911 0.066559
0.140381 0.064178 0.065796
0.149811 0.063507 0.065063
0.159760 0.062683 0.064178
0.170135 0.061768 0.063354
0.180603 0.060913 0.062439
0.191467 0.059937 0.061401
0.202545 0.058868 0.060394
0.213837 0.057892 0.059326
0.225433 0.056732 0.058197
0.237335 0.055603 0.057037
0.249573 0.054443 0.055847
0.262146 0.053314 0.054626
0.275208 0.051941 0.053314
0.289001 0.050568 0.051971
0.303345 0.049225 0.050598
0.318695 0.047760 0.049164
0.335175 0.046204 0.047638
0.353027 0.044647 0.046082
0.372375 0.042877 0.044464
0.393860 0.041077 0.042725
0.417297 0.039276 0.040985
0.443726 0.037231 0.039124
0.471405 0.035339 0.037231
0.499176 0.033447 0.035431
0.525513 0.031433 0.033661
0.549011 0.029541 0.031799
0.568604 0.027771 0.029999
0.584747 0.026093 0.028198
0.598083 0.024475 0.026459
0.609283 0.022766 0.024689
0.618958 0.021240 0.022949
0.627533 0.019501 0.021271
0.635559 0.017944 0.019562
0.643494 0.016266 0.017853
0.651672 0.014709 0.016174
0.660492 0.013153 0.014526
0.670258 0.011688 0.012878
0.681274 0.010040 0.011261
0.693726 0.008698 0.009705
0.707733 0.007263 0.008118
0.723419 0.005646 0.006531
0.740631 0.004242 0.005035
0.759338 0.002930 0.003571
0.779388 0.001556 0.002167
0.799805 0.000275 0.000824
0.063782 0.072632 0.070312
0.063904 0.072723 0.070312
0.064209 0.072815 0.070312
0.064819 0.072662 0.070312
0.065582 0.072815 0.070312
0.066620 0.072876 0.070312
0.068237 0.072784 0.070312
0.070160 0.072845 0.070312
0.072662 0.072845 0.070343
0.075775 0.072876 0.070343
0.079346 0.072968 0.070312
0.083740 0.072845 0.070221
0.088562 0.072479 0.069855
0.093964 0.072113 0.069458
0.100250 0.071625 0.068970
0.107025 0.071198 0.068481
0.114532 0.070709 0.067902
0.122650 0.070007 0.067261
0.131348 0.069336 0.066559
0.140442 0.068665 0.065796
0.149963 0.067963 0.065033
0.159821 0.067200 0.064178
0.170044 0.066345 0.063324
0.180725 0.065399 0.062439
0.191376 0.064484 0.061432
0.202454 0.063507 0.060394
0.213837 0.062408 0.059326
0.225494 0.061279 0.058197
0.237305 0.060211 0.057037
0.249512 0.059021 0.055847
0.262146 0.057770 0.054626
0.275146 0.056488 0.053314
0.288849 0.055206 0.051971
0.303345 0.053772 0.050598
0.318542 0.052307 0.049164
0.335144 0.050690 0.047638
0.352997 0.049133 0.046082
0.372345 0.047546 0.044464
0.393677 0.045715 0.042755
0.417297 0.043793 0.040985
0.443481 0.041901 0.039124
0.471222 0.039886 0.037231
0.499115 0.037964 0.035431
0.525421 0.035889 0.033630
0.549042 0.033936 0.031799
0.569183 0.031860 0.030029
0.585480 0.030029 0.028229
0.598663 0.028442 0.026489
0.609802 0.026672 0.024719
0.619415 0.025085 0.023010
0.627930 0.023529 0.021301
0.635956 0.021881 0.019623
0.643890 0.020355 0.017883
0.652100 0.018677 0.016205
0.660980 0.017212 0.014587
0.670776 0.015686 0.012909
0.681885 0.014191 0.011322
0.694458 0.012665 0.009735
0.708588 0.011078 0.008148
0.724365 0.009583 0.006622
0.741699 0.008301 0.005127
0.760498 0.007019 0.003632
0.780640 0.005493 0.002197
0.799866 0.004700 0.001038
0.063446 0.077484 0.069946
0.063599 0.077545 0.069946
0.063934 0.077545 0.069946
0.064423 0.077637 0.069946
0.065338 0.077576 0.069946
0.066406 0.077637 0.069946
0.067932 0.077637 0.069946
0.069824 0.077667 0.069946
0.072388 0.077667 0.069946
0.075500 0.077698 0.069977
0.079102 0.077789 0.069977
0.083618 0.077789 0.069977
0.088531 0.077728 0.069855
0.094177 0.077271 0.069458
0.100342 0.076874 0.068970
0.107117 0.076477 0.068481
0.114594 0.075836 0.067841
0.122742 0.075256 0.067261
0.131348 0.074646 0.066559
0.140472 0.073883 0.065796
0.149933 0.073273 0.065063
0.159882 0.072449 0.064178
0.170166 0.071594 0.063293
0.180603 0.070740 0.062439
0.191498 0.069702 0.061401
0.202576 0.068787 0.060394
0.213837 0.067719 0.059326
0.225372 0.066711 0.058228
0.237335 0.065460 0.057037
0.249573 0.064331 0.055847
0.262146 0.063141 0.054626
0.275208 0.061890 0.053314
0.288818 0.060516 0.051971
0.303223 0.059174 0.050598
0.318451 0.057648 0.049164
0.334930 0.056183 0.047699
0.352692 0.054565 0.046082
0.372101 0.052887 0.044464
0.393433 0.051117 0.042755
0.416992 0.049286 0.040955
0.443176 0.047302 0.039124
0.471069 0.045227 0.037231
0.498718 0.043427 0.035400
0.524994 0.041351 0.033630
0.548859 0.039276 0.031799
0.568909 0.037231 0.029999
0.585480 0.035248 0.028259
0.599030 0.033325 0.026550
0.610321 0.031342 0.024811
0.619904 0.029755 0.023071
0.628387 0.028046 0.021332
0.636414 0.026367 0.019653
0.644348 0.024902 0.017944
0.652588 0.023315 0.016235
0.661469 0.021790 0.014648
0.671387 0.020386 0.013000
0.682556 0.018799 0.011414
0.695221 0.017365 0.009796
0.709503 0.015930 0.008240
0.725311 0.014496 0.006683
0.742767 0.013092 0.005188
0.761719 0.011658 0.003693
0.781982 0.010223 0.002258
0.799805 0.009888 0.001282
0.063049 0.083069 0.069550
0.063232 0.083069 0.069550
0.063599 0.083160 0.069550
0.064148 0.083099 0.069550
0.064941 0.083160 0.069550
0.066010 0.083221 0.069550
0.067627 0.083191 0.069550
0.069611 0.083221 0.069550
0.072144 0.083221 0.069550
0.075134 0.083344 0.069550
0.078827 0.083374 0.069580
0.083221 0.083405 0.069580
0.088531 0.083374 0.069580
0.094208 0.083313 0.069458
0.100464 0.082825 0.068970
0.107239 0.082397 0.068420
0.114685 0.081787 0.067841
0.122772 0.081268 0.067261
0.131439 0.080688 0.066559
0.140503 0.079926 0.065796
0.150085 0.079193 0.065033
0.160004 0.078491 0.064178
0.170166 0.077637 0.063324
0.180847 0.076630 0.062378
0.191406 0.075897 0.061432
0.202576 0.074860 0.060394
0.213867 0.073792 0.059326
0.225433 0.072815 0.058197
0.237274 0.071625 0.057037
0.249512 0.070496 0.055847
0.262115 0.069275 0.054626
0.275116 0.068085 0.053314
0.288727 0.066772 0.052002
0.303131 0.065369 0.050598
0.318451 0.063843 0.049133
0.334839 0.062439 0.047699
0.352600 0.060883 0.046112
0.371948 0.059174 0.044464
0.393158 0.057465 0.042786
0.416565 0.055695 0.040985
0.442688 0.053772 0.039154
0.470520 0.051666 0.037231
0.498169 0.049774 0.035400
0.524658 0.047668 0.033630
0.548462 0.045593 0.031769
0.568604 0.043671 0.029999
0.585144 0.041504 0.028229
0.598785 0.039490 0.026489
