custom_nodes/comfyui-vrgamedevgirl/LUTS/Dark_Soft_Vivid_Warm_2.cube
#Created by: Adobe Photoshop Export Color Lookup Plugin
#Copyright: (C) Copyright 2017 PremiumBeat.com
TITLE "Santa Fe"
#LUT size
LUT_3D_SIZE 64
#data domain
DOMAIN_MIN 0.0 0.0 0.0
DOMAIN_MAX 1.0 1.0 1.0
#LUT data points
0.006409 0.022430 0.010925
0.011780 0.022461 0.010986
0.017334 0.022491 0.011047
0.023102 0.022552 0.011108
0.029022 0.022583 0.011169
0.035156 0.022644 0.011230
0.041412 0.022705 0.011292
0.047882 0.022736 0.011353
0.054565 0.022797 0.011414
0.061401 0.022858 0.011475
0.068451 0.022919 0.011566
0.075684 0.022980 0.011627
0.083038 0.023041 0.011719
0.090637 0.023102 0.011780
0.098389 0.023193 0.011871
0.106354 0.023254 0.011963
0.114471 0.023315 0.012054
0.122803 0.023407 0.012146
0.131317 0.023468 0.012238
0.140015 0.023560 0.012360
0.148926 0.023651 0.012451
0.157959 0.023743 0.012573
0.167206 0.023834 0.012695
0.176636 0.023926 0.012787
0.186249 0.024017 0.012909
0.196045 0.024109 0.013031
0.206024 0.024231 0.013184
0.216217 0.024323 0.013306
0.226593 0.024445 0.013428
0.237122 0.024536 0.013580
0.247864 0.024658 0.013702
0.258759 0.024780 0.013855
0.269897 0.024902 0.014008
0.281403 0.025024 0.014191
0.293396 0.025177 0.014343
0.305817 0.025330 0.014526
0.318695 0.025452 0.014709
0.332123 0.025635 0.014893
0.346130 0.025787 0.015106
0.360718 0.025970 0.015320
0.375977 0.026154 0.015564
0.391907 0.026367 0.015808
0.408539 0.026550 0.016052
0.425995 0.026794 0.016357
0.444366 0.027039 0.016632
0.463623 0.027283 0.016968
0.483887 0.027557 0.017273
0.504669 0.027832 0.017639
0.525848 0.028137 0.018005
0.547394 0.028412 0.018372
0.569366 0.028717 0.018768
0.591827 0.029053 0.019165
0.614868 0.029388 0.019562
0.638428 0.029755 0.020020
0.662628 0.030090 0.020447
0.687592 0.030487 0.020935
0.713440 0.030884 0.021423
0.740265 0.031311 0.021942
0.768341 0.031738 0.022491
0.797913 0.032196 0.023071
0.829559 0.032715 0.023712
0.864014 0.033295 0.024414
0.902985 0.033936 0.025208
0.952332 0.034790 0.026245
0.006531 0.027802 0.011047
0.011902 0.027832 0.011078
0.017456 0.027893 0.011139
0.023224 0.027954 0.011200
0.029144 0.027985 0.011261
0.035248 0.028046 0.011322
0.041534 0.028076 0.011383
0.048004 0.028137 0.011444
0.054688 0.028198 0.011536
0.061523 0.028259 0.011597
0.068573 0.028320 0.011658
0.075775 0.028381 0.011749
0.083160 0.028442 0.011841
0.090759 0.028503 0.011902
0.098511 0.028595 0.011993
0.106476 0.028656 0.012085
0.114594 0.028717 0.012177
0.122925 0.028809 0.012268
0.131439 0.028900 0.012390
0.140137 0.028961 0.012482
0.149048 0.029053 0.012604
0.158112 0.029144 0.012695
0.167328 0.029236 0.012817
0.176788 0.029327 0.012939
0.186401 0.029419 0.013062
0.196198 0.029541 0.013184
0.206177 0.029633 0.013306
0.216370 0.029755 0.013428
0.226746 0.029846 0.013580
0.237274 0.029968 0.013702
0.248016 0.030090 0.013855
0.258942 0.030212 0.014008
0.270050 0.030334 0.014160
0.281555 0.030457 0.014343
0.293549 0.030579 0.014496
0.305969 0.030731 0.014679
0.318878 0.030884 0.014862
0.332306 0.031067 0.015076
0.346313 0.031219 0.015259
0.360901 0.031403 0.015503
0.376160 0.031586 0.015717
0.392090 0.031799 0.015961
0.408722 0.032013 0.016235
0.426178 0.032227 0.016510
0.444550 0.032471 0.016815
0.463806 0.032715 0.017120
0.484070 0.032990 0.017456
0.504852 0.033264 0.017822
0.526031 0.033569 0.018188
0.547577 0.033875 0.018555
0.569580 0.034180 0.018951
0.592041 0.034515 0.019348
0.615082 0.034851 0.019775
0.638611 0.035187 0.020203
0.662842 0.035553 0.020660
0.687805 0.035950 0.021118
0.713654 0.036346 0.021637
0.740479 0.036774 0.022125
0.768555 0.037201 0.022705
0.798157 0.037689 0.023285
0.829803 0.038208 0.023926
0.864227 0.038757 0.024628
0.903229 0.039429 0.025452
0.952576 0.040253 0.026489
0.006653 0.033386 0.011139
0.011993 0.033447 0.011200
0.017548 0.033478 0.011261
0.023315 0.033539 0.011322
0.029266 0.033569 0.011383
0.035370 0.033630 0.011444
0.041656 0.033691 0.011505
0.048126 0.033722 0.011566
0.054810 0.033783 0.011627
0.061646 0.033844 0.011719
0.068695 0.033905 0.011780
0.075928 0.033966 0.011871
0.083282 0.034058 0.011932
0.090912 0.034119 0.012024
0.098663 0.034180 0.012115
0.106628 0.034271 0.012207
0.114746 0.034332 0.012299
0.123077 0.034424 0.012421
0.131561 0.034485 0.012512
0.140289 0.034576 0.012604
0.149200 0.034668 0.012726
0.158234 0.034760 0.012848
0.167480 0.034851 0.012939
0.176941 0.034943 0.013062
0.186554 0.035034 0.013184
0.196350 0.035156 0.013336
0.206329 0.035248 0.013458
0.216522 0.035370 0.013580
0.226929 0.035492 0.013733
0.237427 0.035583 0.013855
0.248169 0.035706 0.014008
0.259094 0.035828 0.014160
0.270203 0.035950 0.014313
0.281738 0.036102 0.014496
0.293732 0.036224 0.014648
0.306152 0.036377 0.014832
0.319061 0.036530 0.015045
0.332489 0.036682 0.015228
0.346497 0.036865 0.015442
0.361084 0.037048 0.015656
0.376343 0.037231 0.015900
0.392273 0.037445 0.016144
0.408905 0.037628 0.016418
0.426392 0.037872 0.016693
0.444733 0.038116 0.016998
0.464020 0.038361 0.017303
0.484283 0.038635 0.017639
0.505066 0.038940 0.018005
0.526245 0.039246 0.018372
0.547791 0.039551 0.018768
0.569794 0.039856 0.019135
0.592255 0.040161 0.019562
0.615295 0.040527 0.019958
0.638855 0.040863 0.020416
0.663055 0.041229 0.020874
0.688049 0.041626 0.021332
0.713867 0.042023 0.021851
0.740723 0.042450 0.022369
0.768799 0.042877 0.022919
0.798370 0.043365 0.023499
0.830048 0.043884 0.024139
0.864471 0.044464 0.024872
0.903473 0.045105 0.025665
0.952820 0.045959 0.026703
0.006775 0.039185 0.011261
0.012115 0.039215 0.011322
0.017700 0.039276 0.011353
0.023468 0.039337 0.011414
0.029388 0.039368 0.011505
0.035492 0.039429 0.011536
0.041779 0.039490 0.011627
0.048279 0.039520 0.011688
0.054932 0.039581 0.011749
0.061798 0.039642 0.011841
0.068817 0.039703 0.011902
0.076050 0.039764 0.011993
0.083435 0.039856 0.012085
0.091034 0.039917 0.012177
0.098785 0.039978 0.012238
0.106750 0.040070 0.012360
0.114899 0.040131 0.012451
0.123230 0.040222 0.012543
0.131714 0.040314 0.012634
0.140442 0.040405 0.012756
0.149353 0.040466 0.012848
0.158417 0.040588 0.012970
0.167633 0.040680 0.013092
0.177094 0.040771 0.013214
0.186707 0.040863 0.013336
0.196503 0.040985 0.013458
0.206512 0.041077 0.013611
0.216675 0.041199 0.013733
0.227081 0.041290 0.013885
0.237610 0.041412 0.014008
0.248352 0.041534 0.014160
0.259277 0.041656 0.014313
0.270386 0.041779 0.014496
0.281921 0.041931 0.014648
0.293884 0.042053 0.014801
0.306335 0.042206 0.015015
0.319214 0.042358 0.015198
0.332672 0.042542 0.015411
0.346680 0.042694 0.015625
0.361267 0.042877 0.015839
0.376526 0.043060 0.016083
0.392456 0.043274 0.016327
0.409119 0.043488 0.016602
0.426575 0.043732 0.016876
0.444946 0.043976 0.017181
0.464203 0.044220 0.017517
0.484497 0.044495 0.017853
0.505280 0.044800 0.018219
0.526459 0.045105 0.018585
0.548004 0.045410 0.018951
0.570007 0.045715 0.019348
0.592499 0.046051 0.019745
0.615509 0.046387 0.020172
0.639099 0.046753 0.020630
0.663300 0.047119 0.021088
0.688263 0.047485 0.021545
0.714111 0.047913 0.022064
0.740936 0.048309 0.022583
0.769043 0.048767 0.023163
0.798645 0.049255 0.023743
0.830292 0.049774 0.024384
0.864746 0.050354 0.025116
0.903717 0.050995 0.025909
0.953064 0.051849 0.026978
0.006897 0.045135 0.011383
0.012268 0.045197 0.011414
0.017822 0.045227 0.011475
0.023590 0.045288 0.011536
0.029541 0.045349 0.011627
0.035645 0.045410 0.011688
0.041931 0.045441 0.011749
0.048401 0.045502 0.011810
0.055054 0.045563 0.011902
0.061920 0.045624 0.011963
0.068970 0.045685 0.012054
0.076202 0.045776 0.012115
0.083588 0.045837 0.012207
0.091187 0.045898 0.012299
0.098938 0.045959 0.012390
0.106903 0.046051 0.012482
0.115021 0.046112 0.012573
0.123383 0.046204 0.012695
0.131866 0.046295 0.012787
0.140594 0.046387 0.012909
0.149506 0.046478 0.013000
0.158569 0.046570 0.013123
0.167786 0.046661 0.013245
0.177277 0.046753 0.013367
0.186859 0.046875 0.013489
0.196686 0.046967 0.013611
0.206665 0.047089 0.013763
0.216858 0.047180 0.013885
0.227264 0.047302 0.014038
0.237793 0.047424 0.014191
0.248535 0.047546 0.014343
0.259460 0.047668 0.014496
0.270569 0.047791 0.014648
0.282104 0.047943 0.014801
0.294098 0.048065 0.014984
0.306519 0.048218 0.015167
0.319427 0.048370 0.015381
0.332855 0.048553 0.015564
0.346863 0.048706 0.015778
0.361481 0.048889 0.016022
0.376740 0.049103 0.016266
0.392670 0.049316 0.016510
0.409332 0.049530 0.016785
0.426788 0.049744 0.017059
0.445160 0.049988 0.017365
0.464417 0.050262 0.017700
0.484711 0.050537 0.018036
0.505493 0.050812 0.018402
0.526672 0.051117 0.018799
0.548218 0.051453 0.019165
0.570221 0.051758 0.019562
0.592712 0.052094 0.019958
0.615753 0.052429 0.020386
0.639313 0.052795 0.020844
0.663513 0.053162 0.021301
0.688538 0.053558 0.021790
0.714355 0.053955 0.022278
0.741211 0.054382 0.022827
0.769287 0.054840 0.023376
0.798889 0.055328 0.023987
0.830566 0.055847 0.024628
0.864990 0.056427 0.025360
0.903992 0.057068 0.026154
0.953339 0.057922 0.027222
0.007019 0.051300 0.011505
0.012390 0.051331 0.011566
0.017944 0.051392 0.011627
0.023712 0.051453 0.011688
0.029663 0.051483 0.011749
0.035767 0.051544 0.011810
0.042053 0.051605 0.011871
0.048553 0.051666 0.011932
0.055206 0.051727 0.012024
0.062073 0.051788 0.012115
0.069122 0.051849 0.012177
0.076355 0.051910 0.012268
0.083740 0.051971 0.012360
0.091339 0.052063 0.012451
0.099091 0.052124 0.012543
0.107056 0.052216 0.012634
0.115204 0.052277 0.012726
0.123535 0.052368 0.012848
0.132050 0.052460 0.012939
0.140747 0.052551 0.013031
0.149658 0.052643 0.013153
0.158722 0.052734 0.013275
0.167969 0.052826 0.013397
0.177429 0.052917 0.013519
0.187042 0.053040 0.013641
0.196869 0.053131 0.013794
0.206848 0.053253 0.013916
0.217041 0.053375 0.014069
0.227417 0.053467 0.014191
0.237976 0.053589 0.014343
0.248718 0.053711 0.014496
0.259644 0.053833 0.014648
0.270752 0.053986 0.014832
0.282288 0.054108 0.014984
0.294281 0.054260 0.015167
0.306702 0.054413 0.015350
0.319611 0.054565 0.015564
0.333069 0.054749 0.015778
0.347076 0.054901 0.015991
0.361664 0.055084 0.016205
0.376953 0.055298 0.016449
0.392883 0.055511 0.016724
0.409546 0.055725 0.016968
0.427002 0.055939 0.017273
0.445374 0.056213 0.017578
0.464661 0.056458 0.017914
0.484924 0.056732 0.018250
0.505707 0.057037 0.018616
0.526917 0.057343 0.019012
0.548462 0.057648 0.019379
0.570465 0.057983 0.019775
0.592957 0.058319 0.020203
0.615997 0.058655 0.020630
0.639587 0.059021 0.021088
0.663788 0.059387 0.021545
0.688782 0.059784 0.022034
0.714630 0.060211 0.022522
0.741455 0.060608 0.023041
0.769562 0.061066 0.023621
0.799164 0.061554 0.024231
0.830841 0.062073 0.024872
0.865265 0.062683 0.025604
0.904266 0.063324 0.026428
0.953644 0.064178 0.027466
0.007172 0.057617 0.011627
0.012543 0.057648 0.011688
0.018097 0.057709 0.011749
0.023865 0.057770 0.011810
0.029816 0.057800 0.011871
0.035919 0.057861 0.011932
0.042206 0.057922 0.012024
0.048706 0.057983 0.012085
0.055359 0.058044 0.012177
0.062225 0.058105 0.012238
0.069275 0.058167 0.012329
0.076508 0.058258 0.012421
0.083893 0.058319 0.012512
0.091492 0.058380 0.012604
0.099274 0.058472 0.012695
0.107239 0.058533 0.012787
0.115356 0.058624 0.012878
0.123688 0.058716 0.013000
0.132202 0.058807 0.013092
0.140930 0.058899 0.013214
0.149841 0.058990 0.013336
0.158905 0.059082 0.013428
0.168152 0.059174 0.013550
0.177612 0.059265 0.013672
0.187225 0.059387 0.013824
0.197052 0.059479 0.013947
0.207031 0.059601 0.014099
0.217224 0.059723 0.014221
0.227631 0.059845 0.014374
0.238159 0.059937 0.014526
0.248901 0.060089 0.014679
0.259827 0.060211 0.014862
0.270966 0.060333 0.015015
0.282471 0.060486 0.015167
0.294495 0.060638 0.015350
0.306915 0.060760 0.015564
0.319824 0.060944 0.015747
0.333252 0.061096 0.015961
0.347290 0.061279 0.016174
0.361877 0.061462 0.016418
0.377167 0.061676 0.016663
0.393097 0.061890 0.016907
0.409760 0.062103 0.017181
0.427216 0.062317 0.017487
0.445618 0.062592 0.017792
0.464874 0.062866 0.018127
0.485168 0.063141 0.018463
0.505951 0.063416 0.018829
0.527161 0.063751 0.019226
0.548706 0.064056 0.019623
0.570709 0.064362 0.020020
0.593201 0.064697 0.020416
0.616241 0.065063 0.020874
0.639832 0.065430 0.021332
0.664032 0.065796 0.021790
0.689026 0.066193 0.022247
0.714905 0.066589 0.022766
0.741730 0.067047 0.023315
0.769836 0.067505 0.023895
0.799438 0.067963 0.024475
0.831116 0.068512 0.025146
0.865570 0.069092 0.025848
0.904572 0.069763 0.026672
0.953918 0.070618 0.027740
0.007324 0.064148 0.011780
0.012695 0.064178 0.011841
0.018250 0.064240 0.011902
0.024017 0.064270 0.011963
0.029968 0.064331 0.012024
0.036072 0.064392 0.012085
0.042389 0.064453 0.012177
0.048859 0.064514 0.012238
0.055511 0.064575 0.012329
0.062378 0.064636 0.012390
0.069427 0.064697 0.012482
0.076660 0.064789 0.012573
0.084045 0.064850 0.012665
0.091675 0.064911 0.012756
0.099426 0.065002 0.012848
0.107391 0.065063 0.012939
0.115540 0.065155 0.013031
0.123871 0.065247 0.013153
0.132385 0.065338 0.013275
0.141113 0.065430 0.013367
0.150024 0.065521 0.013489
0.159088 0.065613 0.013611
0.168335 0.065735 0.013733
0.177795 0.065826 0.013855
0.187408 0.065918 0.014008
0.197235 0.066040 0.014130
0.207214 0.066162 0.014252
0.217407 0.066284 0.014435
0.227814 0.066376 0.014557
0.238373 0.066498 0.014709
0.249115 0.066650 0.014862
0.260040 0.066772 0.015045
0.271149 0.066895 0.015198
0.282684 0.067047 0.015381
0.294678 0.067200 0.015564
0.307098 0.067352 0.015747
0.320038 0.067505 0.015930
0.333496 0.067688 0.016174
0.347504 0.067841 0.016388
0.362122 0.068054 0.016632
0.377380 0.068237 0.016876
0.393311 0.068451 0.017120
0.409973 0.068665 0.017395
0.427460 0.068909 0.017700
0.445831 0.069183 0.018005
0.465118 0.069458 0.018341
0.485413 0.069733 0.018707
0.506195 0.070038 0.019073
0.527405 0.070343 0.019440
0.548950 0.070648 0.019836
0.570984 0.070984 0.020264
0.593475 0.071320 0.020660
0.616516 0.071655 0.021118
0.640076 0.072021 0.021545
0.664307 0.072418 0.022034
0.689301 0.072815 0.022522
0.715179 0.073212 0.023041
0.742004 0.073639 0.023560
0.770111 0.074127 0.024139
0.799713 0.074615 0.024750
0.831390 0.075134 0.025421
0.865845 0.075714 0.026123
0.904846 0.076385 0.026978
0.954224 0.077240 0.028015
0.007477 0.070831 0.011902
0.012848 0.070892 0.011963
0.018402 0.070923 0.012024
0.024170 0.070984 0.012115
0.030121 0.071045 0.012177
0.036224 0.071106 0.012238
0.042542 0.071167 0.012329
0.049011 0.071228 0.012390
0.055695 0.071289 0.012482
0.062561 0.071350 0.012543
0.069611 0.071411 0.012634
0.076843 0.071472 0.012726
0.084229 0.071564 0.012817
0.091858 0.071625 0.012909
0.099609 0.071716 0.013000
0.107574 0.071777 0.013092
0.115723 0.071869 0.013214
0.124054 0.071960 0.013336
0.132568 0.072052 0.013428
0.141296 0.072144 0.013550
0.150208 0.072235 0.013672
0.159271 0.072357 0.013794
0.168518 0.072449 0.013916
0.177979 0.072540 0.014038
0.187622 0.072662 0.014191
0.197418 0.072784 0.014313
0.207428 0.072876 0.014465
0.217621 0.072998 0.014618
0.228027 0.073120 0.014740
0.238556 0.073242 0.014893
0.249329 0.073364 0.015076
0.260254 0.073517 0.015228
0.271362 0.073639 0.015411
0.282898 0.073792 0.015564
0.294891 0.073914 0.015747
0.307343 0.074097 0.015961
0.320251 0.074249 0.016144
0.333710 0.074432 0.016357
0.347748 0.074615 0.016602
0.362335 0.074799 0.016815
0.377625 0.075012 0.017090
0.393555 0.075226 0.017365
0.410217 0.075439 0.017639
0.427704 0.075684 0.017914
0.446075 0.075928 0.018250
0.465363 0.076202 0.018585
0.485657 0.076508 0.018951
0.506470 0.076782 0.019318
0.527649 0.077087 0.019684
0.549225 0.077423 0.020081
0.571259 0.077759 0.020508
0.593750 0.078094 0.020935
0.616791 0.078461 0.021362
0.640350 0.078827 0.021820
0.664581 0.079193 0.022278
0.689575 0.079590 0.022766
0.715454 0.080017 0.023315
0.742279 0.080444 0.023834
0.770386 0.080902 0.024414
0.800018 0.081421 0.025024
0.831696 0.081940 0.025696
0.866150 0.082520 0.026398
0.905151 0.083191 0.027252
0.954529 0.084076 0.028320
0.007629 0.077728 0.012054
0.013000 0.077789 0.012115
0.018585 0.077820 0.012207
0.024353 0.077881 0.012238
0.030304 0.077942 0.012329
0.036407 0.078003 0.012390
0.042694 0.078064 0.012482
0.049194 0.078125 0.012543
0.055847 0.078186 0.012634
0.062744 0.078247 0.012726
0.069794 0.078339 0.012817
0.077026 0.078400 0.012878
0.084412 0.078461 0.013000
0.092041 0.078552 0.013092
0.099792 0.078644 0.013184
0.107758 0.078705 0.013275
0.115906 0.078796 0.013397
0.124237 0.078888 0.013489
0.132782 0.078979 0.013611
0.141479 0.079071 0.013733
0.150421 0.079163 0.013855
0.159485 0.079254 0.013977
0.168732 0.079376 0.014099
0.178192 0.079468 0.014221
0.187805 0.079590 0.014374
0.197632 0.079712 0.014496
0.207611 0.079803 0.014648
0.217834 0.079926 0.014801
0.228241 0.080048 0.014954
0.238770 0.080200 0.015106
0.249542 0.080322 0.015259
0.260468 0.080444 0.015442
0.271576 0.080597 0.015594
0.283112 0.080719 0.015778
0.295135 0.080872 0.015961
0.307556 0.081024 0.016174
0.320496 0.081207 0.016357
0.333923 0.081360 0.016571
0.347961 0.081573 0.016815
0.362579 0.081757 0.017059
0.377838 0.081940 0.017303
0.393799 0.082184 0.017578
0.410461 0.082397 0.017853
0.427948 0.082642 0.018158
0.446320 0.082886 0.018463
0.465607 0.083160 0.018829
0.485931 0.083466 0.019196
0.506714 0.083771 0.019562
0.527924 0.084076 0.019928
0.549500 0.084412 0.020355
0.571533 0.084747 0.020752
0.594025 0.085083 0.021179
0.617065 0.085449 0.021637
0.640656 0.085815 0.022095
0.664856 0.086182 0.022552
0.689880 0.086609 0.023041
0.715729 0.087006 0.023560
0.742584 0.087463 0.024109
0.770691 0.087921 0.024689
0.800323 0.088409 0.025299
0.832001 0.088959 0.025970
0.866455 0.089539 0.026703
0.905457 0.090210 0.027527
0.954834 0.091064 0.028595
0.007812 0.084808 0.012238
0.013184 0.084869 0.012299
0.018738 0.084900 0.012360
0.024506 0.084961 0.012421
0.030457 0.085022 0.012482
0.036591 0.085083 0.012573
0.042877 0.085144 0.012634
0.049377 0.085205 0.012726
0.056030 0.085266 0.012787
0.062927 0.085327 0.012878
0.069977 0.085419 0.012970
0.077209 0.085480 0.013062
0.084595 0.085571 0.013153
0.092224 0.085632 0.013275
0.099976 0.085724 0.013367
0.107971 0.085815 0.013458
0.116089 0.085907 0.013580
0.124451 0.085999 0.013672
0.132965 0.086090 0.013794
0.141693 0.086182 0.013916
0.150604 0.086273 0.014038
0.159698 0.086365 0.014160
0.168945 0.086487 0.014313
0.178406 0.086578 0.014435
0.188019 0.086700 0.014557
0.197845 0.086823 0.014709
0.207855 0.086914 0.014862
0.218048 0.087067 0.015015
0.228455 0.087189 0.015167
0.239014 0.087311 0.015320
0.249756 0.087433 0.015472
0.260681 0.087585 0.015656
0.271820 0.087708 0.015808
0.283356 0.087860 0.015991
0.295349 0.088013 0.016174
0.307800 0.088165 0.016388
0.320740 0.088318 0.016602
0.334167 0.088501 0.016815
0.348236 0.088684 0.017059
0.362823 0.088898 0.017273
0.378113 0.089111 0.017548
0.394043 0.089325 0.017822
0.410736 0.089539 0.018097
0.428223 0.089783 0.018402
0.446594 0.090057 0.018707
0.465881 0.090332 0.019073
0.486206 0.090637 0.019440
0.506989 0.090942 0.019806
0.528198 0.091248 0.020203
0.549774 0.091553 0.020599
0.571808 0.091919 0.021027
0.594299 0.092255 0.021454
0.617371 0.092621 0.021912
0.640930 0.092987 0.022339
0.665192 0.093384 0.022827
0.690186 0.093781 0.023346
0.716034 0.094177 0.023834
0.742889 0.094635 0.024414
0.770996 0.095093 0.024963
0.800629 0.095612 0.025604
0.832336 0.096130 0.026276
0.866791 0.096741 0.027008
0.905823 0.097412 0.027832
0.955170 0.098267 0.028900
0.007996 0.092102 0.012390
0.013367 0.092133 0.012451
0.018921 0.092194 0.012512
0.024719 0.092255 0.012604
0.030670 0.092316 0.012665
0.036774 0.092377 0.012726
0.043060 0.092438 0.012817
0.049561 0.092499 0.012878
0.056244 0.092560 0.012970
0.063110 0.092621 0.013062
0.070160 0.092712 0.013153
0.077423 0.092773 0.013245
0.084808 0.092865 0.013336
0.092407 0.092926 0.013428
0.100189 0.093018 0.013550
0.108154 0.093109 0.013641
0.116302 0.093201 0.013763
0.124664 0.093292 0.013885
0.133179 0.093384 0.013977
0.141907 0.093475 0.014130
0.150818 0.093567 0.014221
0.159882 0.093689 0.014374
0.169128 0.093781 0.014496
0.178619 0.093903 0.014648
0.188232 0.094025 0.014771
0.198059 0.094116 0.014923
0.208069 0.094238 0.015076
0.218262 0.094360 0.015228
0.228699 0.094513 0.015381
0.239227 0.094635 0.015533
0.250000 0.094757 0.015686
0.260925 0.094910 0.015869
0.272064 0.095032 0.016052
0.283600 0.095184 0.016235
0.295624 0.095337 0.016418
0.308044 0.095490 0.016632
0.320984 0.095673 0.016815
0.334442 0.095856 0.017059
0.348480 0.096039 0.017273
0.363098 0.096222 0.017517
0.378357 0.096436 0.017792
0.394318 0.096649 0.018066
0.410980 0.096893 0.018341
0.428497 0.097137 0.018646
0.446869 0.097412 0.018982
0.466156 0.097687 0.019318
0.486481 0.097961 0.019684
0.507263 0.098297 0.020081
0.528503 0.098602 0.020477
0.550079 0.098938 0.020874
0.572083 0.099274 0.021301
0.594604 0.099609 0.021729
0.617645 0.099976 0.022156
0.641266 0.100372 0.022644
0.665466 0.100739 0.023132
0.690491 0.101135 0.023621
0.716370 0.101562 0.024139
0.743225 0.102020 0.024689
0.771332 0.102478 0.025269
0.800964 0.102997 0.025909
0.832642 0.103516 0.026581
0.867126 0.104126 0.027313
0.906128 0.104797 0.028137
0.955536 0.105682 0.029236
0.008179 0.099518 0.012573
0.013550 0.099579 0.012634
0.019104 0.099609 0.012695
0.024902 0.099670 0.012756
0.030853 0.099731 0.012848
0.036987 0.099823 0.012909
0.043274 0.099884 0.013000
0.049774 0.099945 0.013062
0.056427 0.100006 0.013153
0.063324 0.100067 0.013245
0.070343 0.100159 0.013336
0.077606 0.100220 0.013428
0.084991 0.100311 0.013519
0.092621 0.100372 0.013641
0.100403 0.100464 0.013733
0.108368 0.100555 0.013855
0.116516 0.100647 0.013947
0.124878 0.100739 0.014069
0.133392 0.100830 0.014191
0.142120 0.100922 0.014313
0.151031 0.101044 0.014435
0.160126 0.101135 0.014587
0.169373 0.101257 0.014709
0.178833 0.101349 0.014832
0.188477 0.101471 0.014984
0.198303 0.101593 0.015137
0.208313 0.101715 0.015289
0.218506 0.101837 0.015442
0.228943 0.101959 0.015594
0.239471 0.102081 0.015747
0.250244 0.102234 0.015930
0.261169 0.102386 0.016113
0.272308 0.102509 0.016266
0.283844 0.102661 0.016449
0.295868 0.102814 0.016663
0.308319 0.102966 0.016846
0.321259 0.103149 0.017059
0.334686 0.103333 0.017273
0.348724 0.103516 0.017517
0.363342 0.103729 0.017761
0.378632 0.103943 0.018036
0.394592 0.104156 0.018311
0.411255 0.104401 0.018585
0.428772 0.104645 0.018921
0.447174 0.104919 0.019226
0.466461 0.105194 0.019592
0.486755 0.105469 0.019958
0.507568 0.105804 0.020355
0.528809 0.106110 0.020752
0.550354 0.106445 0.021149
0.572388 0.106781 0.021576
0.594910 0.107147 0.022003
0.617981 0.107513 0.022461
0.641571 0.107880 0.022919
0.665802 0.108276 0.023407
0.690796 0.108673 0.023926
0.716675 0.109100 0.024445
0.743561 0.109558 0.024994
0.771667 0.110016 0.025574
0.801300 0.110535 0.026215
0.832977 0.111053 0.026886
0.867462 0.111664 0.027618
0.906494 0.112335 0.028473
0.955872 0.113220 0.029572
0.008362 0.107178 0.012756
0.013733 0.107239 0.012817
0.019318 0.107300 0.012878
0.025085 0.107361 0.012939
0.031036 0.107422 0.013031
0.037170 0.107483 0.013092
0.043457 0.107544 0.013184
0.049988 0.107605 0.013275
0.056641 0.107666 0.013367
0.063538 0.107758 0.013458
0.070587 0.107819 0.013550
0.077820 0.107910 0.013641
0.085236 0.107971 0.013733
0.092865 0.108063 0.013855
0.100616 0.108154 0.013947
0.108582 0.108246 0.014038
0.116730 0.108337 0.014160
0.125092 0.108429 0.014282
0.133606 0.108521 0.014404
0.142334 0.108612 0.014526
0.151276 0.108734 0.014648
0.160370 0.108826 0.014801
0.169617 0.108948 0.014923
0.179077 0.109039 0.015076
0.188721 0.109161 0.015228
0.198547 0.109283 0.015350
0.208557 0.109406 0.015503
0.218781 0.109558 0.015656
0.229156 0.109680 0.015839
0.239746 0.109802 0.015991
0.250488 0.109924 0.016174
0.261414 0.110077 0.016327
0.272583 0.110229 0.016510
0.284119 0.110382 0.016693
0.296112 0.110535 0.016907
0.308563 0.110687 0.017090
0.321503 0.110870 0.017303
0.334991 0.111053 0.017548
0.348999 0.111237 0.017792
0.363647 0.111450 0.018036
0.378937 0.111664 0.018311
0.394867 0.111877 0.018555
0.411560 0.112122 0.018860
0.429077 0.112366 0.019196
0.447449 0.112640 0.019501
0.466766 0.112915 0.019867
0.487061 0.113220 0.020233
0.507874 0.113556 0.020630
