custom_nodes/comfyui-vrgamedevgirl/LUTS/Dark_Soft_Vivid_Warm.cube
#Created by: Adobe Photoshop Export Color Lookup Plugin
#Copyright: (C) Copyright 2017 PremiumBeat.com
TITLE "Prague"
#LUT size
LUT_3D_SIZE 64
#data domain
DOMAIN_MIN 0.0 0.0 0.0
DOMAIN_MAX 1.0 1.0 1.0
#LUT data points
0.091034 0.000000 0.000000
0.092987 0.000000 0.000000
0.095551 0.000000 0.000000
0.103210 0.000000 0.000000
0.115479 0.000000 0.000000
0.128998 0.000000 0.000000
0.137634 0.000000 0.000000
0.146088 0.000000 0.000000
0.154449 0.000000 0.000000
0.162842 0.000000 0.000000
0.170959 0.000000 0.000000
0.178955 0.000000 0.000000
0.186829 0.000000 0.000000
0.194336 0.000000 0.000000
0.201660 0.000000 0.000000
0.208832 0.000000 0.000000
0.215881 0.000000 0.000000
0.222870 0.000000 0.000000
0.229950 0.000000 0.000000
0.237244 0.000000 0.000000
0.244995 0.000000 0.000000
0.253357 0.000000 0.000000
0.262695 0.000000 0.000000
0.273193 0.000000 0.000000
0.285187 0.000000 0.000000
0.298431 0.000000 0.000000
0.312988 0.000000 0.000000
0.328888 0.000000 0.000000
0.345886 0.000000 0.000000
0.364014 0.000000 0.000000
0.382935 0.000000 0.000000
0.402679 0.000000 0.000000
0.423004 0.000000 0.000000
0.443756 0.000000 0.000000
0.464539 0.000000 0.000031
0.485107 0.000000 0.000031
0.505371 0.000000 0.000031
0.524353 0.000000 0.000031
0.541992 0.000000 0.000031
0.558258 0.000000 0.000031
0.573425 0.000000 0.000031
0.587616 0.000000 0.000031
0.600922 0.000000 0.000031
0.613525 0.000000 0.000031
0.625580 0.000000 0.000031
0.636993 0.000000 0.000031
0.648071 0.000000 0.000031
0.658691 0.000000 0.000031
0.669037 0.000000 0.000031
0.679230 0.000000 0.000031
0.689240 0.000000 0.000031
0.699127 0.000000 0.000031
0.709015 0.000000 0.000031
0.718842 0.000000 0.000031
0.728699 0.000000 0.000031
0.738617 0.000000 0.000031
0.748596 0.000000 0.000031
0.758575 0.000000 0.000031
0.768707 0.000000 0.000061
0.779053 0.000000 0.000061
0.789459 0.000000 0.000061
0.800079 0.000000 0.000061
0.810730 0.000000 0.000061
0.821503 0.000000 0.000061
0.091003 0.001343 0.000000
0.093018 0.001343 0.000000
0.095551 0.001282 0.000000
0.103180 0.001068 0.000000
0.115448 0.000763 0.000000
0.128967 0.000366 0.000000
0.137665 0.000122 0.000000
0.146149 0.000000 0.000000
0.154510 0.000000 0.000000
0.162872 0.000000 0.000000
0.170990 0.000000 0.000000
0.178986 0.000000 0.000000
0.186798 0.000000 0.000000
0.194366 0.000000 0.000000
0.201691 0.000000 0.000000
0.208862 0.000000 0.000000
0.215912 0.000000 0.000000
0.222900 0.000000 0.000000
0.229919 0.000000 0.000000
0.237305 0.000000 0.000000
0.245026 0.000000 0.000000
0.253418 0.000000 0.000000
0.262726 0.000000 0.000000
0.273224 0.000000 0.000000
0.285217 0.000000 0.000000
0.298523 0.000000 0.000000
0.313019 0.000000 0.000000
0.328918 0.000000 0.000000
0.345978 0.000000 0.000000
0.364075 0.000000 0.000000
0.382996 0.000000 0.000000
0.402740 0.000000 0.000000
0.423065 0.000000 0.000000
0.443817 0.000000 0.000000
0.464569 0.000000 0.000031
0.485168 0.000000 0.000031
0.505463 0.000000 0.000031
0.524445 0.000000 0.000031
0.542023 0.000000 0.000031
0.558289 0.000000 0.000031
0.573547 0.000000 0.000031
0.587677 0.000000 0.000031
0.601044 0.000000 0.000031
0.613617 0.000000 0.000031
0.625641 0.000000 0.000031
0.637054 0.000000 0.000031
0.648132 0.000000 0.000031
0.658752 0.000000 0.000031
0.669220 0.000000 0.000031
0.679352 0.000000 0.000031
0.689301 0.000000 0.000031
0.699188 0.000000 0.000031
0.709076 0.000000 0.000031
0.718933 0.000000 0.000031
0.728760 0.000000 0.000031
0.738647 0.000000 0.000031
0.748657 0.000000 0.000031
0.758728 0.000000 0.000031
0.768829 0.000000 0.000061
0.779114 0.000000 0.000061
0.789520 0.000000 0.000061
0.800140 0.000000 0.000061
0.810822 0.000000 0.000061
0.821564 0.000000 0.000061
0.091003 0.004456 0.000000
0.092957 0.004517 0.000000
0.095581 0.004395 0.000000
0.103180 0.004181 0.000000
0.115479 0.003845 0.000000
0.128998 0.003510 0.000000
0.137756 0.003143 0.000000
0.146179 0.002899 0.000000
0.154480 0.002625 0.000000
0.162842 0.002350 0.000000
0.170990 0.002075 0.000000
0.179016 0.001709 0.000000
0.186829 0.001404 0.000000
0.194397 0.001007 0.000000
0.201782 0.000732 0.000000
0.208893 0.000397 0.000000
0.215973 0.000061 0.000000
0.222961 0.000000 0.000000
0.229980 0.000000 0.000000
0.237335 0.000000 0.000000
0.245056 0.000000 0.000000
0.253448 0.000000 0.000000
0.262787 0.000000 0.000000
0.273285 0.000000 0.000000
0.285278 0.000000 0.000000
0.298584 0.000000 0.000000
0.313110 0.000000 0.000000
0.329010 0.000000 0.000000
0.346039 0.000000 0.000000
0.364075 0.000000 0.000000
0.383026 0.000000 0.000000
0.402802 0.000000 0.000000
0.423096 0.000000 0.000000
0.443878 0.000000 0.000000
0.464630 0.000000 0.000031
0.485260 0.000000 0.000031
0.505524 0.000000 0.000031
0.524475 0.000000 0.000031
0.542084 0.000000 0.000031
0.558350 0.000000 0.000031
0.573608 0.000000 0.000031
0.587708 0.000000 0.000031
0.601135 0.000000 0.000031
0.613678 0.000000 0.000031
0.625702 0.000000 0.000031
0.637177 0.000000 0.000031
0.648193 0.000000 0.000031
0.658875 0.000000 0.000031
0.669281 0.000000 0.000031
0.679382 0.000000 0.000031
0.689392 0.000000 0.000031
0.699310 0.000000 0.000031
0.709198 0.000000 0.000031
0.718994 0.000000 0.000031
0.728851 0.000000 0.000031
0.738770 0.000000 0.000031
0.748718 0.000000 0.000031
0.758789 0.000000 0.000031
0.768921 0.000000 0.000061
0.779205 0.000000 0.000061
0.789642 0.000000 0.000061
0.800201 0.000000 0.000061
0.810944 0.000000 0.000061
0.821716 0.000000 0.000061
0.090973 0.014526 0.000000
0.093048 0.014374 0.000000
0.095581 0.014374 0.000000
0.103271 0.014099 0.000000
0.115509 0.013702 0.000000
0.129089 0.013153 0.000000
0.137787 0.012970 0.000000
0.146240 0.012665 0.000000
0.154572 0.012329 0.000000
0.162933 0.012024 0.000000
0.171082 0.011688 0.000000
0.179108 0.011353 0.000000
0.186951 0.010986 0.000000
0.194489 0.010651 0.000000
0.201813 0.010376 0.000000
0.208984 0.009979 0.000000
0.216064 0.009613 0.000000
0.223053 0.009186 0.000000
0.230103 0.008911 0.000000
0.237488 0.008423 0.000000
0.245178 0.007996 0.000000
0.253662 0.007538 0.000000
0.262909 0.007050 0.000000
0.273438 0.006378 0.000000
0.285431 0.005615 0.000000
0.298737 0.004608 0.000000
0.313263 0.003571 0.000000
0.329163 0.002350 0.000000
0.346191 0.000885 0.000000
0.364288 0.000000 0.000000
0.383301 0.000000 0.000000
0.403015 0.000000 0.000000
0.423370 0.000000 0.000000
0.444153 0.000000 0.000000
0.464905 0.000000 0.000031
0.485504 0.000000 0.000031
0.505768 0.000000 0.000031
0.524750 0.000000 0.000031
0.542328 0.000000 0.000031
0.558655 0.000000 0.000031
0.573792 0.000000 0.000031
0.587982 0.000000 0.000031
0.601349 0.000000 0.000031
0.613922 0.000000 0.000031
0.625946 0.000000 0.000031
0.637451 0.000000 0.000031
0.648407 0.000000 0.000031
0.659119 0.000000 0.000031
0.669495 0.000000 0.000031
0.679688 0.000000 0.000031
0.689667 0.000000 0.000031
0.699615 0.000000 0.000031
0.709503 0.000000 0.000031
0.719269 0.000000 0.000031
0.729156 0.000000 0.000031
0.739044 0.000000 0.000031
0.749054 0.000000 0.000031
0.759064 0.000000 0.000031
0.769196 0.000000 0.000061
0.779480 0.000000 0.000061
0.789917 0.000000 0.000061
0.800568 0.000000 0.000061
0.811188 0.000000 0.000061
0.821991 0.000000 0.000061
0.091034 0.031555 0.000000
0.093018 0.031494 0.000000
0.095612 0.031372 0.000000
0.103271 0.031036 0.000000
0.115570 0.030487 0.000000
0.129211 0.029907 0.000000
0.137909 0.029602 0.000000
0.146301 0.029236 0.000000
0.154694 0.028931 0.000000
0.163086 0.028534 0.000000
0.171234 0.028229 0.000000
0.179291 0.027771 0.000000
0.187103 0.027466 0.000000
0.194672 0.027069 0.000000
0.202087 0.026764 0.000000
0.209198 0.026428 0.000000
0.216309 0.026154 0.000000
0.223236 0.025757 0.000000
0.230316 0.025421 0.000000
0.237701 0.024994 0.000000
0.245392 0.024597 0.000000
0.253906 0.024078 0.000000
0.263153 0.023590 0.000000
0.273682 0.022919 0.000000
0.285706 0.022125 0.000000
0.299011 0.021149 0.000000
0.313538 0.020050 0.000000
0.329529 0.018738 0.000000
0.346466 0.017365 0.000000
0.364563 0.015839 0.000000
0.383636 0.013947 0.000000
0.403381 0.011993 0.000000
0.423767 0.009552 0.000000
0.444489 0.007233 0.000000
0.465271 0.004791 0.000031
0.485870 0.002197 0.000031
0.506195 0.000000 0.000031
0.525116 0.000000 0.000031
0.542725 0.000000 0.000031
0.559021 0.000000 0.000031
0.574219 0.000000 0.000031
0.588409 0.000000 0.000031
0.601776 0.000000 0.000031
0.614288 0.000000 0.000031
0.626373 0.000000 0.000031
0.637848 0.000000 0.000031
0.648865 0.000000 0.000031
0.659607 0.000000 0.000031
0.669952 0.000000 0.000031
0.680115 0.000000 0.000031
0.690155 0.000000 0.000031
0.700043 0.000000 0.000031
0.709930 0.000000 0.000031
0.719818 0.000000 0.000031
0.729645 0.000000 0.000031
0.739563 0.000000 0.000031
0.749512 0.000000 0.000031
0.759613 0.000000 0.000031
0.769684 0.000000 0.000061
0.780029 0.000000 0.000061
0.790436 0.000000 0.000061
0.801025 0.000000 0.000061
0.811707 0.000000 0.000061
0.822479 0.000000 0.000061
0.091095 0.051849 0.000000
0.093140 0.051697 0.000000
0.095642 0.051605 0.000000
0.103363 0.051086 0.000000
0.115723 0.050415 0.000000
0.129242 0.049744 0.000000
0.138031 0.049377 0.000000
0.146454 0.049011 0.000000
0.154877 0.048615 0.000000
0.163269 0.048279 0.000000
0.171417 0.047943 0.000000
0.179474 0.047577 0.000000
0.187225 0.047211 0.000000
0.194916 0.046875 0.000000
0.202301 0.046509 0.000000
0.209442 0.046234 0.000000
0.216522 0.045868 0.000000
0.223511 0.045532 0.000000
0.230621 0.045227 0.000000
0.237946 0.044861 0.000000
0.245728 0.044403 0.000000
0.254150 0.043945 0.000000
0.263489 0.043396 0.000000
0.274078 0.042816 0.000000
0.285950 0.041992 0.000000
0.299316 0.041046 0.000000
0.313934 0.039948 0.000000
0.329865 0.038727 0.000000
0.346924 0.037079 0.000000
0.365021 0.035400 0.000000
0.384003 0.033630 0.000000
0.403839 0.031403 0.000000
0.424194 0.029205 0.000000
0.444946 0.026855 0.000000
0.465759 0.024200 0.000000
0.486359 0.021759 0.000031
0.506653 0.018921 0.000031
0.525635 0.016235 0.000031
0.543182 0.013794 0.000031
0.559540 0.011108 0.000031
0.574738 0.008759 0.000031
0.588928 0.006378 0.000031
0.602264 0.004120 0.000031
0.614929 0.001984 0.000031
0.626953 0.000000 0.000031
0.638336 0.000000 0.000031
0.649414 0.000000 0.000031
0.660126 0.000000 0.000031
0.670532 0.000000 0.000031
0.680664 0.000000 0.000031
0.690704 0.000000 0.000031
0.700592 0.000000 0.000031
0.710541 0.000000 0.000031
0.720367 0.000000 0.000031
0.730194 0.000000 0.000031
0.740112 0.000000 0.000031
0.750153 0.000000 0.000031
0.760132 0.000000 0.000031
0.770325 0.000000 0.000061
0.780609 0.000000 0.000061
0.791046 0.000000 0.000061
0.801605 0.000000 0.000061
0.812378 0.000000 0.000061
0.823151 0.000000 0.000061
0.090973 0.065613 0.000000
0.093109 0.065430 0.000000
0.095612 0.065216 0.000000
0.103302 0.064728 0.000000
0.115723 0.063934 0.000000
0.129333 0.063202 0.000000
0.138153 0.062805 0.000000
0.146545 0.062408 0.000000
0.154999 0.062012 0.000000
0.163361 0.061676 0.000000
0.171509 0.061279 0.000000
0.179596 0.060974 0.000000
0.187408 0.060669 0.000000
0.195099 0.060333 0.000000
0.202423 0.060059 0.000000
0.209625 0.059784 0.000000
0.216705 0.059509 0.000000
0.223724 0.059174 0.000000
0.230713 0.058899 0.000000
0.238129 0.058594 0.000000
0.245911 0.058167 0.000000
0.254364 0.057770 0.000000
0.263641 0.057312 0.000000
0.274261 0.056702 0.000000
0.286224 0.056000 0.000000
0.299622 0.055237 0.000000
0.314117 0.054382 0.000000
0.330139 0.053101 0.000000
0.347198 0.051880 0.000000
0.365326 0.050507 0.000000
0.384308 0.048889 0.000000
0.404114 0.046967 0.000000
0.424438 0.044891 0.000000
0.445221 0.042664 0.000000
0.466034 0.040283 0.000000
0.486633 0.037476 0.000031
0.506958 0.034729 0.000031
0.526001 0.031921 0.000031
0.543549 0.029327 0.000031
0.559845 0.026855 0.000031
0.575073 0.024323 0.000031
0.589264 0.022156 0.000031
0.602661 0.019867 0.000031
0.615265 0.017670 0.000031
0.627319 0.015533 0.000031
0.638763 0.013397 0.000031
0.649811 0.011230 0.000031
0.660461 0.009155 0.000031
0.670929 0.006958 0.000031
0.681122 0.005127 0.000031
0.691101 0.003021 0.000031
0.701019 0.001038 0.000031
0.710938 0.000000 0.000031
0.720703 0.000000 0.000031
0.730560 0.000000 0.000031
0.740479 0.000000 0.000031
0.750488 0.000000 0.000031
0.760559 0.000000 0.000031
0.770752 0.000000 0.000061
0.781067 0.000000 0.000061
0.791473 0.000000 0.000061
0.802063 0.000000 0.000061
0.812744 0.000000 0.000061
0.823578 0.000000 0.000061
0.090973 0.079407 0.000000
0.093048 0.079193 0.000000
0.095581 0.079041 0.000000
0.103333 0.078430 0.000000
0.115753 0.077515 0.000000
0.129425 0.076752 0.000000
0.138214 0.076233 0.000000
0.146545 0.075806 0.000000
0.155060 0.075470 0.000000
0.163483 0.075104 0.000000
0.171661 0.074707 0.000000
0.179688 0.074432 0.000000
0.187561 0.074097 0.000000
0.195221 0.073761 0.000000
0.202576 0.073547 0.000000
0.209717 0.073273 0.000000
0.216888 0.072998 0.000000
0.223846 0.072754 0.000000
0.230988 0.072479 0.000000
0.238281 0.072235 0.000000
0.246094 0.071838 0.000000
0.254517 0.071564 0.000000
0.263855 0.071136 0.000000
0.274506 0.070557 0.000000
0.286438 0.070007 0.000000
0.299835 0.069275 0.000000
0.314392 0.068420 0.000000
0.330383 0.067352 0.000000
0.347473 0.066315 0.000000
0.365631 0.064941 0.000000
0.384583 0.063538 0.000000
0.404388 0.061920 0.000000
0.424774 0.060181 0.000000
0.445496 0.058197 0.000000
0.466431 0.056091 0.000000
0.487000 0.053833 0.000031
0.507355 0.051514 0.000031
0.526306 0.049255 0.000031
0.543884 0.046844 0.000031
0.560181 0.044403 0.000031
0.575470 0.042053 0.000031
0.589630 0.039795 0.000031
0.602997 0.037720 0.000031
0.615631 0.035339 0.000031
0.627686 0.033051 0.000031
0.639130 0.030914 0.000031
0.650208 0.028931 0.000031
0.660919 0.026825 0.000031
0.671356 0.024628 0.000031
0.681488 0.022522 0.000031
0.691528 0.020447 0.000031
0.701447 0.018463 0.000031
0.711304 0.016418 0.000031
0.721161 0.014313 0.000031
0.731018 0.012115 0.000031
0.740906 0.009674 0.000031
0.750977 0.007263 0.000031
0.761017 0.004822 0.000031
0.771179 0.002563 0.000061
0.781525 0.000000 0.000061
0.791901 0.000000 0.000061
0.802490 0.000000 0.000061
0.813202 0.000000 0.000061
0.824066 0.000000 0.000061
0.090546 0.093323 0.000000
0.092926 0.093292 0.000000
0.095459 0.093109 0.000000
0.103302 0.092407 0.000000
0.115753 0.091339 0.000000
0.129425 0.090424 0.000000
0.138214 0.089905 0.000000
0.146606 0.089417 0.000000
0.155212 0.089020 0.000000
0.163574 0.088623 0.000000
0.171753 0.088226 0.000000
0.179840 0.087952 0.000000
0.187683 0.087616 0.000000
0.195312 0.087280 0.000000
0.202759 0.087006 0.000000
0.209930 0.086792 0.000000
0.217010 0.086456 0.000000
0.224030 0.086273 0.000000
0.231140 0.086029 0.000000
0.238464 0.085724 0.000000
0.246307 0.085419 0.000000
0.254700 0.085083 0.000000
0.264099 0.084717 0.000000
0.274719 0.084290 0.000000
0.286652 0.083679 0.000000
0.300079 0.082947 0.000000
0.314667 0.082123 0.000000
0.330658 0.081238 0.000000
0.347778 0.080200 0.000000
0.365875 0.079071 0.000000
0.384949 0.077789 0.000000
0.404755 0.076355 0.000000
0.425140 0.074768 0.000000
0.445892 0.073181 0.000000
0.466675 0.071381 0.000000
0.487335 0.069489 0.000031
0.507721 0.067413 0.000031
0.526703 0.065460 0.000031
0.544220 0.063507 0.000031
0.560638 0.061523 0.000031
0.575836 0.059753 0.000031
0.590027 0.057709 0.000031
0.603394 0.055817 0.000031
0.615997 0.054108 0.000031
0.628052 0.052185 0.000031
0.639587 0.050507 0.000031
0.650635 0.048615 0.000031
0.661316 0.046783 0.000031
0.671692 0.044739 0.000031
0.681915 0.042877 0.000031
0.691925 0.040833 0.000031
0.701843 0.038605 0.000031
0.711670 0.036530 0.000031
0.721588 0.034302 0.000031
0.731415 0.032013 0.000031
0.741364 0.029663 0.000031
0.751404 0.027222 0.000031
0.761475 0.024719 0.000031
0.771667 0.022430 0.000061
0.781982 0.019684 0.000061
0.792480 0.017181 0.000061
0.802979 0.014526 0.000061
0.813721 0.011414 0.000061
0.824493 0.008423 0.000061
0.089111 0.106171 0.000000
0.091400 0.106171 0.000000
0.094238 0.106232 0.000000
0.102844 0.106232 0.000000
0.115662 0.105408 0.000000
0.129456 0.104340 0.000000
0.138245 0.103790 0.000000
0.146790 0.103271 0.000000
0.155243 0.102783 0.000000
0.163635 0.102356 0.000000
0.171936 0.101929 0.000000
0.179901 0.101593 0.000000
0.187805 0.101227 0.000000
0.195465 0.100952 0.000000
0.202881 0.100647 0.000000
0.210052 0.100403 0.000000
0.217163 0.100067 0.000000
0.224213 0.099945 0.000000
0.231354 0.099609 0.000000
0.238708 0.099426 0.000000
0.246521 0.099060 0.000000
0.254913 0.098846 0.000000
0.264313 0.098480 0.000000
0.274994 0.097961 0.000000
0.286957 0.097382 0.000000
0.300293 0.096710 0.000000
0.315002 0.095978 0.000000
0.330963 0.095123 0.000000
0.348083 0.094055 0.000000
0.366211 0.093140 0.000000
0.385284 0.091858 0.000000
0.405029 0.090637 0.000000
0.425507 0.089142 0.000000
0.446259 0.087738 0.000000
0.467072 0.086090 0.000000
0.487732 0.084351 0.000031
0.508057 0.082611 0.000031
0.527100 0.080750 0.000031
0.544678 0.079041 0.000031
0.560974 0.077454 0.000031
0.576294 0.075684 0.000031
0.590454 0.074097 0.000031
0.603851 0.072723 0.000031
0.616425 0.071045 0.000031
0.628510 0.069550 0.000031
0.639984 0.068024 0.000031
0.651093 0.066315 0.000031
0.661804 0.064697 0.000031
0.672180 0.063110 0.000031
0.682343 0.061646 0.000031
0.692413 0.060059 0.000031
0.702240 0.058289 0.000031
0.712158 0.056366 0.000031
0.722015 0.054932 0.000031
0.731934 0.052795 0.000031
0.741852 0.050781 0.000031
0.751892 0.048676 0.000031
0.761963 0.046661 0.000031
0.772156 0.044159 0.000061
0.782501 0.041809 0.000061
0.792877 0.039337 0.000061
0.803497 0.036194 0.000061
0.814148 0.033295 0.000061
0.825012 0.030334 0.000061
0.087860 0.118835 0.000000
0.090088 0.118805 0.000000
0.092865 0.118774 0.000000
0.101562 0.118988 0.000000
0.115356 0.119019 0.000000
0.129517 0.118164 0.000000
0.138275 0.117493 0.000000
0.146820 0.116943 0.000000
0.155334 0.116394 0.000000
0.163727 0.115875 0.000000
0.171997 0.115448 0.000000
0.180054 0.115021 0.000000
0.187958 0.114624 0.000000
0.195587 0.114349 0.000000
0.203033 0.114014 0.000000
0.210236 0.113861 0.000000
0.217346 0.113617 0.000000
0.224396 0.113342 0.000000
0.231537 0.113068 0.000000
0.238861 0.112823 0.000000
0.246704 0.112579 0.000000
0.255188 0.112183 0.000000
0.264557 0.111847 0.000000
0.275269 0.111389 0.000000
0.287262 0.110809 0.000000
0.300568 0.110168 0.000000
0.315338 0.109467 0.000000
0.331329 0.108490 0.000000
0.348389 0.107605 0.000000
0.366547 0.106567 0.000000
0.385620 0.105408 0.000000
0.405426 0.104126 0.000000
0.425842 0.102936 0.000000
0.446625 0.101532 0.000000
0.467468 0.099945 0.000000
0.488159 0.098389 0.000031
0.508453 0.096771 0.000031
0.527496 0.095276 0.000031
0.545074 0.093628 0.000031
0.561401 0.092285 0.000031
0.576660 0.090759 0.000031
0.590912 0.089325 0.000031
0.604248 0.087921 0.000031
0.616913 0.086426 0.000031
0.628906 0.085236 0.000031
0.640533 0.083679 0.000031
0.651520 0.082458 0.000031
0.662231 0.081146 0.000031
0.672638 0.079834 0.000031
0.682831 0.078156 0.000031
0.692871 0.076813 0.000031
0.702789 0.075378 0.000031
0.712677 0.074036 0.000031
0.722504 0.072418 0.000031
0.732452 0.070862 0.000031
0.742371 0.069244 0.000031
0.752350 0.067688 0.000031
0.762451 0.065765 0.000031
0.772644 0.063782 0.000061
0.782990 0.061920 0.000061
0.793488 0.059570 0.000061
0.803986 0.057709 0.000061
0.814728 0.054993 0.000061
0.825592 0.052429 0.000061
0.086578 0.131073 0.000000
0.088867 0.131195 0.000000
0.091736 0.131165 0.000000
0.100311 0.131256 0.000000
0.114105 0.131378 0.000000
0.129303 0.131592 0.000000
0.138336 0.130981 0.000000
0.146851 0.130310 0.000000
0.155334 0.129669 0.000000
0.163788 0.129089 0.000000
0.172089 0.128723 0.000000
0.180206 0.128296 0.000000
0.188080 0.127838 0.000000
0.195740 0.127502 0.000000
0.203186 0.127197 0.000000
0.210388 0.126862 0.000000
0.217529 0.126617 0.000000
0.224548 0.126343 0.000000
0.231750 0.126129 0.000000
0.239136 0.125824 0.000000
0.246948 0.125549 0.000000
0.255402 0.125244 0.000000
0.264832 0.124817 0.000000
0.275513 0.124390 0.000000
0.287506 0.123779 0.000000
0.300873 0.123138 0.000000
0.315643 0.122284 0.000000
0.331604 0.121460 0.000000
0.348785 0.120575 0.000000
0.366943 0.119598 0.000000
0.385956 0.118530 0.000000
0.405823 0.117310 0.000000
0.426208 0.116089 0.000000
0.447052 0.114685 0.000000
0.467865 0.113403 0.000000
0.488586 0.111938 0.000000
0.508911 0.110413 0.000031
0.527893 0.108887 0.000031
0.545502 0.107452 0.000031
0.561859 0.106140 0.000031
0.577087 0.104767 0.000031
0.591370 0.103394 0.000031
0.604767 0.102112 0.000031
0.617371 0.100891 0.000031
0.629517 0.099609 0.000031
0.640961 0.098450 0.000031
0.652100 0.097046 0.000031
0.662720 0.095886 0.000031
0.673096 0.094818 0.000031
0.683289 0.093536 0.000031
0.693390 0.092194 0.000031
0.703339 0.090942 0.000031
0.713165 0.089752 0.000031
0.723083 0.088257 0.000031
0.732941 0.086884 0.000031
0.742859 0.085693 0.000031
0.752930 0.083862 0.000031
0.763031 0.082458 0.000031
0.773224 0.080658 0.000061
0.783539 0.079010 0.000061
0.794006 0.077271 0.000061
0.804535 0.075439 0.000061
0.815308 0.073486 0.000061
0.826141 0.071320 0.000061
0.085510 0.143036 0.000000
0.087769 0.143066 0.000000
0.090576 0.143127 0.000000
0.099182 0.143250 0.000000
0.112946 0.143372 0.000000
0.128021 0.143463 0.000000
0.137726 0.143555 0.000000
0.146881 0.143402 0.000000
0.155396 0.142670 0.000000
0.163879 0.142120 0.000000
0.172180 0.141541 0.000000
0.180298 0.141083 0.000000
0.188171 0.140686 0.000000
0.195862 0.140228 0.000000
0.203369 0.139862 0.000000
0.210602 0.139587 0.000000
0.217712 0.139282 0.000000
0.224792 0.139069 0.000000
0.231995 0.138763 0.000000
0.239319 0.138489 0.000000
0.247192 0.138245 0.000000
0.255646 0.137848 0.000000
0.265076 0.137421 0.000000
0.275757 0.136871 0.000000
0.287842 0.136353 0.000000
0.301208 0.135651 0.000000
0.315979 0.134888 0.000000
0.332001 0.134094 0.000000
0.349091 0.133087 0.000000
0.367279 0.132111 0.000000
0.386383 0.131073 0.000000
0.406189 0.129944 0.000000
0.426697 0.128693 0.000000
0.447418 0.127350 0.000000
0.468353 0.126129 0.000000
0.488983 0.124695 0.000000
0.509338 0.123138 0.000031
0.528412 0.121674 0.000031
0.546051 0.120514 0.000031
0.562378 0.119110 0.000031
0.577545 0.117889 0.000031
0.591888 0.116608 0.000031
0.605225 0.115417 0.000031
0.617950 0.114227 0.000031
0.629974 0.113190 0.000031
0.641510 0.112000 0.000031
0.652557 0.110809 0.000031
0.663239 0.109802 0.000031
0.673615 0.108612 0.000031
0.683868 0.107513 0.000031
0.693909 0.106262 0.000031
0.703857 0.105103 0.000031
0.713745 0.103851 0.000031
0.723663 0.102722 0.000031
0.733490 0.101471 0.000031
0.743439 0.100128 0.000031
0.753479 0.098694 0.000031
0.763580 0.097412 0.000031
0.773773 0.095795 0.000031
0.784119 0.094299 0.000061
0.794586 0.092743 0.000061
0.805176 0.091095 0.000061
0.815887 0.089569 0.000061
0.826691 0.087646 0.000061
0.084381 0.154572 0.000000
0.086700 0.154572 0.000000
0.089478 0.154602 0.000000
0.098145 0.154724 0.000000
0.111877 0.154877 0.000000
0.127014 0.155029 0.000000
0.136688 0.155121 0.000000
0.146118 0.155212 0.000000
0.155548 0.155396 0.000000
0.163971 0.154663 0.000000
0.172302 0.154083 0.000000
0.180450 0.153534 0.000000
0.188324 0.153076 0.000000
0.196136 0.152710 0.000000
0.203522 0.152283 0.000000
0.210785 0.151855 0.000000
0.217896 0.151611 0.000000
0.224976 0.151337 0.000000
0.232208 0.150970 0.000000
0.239532 0.150696 0.000000
0.247437 0.150391 0.000000
0.255951 0.150024 0.000000
0.265320 0.149567 0.000000
0.276123 0.149048 0.000000
0.288208 0.148407 0.000000
0.301544 0.147766 0.000000
0.316345 0.146942 0.000000
0.332367 0.146057 0.000000
0.349548 0.145172 0.000000
0.367737 0.144226 0.000000
0.386810 0.143127 0.000000
0.406677 0.141937 0.000000
0.427063 0.140717 0.000000
0.447906 0.139404 0.000000
0.468811 0.138092 0.000000
0.489471 0.136719 0.000000
0.509796 0.135345 0.000031
0.528900 0.134033 0.000031
0.546539 0.132690 0.000031
0.562836 0.131439 0.000031
0.578125 0.130249 0.000031
0.592407 0.128998 0.000031
0.605835 0.127838 0.000031
0.618500 0.126831 0.000031
0.630554 0.125732 0.000031
0.642029 0.124664 0.000031
0.653107 0.123596 0.000031
0.663727 0.122498 0.000031
