custom_nodes/comfyui-vrgamedevgirl/LUTS/Dark_Cool_Magenta_Tint_Cinematic_Filmic_Dark.cube
TITLE "Filmic_Dark"
LUT_3D_SIZE 5
DOMAIN_MIN 0 0 0
DOMAIN_MAX 1 1 1
0.000000 0.000000 0.000000
0.182757 0.000000 0.000000
0.405563 0.000000 0.000000
0.646492 0.000000 0.000000
0.900000 0.000000 0.000000
0.000000 0.200227 0.000000
0.182757 0.200227 0.000000
0.405563 0.200227 0.000000
0.646492 0.200227 0.000000
0.900000 0.200227 0.000000
0.000000 0.429195 0.000000
0.182757 0.429195 0.000000
0.405563 0.429195 0.000000
0.646492 0.429195 0.000000
0.900000 0.429195 0.000000
0.000000 0.670433 0.000000
0.182757 0.670433 0.000000
0.405563 0.670433 0.000000
0.646492 0.670433 0.000000
0.900000 0.670433 0.000000
0.000000 0.920000 0.000000
0.182757 0.920000 0.000000
0.405563 0.920000 0.000000
0.646492 0.920000 0.000000
0.900000 0.920000 0.000000
0.000000 0.000000 0.244921
0.182757 0.000000 0.244921
0.405563 0.000000 0.244921
0.646492 0.000000 0.244921
0.900000 0.000000 0.244921
0.000000 0.200227 0.244921
0.182757 0.200227 0.244921
0.405563 0.200227 0.244921
0.646492 0.200227 0.244921
0.900000 0.200227 0.244921
0.000000 0.429195 0.244921
0.182757 0.429195 0.244921
0.405563 0.429195 0.244921
0.646492 0.429195 0.244921
0.900000 0.429195 0.244921
0.000000 0.670433 0.244921
0.182757 0.670433 0.244921
0.405563 0.670433 0.244921
0.646492 0.670433 0.244921
0.900000 0.670433 0.244921
0.000000 0.920000 0.244921
0.182757 0.920000 0.244921
0.405563 0.920000 0.244921
0.646492 0.920000 0.244921
0.900000 0.920000 0.244921
0.000000 0.000000 0.507117
0.182757 0.000000 0.507117
0.405563 0.000000 0.507117
0.646492 0.000000 0.507117
0.900000 0.000000 0.507117
0.000000 0.200227 0.507117
0.182757 0.200227 0.507117
0.405563 0.200227 0.507117
0.646492 0.200227 0.507117
0.900000 0.200227 0.507117
0.000000 0.429195 0.507117
0.182757 0.429195 0.507117
0.405563 0.429195 0.507117
0.646492 0.429195 0.507117
0.900000 0.429195 0.507117
0.000000 0.670433 0.507117
0.182757 0.670433 0.507117
0.405563 0.670433 0.507117
0.646492 0.670433 0.507117
0.900000 0.670433 0.507117
0.000000 0.920000 0.507117
0.182757 0.920000 0.507117
0.405563 0.920000 0.507117
0.646492 0.920000 0.507117
0.900000 0.920000 0.507117
0.000000 0.000000 0.776254
0.182757 0.000000 0.776254
0.405563 0.000000 0.776254
0.646492 0.000000 0.776254
0.900000 0.000000 0.776254
0.000000 0.200227 0.776254
0.182757 0.200227 0.776254
0.405563 0.200227 0.776254
0.646492 0.200227 0.776254
0.900000 0.200227 0.776254
0.000000 0.429195 0.776254
0.182757 0.429195 0.776254
0.405563 0.429195 0.776254
0.646492 0.429195 0.776254
0.900000 0.429195 0.776254
0.000000 0.670433 0.776254
0.182757 0.670433 0.776254
0.405563 0.670433 0.776254
0.646492 0.670433 0.776254
0.900000 0.670433 0.776254
0.000000 0.920000 0.776254
0.182757 0.920000 0.776254
0.405563 0.920000 0.776254
0.646492 0.920000 0.776254
0.900000 0.920000 0.776254
0.000000 0.000000 1.000000
0.182757 0.000000 1.000000
0.405563 0.000000 1.000000
0.646492 0.000000 1.000000
0.900000 0.000000 1.000000
0.000000 0.200227 1.000000
0.182757 0.200227 1.000000
0.405563 0.200227 1.000000
0.646492 0.200227 1.000000
0.900000 0.200227 1.000000
0.000000 0.429195 1.000000
0.182757 0.429195 1.000000
0.405563 0.429195 1.000000
0.646492 0.429195 1.000000
0.900000 0.429195 1.000000
0.000000 0.670433 1.000000
0.182757 0.670433 1.000000
0.405563 0.670433 1.000000
0.646492 0.670433 1.000000
0.900000 0.670433 1.000000
0.000000 0.920000 1.000000
0.182757 0.920000 1.000000
0.405563 0.920000 1.000000
0.646492 0.920000 1.000000
0.900000 0.920000 1.000000
