custom_nodes/comfyui-vrgamedevgirl/LUTS/Dark_Vivid_Magenta_Tint_Cinematic.cube
#Created by: Adobe Photoshop Export Color Lookup Plugin
#Copyright: (C) Copyright 2017 PremiumBeat
TITLE "Tahoe"
#LUT size
LUT_3D_SIZE 8
#data domain
DOMAIN_MIN 0.0 0.0 0.0
DOMAIN_MAX 1.0 1.0 1.0
#LUT data points
0.000000 0.000000 0.000000
0.054474 0.000000 0.000000
0.153076 0.000000 0.000000
0.287781 0.000000 0.000000
0.464722 0.000000 0.000031
0.652161 0.000000 0.000031
0.812378 0.000000 0.000061
0.951355 0.000000 0.000061
0.000000 0.038727 0.000000
0.052277 0.037201 0.000000
0.152191 0.031525 0.000000
0.287323 0.015350 0.000000
0.464478 0.000000 0.000031
0.651978 0.000000 0.000031
0.812256 0.000000 0.000061
0.951233 0.000000 0.000061
0.000000 0.136963 0.000000
0.041321 0.136383 0.000000
0.148071 0.134338 0.000000
0.285309 0.128021 0.000000
0.463348 0.111115 0.000000
0.651245 0.074036 0.000031
0.811707 0.000000 0.000061
0.950806 0.000000 0.000061
0.000000 0.270905 0.000000
0.002899 0.270660 0.000000
0.134308 0.269653 0.000000
0.278870 0.266724 0.000000
0.459808 0.259430 0.000000
0.648956 0.246155 0.000031
0.809998 0.228943 0.000031
0.949402 0.207977 0.000061
0.000000 0.447144 0.000000
0.000000 0.447021 0.000000
0.090942 0.446472 0.000000
0.261688 0.444916 0.000000
0.450653 0.441010 0.000000
0.643097 0.434113 0.000000
0.805603 0.425629 0.000031
0.945862 0.415985 0.000061
0.000000 0.634247 0.000000
0.000000 0.634155 0.000000
0.000000 0.633789 0.000000
0.227783 0.632782 0.000000
0.433929 0.630310 0.000000
0.632599 0.625946 0.000000
0.797791 0.620636 0.000000
0.939545 0.614685 0.000031
0.000000 0.794373 0.000000
0.000000 0.794312 0.000000
0.000000 0.794067 0.000000
0.176300 0.793304 0.000000
0.412354 0.791443 0.000000
0.619446 0.788208 0.000000
0.788116 0.784302 0.000000
0.931763 0.779907 0.000000
0.000000 0.933258 0.000000
0.000000 0.933197 0.000000
0.000000 0.932983 0.000000
0.087372 0.932373 0.000000
0.386597 0.930878 0.000000
0.604370 0.928284 0.000000
0.777191 0.925110 0.000000
0.923004 0.921600 0.000000
0.000000 0.000000 0.074677
0.054474 0.000000 0.073730
0.153076 0.000000 0.070068
0.287781 0.000000 0.058258
0.464722 0.000000 0.020905
0.652161 0.000000 0.000031
0.812378 0.000000 0.000061
0.951355 0.000000 0.000061
0.000000 0.038727 0.072998
0.052063 0.036407 0.072388
0.153046 0.028168 0.066620
0.288361 0.005737 0.048950
0.465027 0.000000 0.007965
0.652283 0.000000 0.000031
0.812408 0.000000 0.000061
0.951324 0.000000 0.000061
0.000000 0.136963 0.064545
0.036224 0.137512 0.060608
0.149506 0.134979 0.053070
0.287079 0.123383 0.029572
0.464447 0.102570 0.000000
0.651855 0.059845 0.000031
0.812012 0.000000 0.000061
0.950928 0.000000 0.000061
0.000000 0.270905 0.031006
0.000000 0.272064 0.015320
0.129211 0.271606 0.002594
0.280670 0.268158 0.000000
0.460846 0.257446 0.000000
0.649536 0.242798 0.000031
0.810303 0.224762 0.000061
0.949524 0.203064 0.000061
0.000000 0.447144 0.000000
0.000000 0.447754 0.000000
0.079285 0.447540 0.000000
0.259674 0.445953 0.000000
0.451660 0.441864 0.000000
0.643646 0.433319 0.000000
0.805908 0.424164 0.000031
0.945984 0.414154 0.000061
0.000000 0.634247 0.000000
0.000000 0.634521 0.000000
0.000000 0.634369 0.000000
0.223816 0.633362 0.000000
0.433136 0.630859 0.000000
0.633118 0.626434 0.000000
0.798065 0.620300 0.000000
0.939667 0.613922 0.000031
0.000000 0.794373 0.000000
0.000000 0.794495 0.000000
0.000000 0.794342 0.000000
0.170410 0.793579 0.000000
0.410767 0.791718 0.000000
0.619080 0.788483 0.000000
0.788361 0.784515 0.000000
0.931854 0.779663 0.000000
0.000000 0.933258 0.000000
0.000000 0.933258 0.000000
0.000000 0.933105 0.000000
0.074524 0.932495 0.000000
0.384491 0.930969 0.000000
0.603577 0.928375 0.000000
0.776917 0.925201 0.000000
0.923096 0.921661 0.000000
0.000000 0.000000 0.176483
0.054474 0.000000 0.176025
0.153076 0.000000 0.174469
0.287781 0.000000 0.169708
0.464722 0.000000 0.157318
0.652161 0.000000 0.133118
0.812378 0.000000 0.096130
0.951355 0.000000 0.028839
0.000000 0.038727 0.175720
0.048004 0.031525 0.176422
0.152740 0.025848 0.174805
0.288391 0.005402 0.167664
0.465027 0.000000 0.153687
0.652283 0.000000 0.128265
0.812408 0.000000 0.089233
0.951324 0.000000 0.015747
0.000000 0.136963 0.172150
0.033539 0.136383 0.173126
0.146912 0.130798 0.172272
0.288574 0.117645 0.159607
0.465851 0.089111 0.138306
0.652771 0.030884 0.105316
0.812531 0.000000 0.051300
0.951172 0.000000 0.000061
0.000000 0.270905 0.160553
0.000000 0.272064 0.157990
0.114441 0.274109 0.145172
0.283508 0.269775 0.132477
0.462891 0.252991 0.117462
0.651001 0.233887 0.072784
0.811127 0.213043 0.000061
0.949921 0.188751 0.000061
0.000000 0.447144 0.126282
0.000000 0.447754 0.120300
0.045715 0.449524 0.094513
0.252777 0.448517 0.074829
0.454041 0.443909 0.042023
0.645020 0.431183 0.000000
0.806702 0.420166 0.000031
0.946320 0.409058 0.000061
0.000000 0.634247 0.017273
0.000000 0.634521 0.000885
0.000000 0.635498 0.000000
0.211395 0.634857 0.000000
0.430542 0.632324 0.000000
0.634491 0.627716 0.000000
0.798828 0.619263 0.000000
0.939972 0.611816 0.000031
0.000000 0.794373 0.000000
0.000000 0.794495 0.000000
0.000000 0.794922 0.000000
0.151215 0.794403 0.000000
0.405914 0.792511 0.000000
0.617981 0.789246 0.000000
0.789093 0.785217 0.000000
0.932129 0.778931 0.000000
0.000000 0.933258 0.000000
0.000000 0.933258 0.000000
0.000000 0.933319 0.000000
0.020569 0.932800 0.000000
0.378204 0.931274 0.000000
0.601135 0.928650 0.000000
0.776154 0.925476 0.000000
0.923309 0.921906 0.000000
0.000000 0.000000 0.308228
0.054474 0.000000 0.307983
0.153076 0.000000 0.307159
0.287781 0.000000 0.304657
0.464722 0.000000 0.298401
0.652161 0.000000 0.287231
0.812378 0.000000 0.272980
0.951355 0.000000 0.256134
0.000000 0.038727 0.307800
0.043610 0.026978 0.308685
0.150177 0.021393 0.307800
0.288147 0.004700 0.305298
0.465057 0.000000 0.297394
0.652283 0.000000 0.285492
0.812408 0.000000 0.270905
0.951324 0.000000 0.253784
0.000000 0.136963 0.305969
0.027100 0.132721 0.307159
0.133545 0.116547 0.309418
0.288300 0.108551 0.306702
0.465973 0.087280 0.292725
0.652771 0.030121 0.277893
0.812531 0.000000 0.261566
0.951172 0.000000 0.243011
0.000000 0.270905 0.300018
0.000000 0.271362 0.301086
0.112915 0.271301 0.303406
0.277313 0.261169 0.300049
0.464294 0.248016 0.281921
0.652771 0.221466 0.258545
0.812378 0.194122 0.235504
0.950500 0.163391 0.211060
0.000000 0.447144 0.284332
0.000000 0.447754 0.283081
0.045715 0.449524 0.277863
0.234009 0.451447 0.257996
0.457001 0.446014 0.244873
0.647003 0.427734 0.236725
0.808197 0.412445 0.208984
0.947052 0.398407 0.179260
0.000000 0.634247 0.253937
0.000000 0.634521 0.251373
0.000000 0.635498 0.241699
0.180756 0.637421 0.209656
0.423035 0.635162 0.193573
0.637146 0.630096 0.173065
0.800262 0.617218 0.158234
0.940643 0.607452 0.120331
0.000000 0.794373 0.209808
0.000000 0.794495 0.206207
0.000000 0.794922 0.192352
0.098938 0.795898 0.144592
0.393219 0.794250 0.119476
0.614990 0.790894 0.084015
0.790619 0.786652 0.012299
0.932770 0.777191 0.000000
0.000000 0.933258 0.143799
0.000000 0.933258 0.138062
0.000000 0.933319 0.114807
0.000000 0.933380 0.000000
0.362000 0.931976 0.000000
0.595032 0.929291 0.000000
0.774200 0.926056 0.000000
0.923859 0.922424 0.000000
0.000000 0.000000 0.482239
0.054474 0.000000 0.482117
0.153076 0.000000 0.481628
0.287781 0.000000 0.480194
0.464722 0.000000 0.476654
0.652161 0.000000 0.470428
0.812378 0.000000 0.462738
0.951355 0.000000 0.454071
0.000000 0.038727 0.482025
0.043152 0.026672 0.482483
0.149231 0.021149 0.481995
0.286530 0.004639 0.480530
0.464966 0.000000 0.476959
0.652283 0.000000 0.469940
0.812408 0.000000 0.461914
0.951324 0.000000 0.453064
0.000000 0.136963 0.480927
0.026672 0.131531 0.481598
0.129211 0.112671 0.483246
0.280426 0.104797 0.481750
0.465759 0.082855 0.478088
0.652802 0.028259 0.467621
0.812561 0.000000 0.458130
0.951172 0.000000 0.448486
0.000000 0.270905 0.477539
0.000000 0.269287 0.478210
0.108490 0.262787 0.480164
0.256805 0.241669 0.482727
0.465424 0.232422 0.478790
0.653137 0.217041 0.460663
0.812439 0.192047 0.447571
0.950531 0.162170 0.435547
0.000000 0.447144 0.468842
0.000000 0.447540 0.469421
0.045502 0.448639 0.471130
0.232605 0.448975 0.473328
0.449982 0.437469 0.465881
0.647522 0.425171 0.449493
0.809448 0.405487 0.430878
0.947876 0.386353 0.412903
0.000000 0.634247 0.452972
0.000000 0.634521 0.452393
0.000000 0.635498 0.450134
0.180756 0.637421 0.442657
0.404816 0.637695 0.421051
0.639465 0.631866 0.410370
0.801300 0.615875 0.412750
0.941406 0.602448 0.392975
0.000000 0.794373 0.432556
0.000000 0.794495 0.431427
0.000000 0.794922 0.427246
0.098938 0.795898 0.414703
0.366577 0.796661 0.383759
0.607819 0.793335 0.372589
0.792877 0.788727 0.361115
0.933655 0.774750 0.357910
0.000000 0.933258 0.408386
0.000000 0.933258 0.406921
0.000000 0.933319 0.401520
0.000000 0.933380 0.385620
0.328552 0.933105 0.347473
0.582153 0.930450 0.334900
0.770050 0.927124 0.322418
0.924805 0.923309 0.307861
0.000000 0.000000 0.685303
0.054474 0.000000 0.685242
0.153076 0.000000 0.684906
0.287781 0.000000 0.683990
0.464722 0.000000 0.681763
0.652161 0.000000 0.677826
0.812378 0.000000 0.673035
0.951355 0.000000 0.667694
0.000000 0.038727 0.685181
0.042999 0.026581 0.685364
0.148865 0.021057 0.685059
0.285980 0.004639 0.684143
0.464142 0.000000 0.681885
0.652222 0.000000 0.677948
0.812408 0.000000 0.672821
0.951324 0.000000 0.667267
0.000000 0.136963 0.684479
0.026520 0.131104 0.684814
0.127655 0.111237 0.685669
0.277588 0.103424 0.684723
0.461304 0.081665 0.682434
0.652405 0.025116 0.678467
0.812561 0.000000 0.671753
0.951172 0.000000 0.665253
0.000000 0.270905 0.682312
0.000000 0.268555 0.682648
0.106873 0.259644 0.683716
0.248627 0.233887 0.685791
0.451782 0.224854 0.683411
0.652252 0.208221 0.679291
0.812622 0.187958 0.668427
0.950562 0.159698 0.659454
0.000000 0.447144 0.676849
0.000000 0.446411 0.677155
0.044495 0.443665 0.678131
0.224548 0.434875 0.680328
0.424042 0.412170 0.681763
0.648010 0.403687 0.677307
0.810455 0.395874 0.660187
0.948120 0.380951 0.647675
0.000000 0.634247 0.667023
0.000000 0.634399 0.667297
0.000000 0.634827 0.668152
0.180084 0.635437 0.670013
0.402069 0.633545 0.670807
0.630219 0.622131 0.662445
0.801056 0.614777 0.650421
0.941589 0.601593 0.637817
0.000000 0.794373 0.654755
0.000000 0.794495 0.654510
0.000000 0.794922 0.653625
0.098938 0.795898 0.650879
0.366577 0.796661 0.643402
0.598175 0.793945 0.630707
0.793060 0.788696 0.623199
0.933350 0.776428 0.626099
0.000000 0.933258 0.640747
0.000000 0.933258 0.640198
0.000000 0.933319 0.638153
0.000000 0.933380 0.632294
0.328552 0.933105 0.618896
0.567871 0.931366 0.600983
0.764801 0.927979 0.593536
0.925507 0.923981 0.586548
0.000000 0.000000 0.872864
0.054474 0.000000 0.872803
0.153076 0.000000 0.872559
0.287781 0.000000 0.871918
0.464722 0.000000 0.870270
0.652161 0.000000 0.867432
0.812378 0.000000 0.863953
0.951355 0.000000 0.860107
0.000000 0.038696 0.872742
0.042938 0.026550 0.872833
0.148743 0.021027 0.872589
0.285797 0.004608 0.871918
0.463837 0.000000 0.870300
0.651794 0.000000 0.867432
0.812317 0.000000 0.863983
0.951324 0.000000 0.859955
0.000000 0.136963 0.872253
0.026459 0.130951 0.872375
0.127075 0.110687 0.872711
0.276520 0.102936 0.872040
0.459656 0.081238 0.870392
0.650146 0.024933 0.867523
0.812012 0.000000 0.864014
0.951172 0.000000 0.859314
0.000000 0.270905 0.870667
0.000000 0.268280 0.870819
0.106293 0.258484 0.871246
0.245453 0.230865 0.872131
0.446503 0.221954 0.870453
0.644867 0.205475 0.867523
0.810883 0.183289 0.863983
0.950592 0.156311 0.857300
0.000000 0.447144 0.866699
0.000000 0.446014 0.866821
0.044128 0.441803 0.867218
0.221436 0.429382 0.868225
0.412628 0.401031 0.869354
0.631256 0.392731 0.866302
0.807007 0.382385 0.862579
0.948456 0.372803 0.852081
0.000000 0.634247 0.859619
0.000000 0.633820 0.859711
0.000000 0.632263 0.860077
0.177460 0.627716 0.860962
0.390869 0.616669 0.861938
0.608734 0.600891 0.860565
0.797821 0.594604 0.856628
0.942688 0.589691 0.843475
0.000000 0.794373 0.850861
0.000000 0.794342 0.850922
0.000000 0.794250 0.851227
0.098541 0.793762 0.851929
0.364166 0.791840 0.852539
0.592865 0.787018 0.850739
0.784424 0.780090 0.844513
0.933441 0.774963 0.835419
0.000000 0.933258 0.840973
0.000000 0.933258 0.840820
0.000000 0.933319 0.840363
0.000000 0.933380 0.838898
0.328552 0.933105 0.835297
0.567871 0.931366 0.829620
0.764160 0.927612 0.824799
0.924683 0.923187 0.820648
0.000000 0.000000 1.000000
0.054504 0.000000 1.000000
0.153076 0.000000 1.000000
0.287781 0.000000 1.000000
0.464722 0.000000 1.000000
0.652161 0.000000 1.000000
0.812378 0.000000 1.000000
0.951355 0.000000 1.000000
0.000000 0.038696 1.000000
0.042938 0.026520 1.000000
0.148712 0.021027 1.000000
0.285706 0.004608 1.000000
0.463684 0.000000 1.000000
0.651611 0.000000 1.000000
0.812073 0.000000 1.000000
0.951202 0.000000 1.000000
0.000000 0.136963 1.000000
0.026459 0.130890 1.000000
0.126801 0.110443 1.000000
0.276031 0.102692 1.000000
0.458893 0.081024 1.000000
0.649078 0.024841 1.000000
0.810730 0.000000 1.000000
0.950592 0.000000 1.000000
0.000000 0.270905 1.000000
0.000000 0.268158 1.000000
0.106018 0.257935 1.000000
0.243927 0.229431 1.000000
0.444000 0.220581 1.000000
0.641357 0.204163 1.000000
0.806549 0.182098 1.000000
0.948639 0.153748 1.000000
0.000000 0.447144 1.000000
0.000000 0.445831 1.000000
0.043945 0.440948 1.000000
0.219940 0.426788 1.000000
0.406952 0.395477 1.000000
0.622894 0.387268 1.000000
0.796509 0.377045 1.000000
0.943695 0.365326 1.000000
0.000000 0.634247 1.000000
0.000000 0.633545 1.000000
0.000000 0.631104 1.000000
0.176178 0.624023 1.000000
0.385254 0.608215 1.000000
0.595947 0.588257 1.000000
0.781433 0.582123 1.000000
0.935394 0.575195 1.000000
0.000000 0.794373 1.000000
0.000000 0.794037 1.000000
0.000000 0.792786 1.000000
0.097717 0.789215 1.000000
0.358917 0.781189 1.000000
0.580292 0.770721 1.000000
0.769409 0.765167 1.000000
0.926636 0.760315 1.000000
0.000000 0.933258 1.000000
0.000000 0.933105 1.000000
0.000000 0.932617 1.000000
0.000000 0.931213 1.000000
0.326538 0.927979 1.000000
0.562714 0.923218 1.000000
0.757355 0.919464 1.000000
0.919739 0.918274 1.000000
