custom_nodes/comfyui-vrgamedevgirl/LUTS/Dark_Soft_Vivid_Cinematic_2.cube
#Created by: Adobe Photoshop Export Color Lookup Plugin
#Copyright: (C) Copyright 2017 PremiumBeat
TITLE "Stillwater"
#LUT size
LUT_3D_SIZE 4
#data domain
DOMAIN_MIN 0.0 0.0 0.0
DOMAIN_MAX 1.0 1.0 1.0
#LUT data points
0.018433 0.017334 0.016479
0.175079 0.022888 0.018890
0.485199 0.038269 0.025787
0.778534 0.055634 0.034698
0.041260 0.176453 0.021942
0.202728 0.185120 0.025940
0.512207 0.202789 0.035034
0.790741 0.211670 0.040100
0.087860 0.489807 0.037292
0.240875 0.494934 0.040222
0.537323 0.506012 0.046722
0.817688 0.517212 0.053436
0.112518 0.777161 0.049103
0.266296 0.783325 0.052795
0.562988 0.795105 0.059906
0.842041 0.805481 0.066162
0.021698 0.019165 0.163818
0.179596 0.025360 0.166504
0.490906 0.041748 0.174011
0.780640 0.057220 0.182098
0.046570 0.179474 0.169830
0.208435 0.188629 0.174164
0.514374 0.204437 0.182495
0.793213 0.213684 0.187805
0.090179 0.491638 0.184875
0.243347 0.496948 0.187958
0.539978 0.508240 0.194580
0.820343 0.519470 0.201324
0.115173 0.779388 0.196991
0.268951 0.785583 0.200684
0.565521 0.797302 0.207764
0.844238 0.807404 0.213867
0.029449 0.023376 0.448669
0.189331 0.030762 0.451904
0.502014 0.048981 0.460663
0.784973 0.060547 0.467010
0.057373 0.185852 0.455841
0.219543 0.195892 0.460846
0.518707 0.207794 0.467438
0.798096 0.217682 0.473175
0.094818 0.495331 0.470032
0.248230 0.500946 0.473297
0.545105 0.512573 0.480225
0.825378 0.523804 0.486969
0.120300 0.783783 0.482635
0.274017 0.789948 0.486359
0.570190 0.801361 0.493225
0.848236 0.810883 0.498993
0.038116 0.028168 0.717896
0.199310 0.036530 0.721680
0.510925 0.055298 0.731201
0.789276 0.063965 0.736115
0.067780 0.192413 0.726196
0.228119 0.201996 0.731293
0.523071 0.211243 0.736572
0.802826 0.221588 0.742615
0.099365 0.499054 0.739349
0.252960 0.504883 0.742798
0.549957 0.516724 0.749847
0.830017 0.527863 0.756531
0.125092 0.787903 0.752258
0.278687 0.794006 0.755920
0.574402 0.805054 0.762604
0.851715 0.813904 0.767975
