custom_nodes/comfyui-vrgamedevgirl/LUTS/Dark_Soft_Vivid_Warm_2.cube
#Created by: Adobe Photoshop Export Color Lookup Plugin
#Copyright: (C) Copyright 2017 PremiumBeat.com
TITLE "Santa Fe"
#LUT size
LUT_3D_SIZE 8
#data domain
DOMAIN_MIN 0.0 0.0 0.0
DOMAIN_MAX 1.0 1.0 1.0
#LUT data points
0.006409 0.022430 0.010925
0.061401 0.022858 0.011475
0.131317 0.023468 0.012238
0.216217 0.024323 0.013306
0.318695 0.025452 0.014709
0.463623 0.027283 0.016968
0.662628 0.030090 0.020447
0.952332 0.034790 0.026245
0.007629 0.077728 0.012054
0.062744 0.078247 0.012726
0.132782 0.078979 0.013611
0.217834 0.079926 0.014801
0.320496 0.081207 0.016357
0.465607 0.083160 0.018829
0.664856 0.086182 0.022552
0.954834 0.091064 0.028595
0.009491 0.148193 0.013763
0.064697 0.148804 0.014557
0.134888 0.149628 0.015594
0.220123 0.150726 0.016937
0.322998 0.152161 0.018707
0.468384 0.154297 0.021393
0.667908 0.157532 0.025391
0.958191 0.162628 0.031708
0.012146 0.233948 0.016235
0.067505 0.234680 0.017151
0.137848 0.235657 0.018341
0.223297 0.236877 0.019867
0.326355 0.238434 0.021820
0.471985 0.240814 0.024750
0.671814 0.244232 0.028992
0.962341 0.249542 0.035553
0.015839 0.337708 0.019714
0.071350 0.338562 0.020721
0.141907 0.339661 0.022095
0.227509 0.341003 0.023773
0.330780 0.342743 0.025940
0.476654 0.345276 0.029053
0.676697 0.348877 0.033539
0.967438 0.354309 0.040283
0.021912 0.484741 0.025330
0.077576 0.485687 0.026489
0.148254 0.486908 0.028015
0.234070 0.488434 0.029907
0.337555 0.490326 0.032227
0.483643 0.493011 0.035553
0.683868 0.496765 0.040222
0.974609 0.502228 0.046967
0.031219 0.686981 0.033997
0.087006 0.688019 0.035278
0.157837 0.689331 0.036926
0.243774 0.690948 0.038910
0.347351 0.692871 0.041321
0.493530 0.695648 0.044739
0.693695 0.699341 0.049316
0.983948 0.704437 0.055664
0.045502 0.981140 0.047272
0.101288 0.982147 0.048523
0.172058 0.983429 0.050140
0.257904 0.984985 0.052032
0.361267 0.986786 0.054291
0.507080 0.989258 0.057343
0.706451 0.992371 0.061188
0.995148 0.996277 0.066040
0.006622 0.022583 0.065521
0.061554 0.022980 0.048676
0.131378 0.023529 0.027283
0.216217 0.024323 0.013306
0.318695 0.025452 0.014709
0.463623 0.027283 0.016968
0.662628 0.030090 0.020447
0.952332 0.034790 0.026245
0.007843 0.077911 0.061249
0.062897 0.078369 0.044464
0.132812 0.079010 0.023224
0.217834 0.079926 0.014801
0.320496 0.081207 0.016357
0.465607 0.083160 0.018829
0.664856 0.086182 0.022552
0.954834 0.091064 0.028595
0.009705 0.148346 0.056091
0.064850 0.148895 0.039429
0.134918 0.149658 0.018280
0.220123 0.150726 0.016937
0.322998 0.152161 0.018707
0.468384 0.154297 0.021393
0.667908 0.157532 0.025391
0.958191 0.162628 0.031708
0.012360 0.234100 0.050201
0.067627 0.234772 0.033630
0.137848 0.235657 0.018341
0.223297 0.236877 0.019867
0.326355 0.238434 0.021820
0.471985 0.240814 0.024750
0.671814 0.244232 0.028992
0.962341 0.249542 0.035553
0.016022 0.337860 0.043579
0.071411 0.338593 0.027100
0.141907 0.339661 0.022095
0.227509 0.341003 0.023773
0.330780 0.342743 0.025940
0.476654 0.345276 0.029053
0.676697 0.348877 0.033539
0.967438 0.354309 0.040283
0.022003 0.484802 0.034912
0.077576 0.485687 0.026489
0.148254 0.486908 0.028015
0.234070 0.488434 0.029907
0.337555 0.490326 0.032227
0.483643 0.493011 0.035553
0.683868 0.496765 0.040222
0.974609 0.502228 0.046967
0.031219 0.686981 0.033997
0.087006 0.688019 0.035278
0.157837 0.689331 0.036926
0.243774 0.690948 0.038910
0.347351 0.692871 0.041321
0.493530 0.695648 0.044739
0.693695 0.699341 0.049316
0.983948 0.704437 0.055664
0.045502 0.981140 0.047272
0.101288 0.982147 0.048523
0.172058 0.983429 0.050140
0.257904 0.984985 0.052032
0.361267 0.986786 0.054291
0.507080 0.989258 0.057343
0.706451 0.992371 0.061188
0.995148 0.996277 0.066040
0.006897 0.022797 0.134857
0.061859 0.023193 0.118011
0.131714 0.023773 0.096680
0.216522 0.024567 0.070892
0.318848 0.025574 0.039886
0.463623 0.027283 0.016968
0.662628 0.030090 0.020447
0.952332 0.034790 0.026245
0.008179 0.078156 0.130615
0.063232 0.078644 0.113831
0.133209 0.079315 0.092621
0.218140 0.080170 0.066956
0.320618 0.081299 0.036102
0.465607 0.083160 0.018829
0.664856 0.086182 0.022552
0.954834 0.091064 0.028595
0.010101 0.148651 0.125519
0.065247 0.149200 0.108856
0.135345 0.149963 0.087738
0.220428 0.150970 0.062195
0.323090 0.152222 0.031525
0.468384 0.154297 0.021393
0.667908 0.157532 0.025391
0.958191 0.162628 0.031708
0.012817 0.234467 0.119690
0.068085 0.235107 0.103149
0.138306 0.235992 0.082153
0.223572 0.237091 0.056763
0.326385 0.238464 0.026245
0.471985 0.240814 0.024750
0.671814 0.244232 0.028992
0.962341 0.249542 0.035553
0.016541 0.338226 0.113129
0.071930 0.338989 0.096649
0.142303 0.339966 0.075806
0.227722 0.341187 0.050568
0.330780 0.342743 0.025940
0.476654 0.345276 0.029053
0.676697 0.348877 0.033539
0.967438 0.354309 0.040283
0.022583 0.485260 0.104523
0.078094 0.486084 0.088196
0.148621 0.487183 0.067474
0.234192 0.488525 0.042389
0.337555 0.490326 0.032227
0.483643 0.493011 0.035553
0.683868 0.496765 0.040222
0.974609 0.502228 0.046967
0.031769 0.687378 0.093597
0.087402 0.688293 0.077393
0.158020 0.689453 0.056763
0.243774 0.690948 0.038910
0.347351 0.692871 0.041321
0.493530 0.695648 0.044739
0.693695 0.699341 0.049316
0.983948 0.704437 0.055664
0.045807 0.981354 0.078430
0.101410 0.982239 0.062164
0.172058 0.983429 0.050140
0.257904 0.984985 0.052032
0.361267 0.986786 0.054291
0.507080 0.989258 0.057343
0.706451 0.992371 0.061188
0.995148 0.996277 0.066040
0.007263 0.023041 0.218964
0.062256 0.023499 0.202148
0.132111 0.024109 0.180847
0.216980 0.024902 0.155090
0.319336 0.025940 0.124146
0.464050 0.027588 0.080658
0.662628 0.030090 0.021423
0.952332 0.034790 0.026245
0.008606 0.078461 0.214783
0.063690 0.078979 0.198029
0.133667 0.079651 0.176849
0.218628 0.080536 0.151215
0.321167 0.081696 0.120422
0.466034 0.083496 0.077087
0.664856 0.086182 0.022552
0.954834 0.091064 0.028595
0.010590 0.149017 0.209747
0.065765 0.149597 0.193115
0.135895 0.150391 0.172028
0.221008 0.151367 0.146515
0.323700 0.152649 0.115845
0.468781 0.154602 0.072784
0.667908 0.157532 0.025391
0.958191 0.162628 0.031708
0.013336 0.234863 0.203979
0.068665 0.235535 0.187469
0.138885 0.236420 0.166473
0.224182 0.237549 0.141144
0.327057 0.238953 0.110626
0.472351 0.241058 0.067749
0.671814 0.244232 0.028992
0.962341 0.249542 0.035553
0.017181 0.338715 0.197510
0.072601 0.339478 0.181061
0.142975 0.340454 0.160217
0.228424 0.341705 0.135010
0.331451 0.343231 0.104675
0.476929 0.345490 0.061951
0.676697 0.348877 0.033539
0.967438 0.354309 0.040283
0.023285 0.485779 0.188965
0.078827 0.486633 0.172668
0.149353 0.487732 0.151947
0.234955 0.489105 0.126892
0.338135 0.490753 0.096680
0.483826 0.493134 0.054169
0.683868 0.496765 0.040222
0.974609 0.502228 0.046967
0.032562 0.687958 0.178131
0.088165 0.688873 0.161896
0.158813 0.690063 0.141296
0.244507 0.691467 0.116302
0.347778 0.693207 0.086212
0.493530 0.695648 0.044739
0.693695 0.699341 0.049316
0.983948 0.704437 0.055664
0.046570 0.981903 0.162903
0.102173 0.982819 0.146667
0.172729 0.983948 0.126007
0.258331 0.985291 0.100922
0.361420 0.986908 0.070648
0.507080 0.989258 0.057343
0.706451 0.992371 0.061188
0.995148 0.996277 0.066040
0.007690 0.023376 0.320343
0.062744 0.023865 0.303589
0.132660 0.024506 0.282288
0.217529 0.025330 0.256592
0.319977 0.026398 0.225677
0.464722 0.028107 0.182281
0.663391 0.030670 0.123108
0.952393 0.034851 0.037781
0.009125 0.078827 0.316254
0.064240 0.079376 0.299530
0.134247 0.080078 0.278381
0.219269 0.081024 0.252777
0.321838 0.082214 0.222015
0.466766 0.084045 0.178741
0.665649 0.086761 0.119781
0.954895 0.091125 0.034668
0.011169 0.149445 0.311279
0.066406 0.150055 0.294678
0.136536 0.150879 0.273621
0.221710 0.151886 0.248138
0.324432 0.153229 0.217529
0.469574 0.155212 0.174500
0.668671 0.158112 0.115723
0.958191 0.162628 0.031708
0.014038 0.235382 0.305603
0.069366 0.236084 0.289093
0.139648 0.236969 0.268158
0.224945 0.238129 0.242828
0.327850 0.239563 0.212372
0.473175 0.241699 0.169495
0.672516 0.244781 0.110992
0.962341 0.249542 0.035553
0.017944 0.339294 0.299194
0.073395 0.340057 0.282776
0.143799 0.341064 0.261963
0.229248 0.342346 0.236755
0.332336 0.343903 0.206451
0.477844 0.346161 0.163757
0.677368 0.349396 0.105408
0.967438 0.354309 0.040283
0.024170 0.486450 0.290741
0.079712 0.487305 0.274445
0.150269 0.488403 0.253754
0.235870 0.489777 0.228729
0.339050 0.491455 0.198517
0.484772 0.493835 0.156006
0.684418 0.497162 0.097809
0.974609 0.502228 0.046967
0.033508 0.688660 0.279968
0.089111 0.689575 0.263763
0.159760 0.690765 0.243134
0.245453 0.692200 0.218170
0.348724 0.693909 0.188049
0.494446 0.696320 0.145569
0.694031 0.699585 0.087250
0.983948 0.704437 0.055664
0.047485 0.982605 0.264740
0.103088 0.983521 0.248505
0.173645 0.984619 0.227814
0.259216 0.985962 0.202728
0.362305 0.987549 0.172424
0.507629 0.989685 0.129547
0.706512 0.992432 0.070618
0.995148 0.996277 0.066040
0.008392 0.023895 0.463470
0.063446 0.024384 0.446747
0.133423 0.025085 0.425537
0.218384 0.025940 0.399872
0.320892 0.027100 0.369019
0.465729 0.028870 0.325714
0.664490 0.031494 0.266632
0.953644 0.035767 0.181396
0.009888 0.079407 0.459473
0.065033 0.079987 0.442780
0.135101 0.080750 0.421661
0.220184 0.081696 0.396118
0.322815 0.082947 0.365417
0.467834 0.084839 0.322235
0.666809 0.087646 0.263367
0.956177 0.092072 0.178345
0.012054 0.150116 0.454590
0.067322 0.150757 0.438019
0.137512 0.151611 0.417023
0.222717 0.152649 0.391571
0.325500 0.154022 0.361023
0.470703 0.156067 0.318054
0.669891 0.159027 0.259369
0.959473 0.163605 0.174530
0.015045 0.236145 0.449036
0.070404 0.236847 0.432556
0.140717 0.237793 0.411652
0.226074 0.238953 0.386353
0.329010 0.240448 0.355957
0.474426 0.242615 0.313141
0.673798 0.245728 0.254669
0.963562 0.250458 0.169983
0.019073 0.340149 0.442749
0.074554 0.340942 0.426331
0.144989 0.341949 0.405548
0.230469 0.343231 0.380371
0.333557 0.344818 0.350098
0.479126 0.347137 0.307465
0.678711 0.350372 0.249146
0.968597 0.355194 0.164612
0.025421 0.487366 0.434418
0.080963 0.488251 0.418121
0.151550 0.489380 0.397461
0.237183 0.490753 0.372437
0.340393 0.492462 0.342285
0.486115 0.494843 0.299744
0.685760 0.498169 0.241547
0.975616 0.502960 0.156952
0.034851 0.689667 0.423706
0.090454 0.690582 0.407501
0.161102 0.691772 0.386902
0.246796 0.693207 0.361908
0.350067 0.694916 0.331818
0.495758 0.697327 0.289276
0.695312 0.700562 0.230957
0.984711 0.705017 0.145935
0.048767 0.983582 0.408447
0.104370 0.984467 0.392181
0.174896 0.985565 0.371490
0.260437 0.986908 0.346375
0.363495 0.988434 0.316040
0.508789 0.990540 0.273132
0.707550 0.993195 0.214081
0.995483 0.996552 0.127716
0.009399 0.024658 0.659637
0.064514 0.025208 0.642975
0.134552 0.025909 0.621796
0.219604 0.026855 0.596222
0.322205 0.028076 0.565491
0.467163 0.029938 0.522247
0.666077 0.032684 0.463318
0.955353 0.037048 0.378235
0.011017 0.080261 0.655731
0.066223 0.080872 0.639099
0.136353 0.081665 0.618073
0.221527 0.082703 0.592590
0.324249 0.084015 0.561981
0.469360 0.085968 0.518890
0.668457 0.088867 0.460114
0.957947 0.093384 0.375214
0.013336 0.151062 0.651001
0.068634 0.151764 0.634491
0.138885 0.152618 0.613495
0.224152 0.153748 0.588165
0.327026 0.155151 0.557648
0.472321 0.157257 0.514771
0.671600 0.160309 0.456177
0.961273 0.164948 0.371429
0.016479 0.237213 0.645569
0.071869 0.237976 0.629150
0.142242 0.238922 0.608276
0.227661 0.240143 0.583069
0.330658 0.241669 0.552704
0.476135 0.243896 0.509949
0.675598 0.247070 0.451538
0.965424 0.251862 0.366943
0.020660 0.341339 0.639435
0.076141 0.342133 0.623047
0.146637 0.343201 0.602295
0.232178 0.344513 0.577179
0.335297 0.346130 0.546936
0.480927 0.348480 0.504364
0.680542 0.351746 0.446075
0.970428 0.356598 0.361572
0.027130 0.488678 0.631256
0.082733 0.489563 0.614990
0.153320 0.490692 0.594330
0.238953 0.492096 0.569305
0.342224 0.493805 0.539185
0.487946 0.496216 0.496674
0.687592 0.499542 0.438477
0.977417 0.504303 0.353821
0.036682 0.691040 0.620667
0.092316 0.691986 0.604431
0.162964 0.693146 0.583832
0.248627 0.694580 0.558838
0.351898 0.696289 0.528717
0.497589 0.698669 0.486206
0.697052 0.701874 0.427795
0.986298 0.706207 0.342651
0.050537 0.984894 0.605316
0.106079 0.985779 0.589020
0.176605 0.986847 0.568298
0.262115 0.988159 0.543152
0.365112 0.989655 0.512787
0.510284 0.991669 0.469757
0.708923 0.994232 0.410583
0.996613 0.997375 0.323975
0.011017 0.025848 0.944611
0.066223 0.026459 0.928009
0.136353 0.027252 0.906921
0.221497 0.028290 0.881439
0.324219 0.029602 0.850830
0.469360 0.031555 0.807739
0.668427 0.034454 0.748962
0.957886 0.038971 0.664062
0.012817 0.081604 0.940857
0.068085 0.082275 0.924286
0.138306 0.083130 0.903320
0.223572 0.084229 0.877960
0.326385 0.085632 0.847443
0.471649 0.087708 0.804474
0.670898 0.090698 0.745850
0.960541 0.095337 0.661102
0.015320 0.152557 0.936310
0.070679 0.153290 0.919830
0.141022 0.154236 0.898956
0.226379 0.155426 0.873688
0.329315 0.156891 0.843262
0.474762 0.159088 0.800476
0.674164 0.162201 0.742035
0.963928 0.166931 0.657349
0.018646 0.238831 0.931061
0.074097 0.239624 0.914703
0.144562 0.240662 0.893890
0.230011 0.241913 0.868713
0.333099 0.243500 0.838409
0.478668 0.245819 0.795776
0.678192 0.249023 0.737457
0.968079 0.253845 0.652893
0.023041 0.343109 0.925110
0.078583 0.343964 0.908783
0.149109 0.345032 0.888062
0.234680 0.346405 0.863007
0.337891 0.348053 0.832794
0.483551 0.350433 0.790253
0.683197 0.353760 0.732025
0.973083 0.358582 0.647491
0.029724 0.490631 0.917114
0.085327 0.491516 0.900879
0.155945 0.492676 0.880249
0.241638 0.494110 0.855255
0.344879 0.495819 0.825134
0.490631 0.498230 0.782654
0.690277 0.501556 0.724426
0.979980 0.506226 0.639679
0.039368 0.693054 0.906586
0.094971 0.693970 0.890381
0.165619 0.695160 0.869781
0.251312 0.696564 0.844788
0.354523 0.698273 0.814636
0.500153 0.700623 0.772064
0.699524 0.703705 0.713562
0.988556 0.707886 0.628204
0.053009 0.986755 0.891083
0.108551 0.987610 0.874756
0.179016 0.988647 0.854004
0.264435 0.989899 0.828796
0.367340 0.991333 0.798309
0.512390 0.993256 0.755157
0.710785 0.995605 0.695770
0.998047 0.998474 0.608795
