custom_nodes/comfyui-vrgamedevgirl/LUTS/Dark_Cool_Magenta_Tint_Cinematic_Filmic_Dark.cube
TITLE "Filmic_Dark"
LUT_3D_SIZE 65
DOMAIN_MIN 0 0 0
DOMAIN_MAX 1 1 1
0.000000 0.000000 0.000000
0.007536 0.000000 0.000000
0.016723 0.000000 0.000000
0.026658 0.000000 0.000000
0.037111 0.000000 0.000000
0.047968 0.000000 0.000000
0.059157 0.000000 0.000000
0.070631 0.000000 0.000000
0.082355 0.000000 0.000000
0.094301 0.000000 0.000000
0.106448 0.000000 0.000000
0.118778 0.000000 0.000000
0.131279 0.000000 0.000000
0.143936 0.000000 0.000000
0.156741 0.000000 0.000000
0.169684 0.000000 0.000000
0.182757 0.000000 0.000000
0.195953 0.000000 0.000000
0.209266 0.000000 0.000000
0.222691 0.000000 0.000000
0.236222 0.000000 0.000000
0.249855 0.000000 0.000000
0.263586 0.000000 0.000000
0.277410 0.000000 0.000000
0.291325 0.000000 0.000000
0.305328 0.000000 0.000000
0.319415 0.000000 0.000000
0.333583 0.000000 0.000000
0.347830 0.000000 0.000000
0.362154 0.000000 0.000000
0.376552 0.000000 0.000000
0.391022 0.000000 0.000000
0.405563 0.000000 0.000000
0.420171 0.000000 0.000000
0.434847 0.000000 0.000000
0.449587 0.000000 0.000000
0.464391 0.000000 0.000000
0.479256 0.000000 0.000000
0.494182 0.000000 0.000000
0.509167 0.000000 0.000000
0.524209 0.000000 0.000000
0.539308 0.000000 0.000000
0.554463 0.000000 0.000000
0.569671 0.000000 0.000000
0.584933 0.000000 0.000000
0.600247 0.000000 0.000000
0.615612 0.000000 0.000000
0.631027 0.000000 0.000000
0.646492 0.000000 0.000000
0.662005 0.000000 0.000000
0.677565 0.000000 0.000000
0.693172 0.000000 0.000000
0.708826 0.000000 0.000000
0.724524 0.000000 0.000000
0.740267 0.000000 0.000000
0.756054 0.000000 0.000000
0.771884 0.000000 0.000000
0.787756 0.000000 0.000000
0.803670 0.000000 0.000000
0.819625 0.000000 0.000000
0.835621 0.000000 0.000000
0.851657 0.000000 0.000000
0.867733 0.000000 0.000000
0.883847 0.000000 0.000000
0.900000 0.000000 0.000000
0.000000 0.009484 0.000000
0.007536 0.009484 0.000000
0.016723 0.009484 0.000000
0.026658 0.009484 0.000000
0.037111 0.009484 0.000000
0.047968 0.009484 0.000000
0.059157 0.009484 0.000000
0.070631 0.009484 0.000000
0.082355 0.009484 0.000000
0.094301 0.009484 0.000000
0.106448 0.009484 0.000000
0.118778 0.009484 0.000000
0.131279 0.009484 0.000000
0.143936 0.009484 0.000000
0.156741 0.009484 0.000000
0.169684 0.009484 0.000000
0.182757 0.009484 0.000000
0.195953 0.009484 0.000000
0.209266 0.009484 0.000000
0.222691 0.009484 0.000000
0.236222 0.009484 0.000000
0.249855 0.009484 0.000000
0.263586 0.009484 0.000000
0.277410 0.009484 0.000000
0.291325 0.009484 0.000000
0.305328 0.009484 0.000000
0.319415 0.009484 0.000000
0.333583 0.009484 0.000000
0.347830 0.009484 0.000000
0.362154 0.009484 0.000000
0.376552 0.009484 0.000000
0.391022 0.009484 0.000000
0.405563 0.009484 0.000000
0.420171 0.009484 0.000000
0.434847 0.009484 0.000000
0.449587 0.009484 0.000000
0.464391 0.009484 0.000000
0.479256 0.009484 0.000000
0.494182 0.009484 0.000000
0.509167 0.009484 0.000000
0.524209 0.009484 0.000000
0.539308 0.009484 0.000000
0.554463 0.009484 0.000000
0.569671 0.009484 0.000000
0.584933 0.009484 0.000000
0.600247 0.009484 0.000000
0.615612 0.009484 0.000000
0.631027 0.009484 0.000000
0.646492 0.009484 0.000000
0.662005 0.009484 0.000000
0.677565 0.009484 0.000000
0.693172 0.009484 0.000000
0.708826 0.009484 0.000000
0.724524 0.009484 0.000000
0.740267 0.009484 0.000000
0.756054 0.009484 0.000000
0.771884 0.009484 0.000000
0.787756 0.009484 0.000000
0.803670 0.009484 0.000000
0.819625 0.009484 0.000000
0.835621 0.009484 0.000000
0.851657 0.009484 0.000000
0.867733 0.009484 0.000000
0.883847 0.009484 0.000000
0.900000 0.009484 0.000000
0.000000 0.020329 0.000000
0.007536 0.020329 0.000000
0.016723 0.020329 0.000000
0.026658 0.020329 0.000000
0.037111 0.020329 0.000000
0.047968 0.020329 0.000000
0.059157 0.020329 0.000000
0.070631 0.020329 0.000000
0.082355 0.020329 0.000000
0.094301 0.020329 0.000000
0.106448 0.020329 0.000000
0.118778 0.020329 0.000000
0.131279 0.020329 0.000000
0.143936 0.020329 0.000000
0.156741 0.020329 0.000000
0.169684 0.020329 0.000000
0.182757 0.020329 0.000000
0.195953 0.020329 0.000000
0.209266 0.020329 0.000000
0.222691 0.020329 0.000000
0.236222 0.020329 0.000000
0.249855 0.020329 0.000000
0.263586 0.020329 0.000000
0.277410 0.020329 0.000000
0.291325 0.020329 0.000000
0.305328 0.020329 0.000000
0.319415 0.020329 0.000000
0.333583 0.020329 0.000000
0.347830 0.020329 0.000000
0.362154 0.020329 0.000000
0.376552 0.020329 0.000000
0.391022 0.020329 0.000000
0.405563 0.020329 0.000000
0.420171 0.020329 0.000000
0.434847 0.020329 0.000000
0.449587 0.020329 0.000000
0.464391 0.020329 0.000000
0.479256 0.020329 0.000000
0.494182 0.020329 0.000000
0.509167 0.020329 0.000000
0.524209 0.020329 0.000000
0.539308 0.020329 0.000000
0.554463 0.020329 0.000000
0.569671 0.020329 0.000000
0.584933 0.020329 0.000000
0.600247 0.020329 0.000000
0.615612 0.020329 0.000000
0.631027 0.020329 0.000000
0.646492 0.020329 0.000000
0.662005 0.020329 0.000000
0.677565 0.020329 0.000000
0.693172 0.020329 0.000000
0.708826 0.020329 0.000000
0.724524 0.020329 0.000000
0.740267 0.020329 0.000000
0.756054 0.020329 0.000000
0.771884 0.020329 0.000000
0.787756 0.020329 0.000000
0.803670 0.020329 0.000000
0.819625 0.020329 0.000000
0.835621 0.020329 0.000000
0.851657 0.020329 0.000000
0.867733 0.020329 0.000000
0.883847 0.020329 0.000000
0.900000 0.020329 0.000000
0.000000 0.031756 0.000000
0.007536 0.031756 0.000000
0.016723 0.031756 0.000000
0.026658 0.031756 0.000000
0.037111 0.031756 0.000000
0.047968 0.031756 0.000000
0.059157 0.031756 0.000000
0.070631 0.031756 0.000000
0.082355 0.031756 0.000000
0.094301 0.031756 0.000000
0.106448 0.031756 0.000000
0.118778 0.031756 0.000000
0.131279 0.031756 0.000000
0.143936 0.031756 0.000000
0.156741 0.031756 0.000000
0.169684 0.031756 0.000000
0.182757 0.031756 0.000000
0.195953 0.031756 0.000000
0.209266 0.031756 0.000000
0.222691 0.031756 0.000000
0.236222 0.031756 0.000000
0.249855 0.031756 0.000000
0.263586 0.031756 0.000000
0.277410 0.031756 0.000000
0.291325 0.031756 0.000000
0.305328 0.031756 0.000000
0.319415 0.031756 0.000000
0.333583 0.031756 0.000000
0.347830 0.031756 0.000000
0.362154 0.031756 0.000000
0.376552 0.031756 0.000000
0.391022 0.031756 0.000000
0.405563 0.031756 0.000000
0.420171 0.031756 0.000000
0.434847 0.031756 0.000000
0.449587 0.031756 0.000000
0.464391 0.031756 0.000000
0.479256 0.031756 0.000000
0.494182 0.031756 0.000000
0.509167 0.031756 0.000000
0.524209 0.031756 0.000000
0.539308 0.031756 0.000000
0.554463 0.031756 0.000000
0.569671 0.031756 0.000000
0.584933 0.031756 0.000000
0.600247 0.031756 0.000000
0.615612 0.031756 0.000000
0.631027 0.031756 0.000000
0.646492 0.031756 0.000000
0.662005 0.031756 0.000000
0.677565 0.031756 0.000000
0.693172 0.031756 0.000000
0.708826 0.031756 0.000000
0.724524 0.031756 0.000000
0.740267 0.031756 0.000000
0.756054 0.031756 0.000000
0.771884 0.031756 0.000000
0.787756 0.031756 0.000000
0.803670 0.031756 0.000000
0.819625 0.031756 0.000000
0.835621 0.031756 0.000000
0.851657 0.031756 0.000000
0.867733 0.031756 0.000000
0.883847 0.031756 0.000000
0.900000 0.031756 0.000000
0.000000 0.043577 0.000000
0.007536 0.043577 0.000000
0.016723 0.043577 0.000000
0.026658 0.043577 0.000000
0.037111 0.043577 0.000000
0.047968 0.043577 0.000000
0.059157 0.043577 0.000000
0.070631 0.043577 0.000000
0.082355 0.043577 0.000000
0.094301 0.043577 0.000000
0.106448 0.043577 0.000000
0.118778 0.043577 0.000000
0.131279 0.043577 0.000000
0.143936 0.043577 0.000000
0.156741 0.043577 0.000000
0.169684 0.043577 0.000000
0.182757 0.043577 0.000000
0.195953 0.043577 0.000000
0.209266 0.043577 0.000000
0.222691 0.043577 0.000000
0.236222 0.043577 0.000000
0.249855 0.043577 0.000000
0.263586 0.043577 0.000000
0.277410 0.043577 0.000000
0.291325 0.043577 0.000000
0.305328 0.043577 0.000000
0.319415 0.043577 0.000000
0.333583 0.043577 0.000000
0.347830 0.043577 0.000000
0.362154 0.043577 0.000000
0.376552 0.043577 0.000000
0.391022 0.043577 0.000000
0.405563 0.043577 0.000000
0.420171 0.043577 0.000000
0.434847 0.043577 0.000000
0.449587 0.043577 0.000000
0.464391 0.043577 0.000000
0.479256 0.043577 0.000000
0.494182 0.043577 0.000000
0.509167 0.043577 0.000000
0.524209 0.043577 0.000000
0.539308 0.043577 0.000000
0.554463 0.043577 0.000000
0.569671 0.043577 0.000000
0.584933 0.043577 0.000000
0.600247 0.043577 0.000000
0.615612 0.043577 0.000000
0.631027 0.043577 0.000000
0.646492 0.043577 0.000000
0.662005 0.043577 0.000000
0.677565 0.043577 0.000000
0.693172 0.043577 0.000000
0.708826 0.043577 0.000000
0.724524 0.043577 0.000000
0.740267 0.043577 0.000000
0.756054 0.043577 0.000000
0.771884 0.043577 0.000000
0.787756 0.043577 0.000000
0.803670 0.043577 0.000000
0.819625 0.043577 0.000000
0.835621 0.043577 0.000000
0.851657 0.043577 0.000000
0.867733 0.043577 0.000000
0.883847 0.043577 0.000000
0.900000 0.043577 0.000000
0.000000 0.055700 0.000000
0.007536 0.055700 0.000000
0.016723 0.055700 0.000000
0.026658 0.055700 0.000000
0.037111 0.055700 0.000000
0.047968 0.055700 0.000000
0.059157 0.055700 0.000000
0.070631 0.055700 0.000000
0.082355 0.055700 0.000000
0.094301 0.055700 0.000000
0.106448 0.055700 0.000000
0.118778 0.055700 0.000000
0.131279 0.055700 0.000000
0.143936 0.055700 0.000000
0.156741 0.055700 0.000000
0.169684 0.055700 0.000000
0.182757 0.055700 0.000000
0.195953 0.055700 0.000000
0.209266 0.055700 0.000000
0.222691 0.055700 0.000000
0.236222 0.055700 0.000000
0.249855 0.055700 0.000000
0.263586 0.055700 0.000000
0.277410 0.055700 0.000000
0.291325 0.055700 0.000000
0.305328 0.055700 0.000000
0.319415 0.055700 0.000000
0.333583 0.055700 0.000000
0.347830 0.055700 0.000000
0.362154 0.055700 0.000000
0.376552 0.055700 0.000000
0.391022 0.055700 0.000000
0.405563 0.055700 0.000000
0.420171 0.055700 0.000000
0.434847 0.055700 0.000000
0.449587 0.055700 0.000000
0.464391 0.055700 0.000000
0.479256 0.055700 0.000000
0.494182 0.055700 0.000000
0.509167 0.055700 0.000000
0.524209 0.055700 0.000000
0.539308 0.055700 0.000000
0.554463 0.055700 0.000000
0.569671 0.055700 0.000000
0.584933 0.055700 0.000000
0.600247 0.055700 0.000000
0.615612 0.055700 0.000000
0.631027 0.055700 0.000000
0.646492 0.055700 0.000000
0.662005 0.055700 0.000000
0.677565 0.055700 0.000000
0.693172 0.055700 0.000000
0.708826 0.055700 0.000000
0.724524 0.055700 0.000000
0.740267 0.055700 0.000000
0.756054 0.055700 0.000000
0.771884 0.055700 0.000000
0.787756 0.055700 0.000000
0.803670 0.055700 0.000000
0.819625 0.055700 0.000000
0.835621 0.055700 0.000000
0.851657 0.055700 0.000000
0.867733 0.055700 0.000000
0.883847 0.055700 0.000000
0.900000 0.055700 0.000000
0.000000 0.068070 0.000000
0.007536 0.068070 0.000000
0.016723 0.068070 0.000000
0.026658 0.068070 0.000000
0.037111 0.068070 0.000000
0.047968 0.068070 0.000000
0.059157 0.068070 0.000000
0.070631 0.068070 0.000000
0.082355 0.068070 0.000000
0.094301 0.068070 0.000000
0.106448 0.068070 0.000000
0.118778 0.068070 0.000000
0.131279 0.068070 0.000000
0.143936 0.068070 0.000000
0.156741 0.068070 0.000000
0.169684 0.068070 0.000000
0.182757 0.068070 0.000000
0.195953 0.068070 0.000000
0.209266 0.068070 0.000000
0.222691 0.068070 0.000000
0.236222 0.068070 0.000000
0.249855 0.068070 0.000000
0.263586 0.068070 0.000000
0.277410 0.068070 0.000000
0.291325 0.068070 0.000000
0.305328 0.068070 0.000000
0.319415 0.068070 0.000000
0.333583 0.068070 0.000000
0.347830 0.068070 0.000000
0.362154 0.068070 0.000000
0.376552 0.068070 0.000000
0.391022 0.068070 0.000000
0.405563 0.068070 0.000000
0.420171 0.068070 0.000000
0.434847 0.068070 0.000000
0.449587 0.068070 0.000000
0.464391 0.068070 0.000000
0.479256 0.068070 0.000000
0.494182 0.068070 0.000000
0.509167 0.068070 0.000000
0.524209 0.068070 0.000000
0.539308 0.068070 0.000000
0.554463 0.068070 0.000000
0.569671 0.068070 0.000000
0.584933 0.068070 0.000000
0.600247 0.068070 0.000000
0.615612 0.068070 0.000000
0.631027 0.068070 0.000000
0.646492 0.068070 0.000000
0.662005 0.068070 0.000000
0.677565 0.068070 0.000000
0.693172 0.068070 0.000000
0.708826 0.068070 0.000000
0.724524 0.068070 0.000000
0.740267 0.068070 0.000000
0.756054 0.068070 0.000000
0.771884 0.068070 0.000000
0.787756 0.068070 0.000000
0.803670 0.068070 0.000000
0.819625 0.068070 0.000000
0.835621 0.068070 0.000000
0.851657 0.068070 0.000000
0.867733 0.068070 0.000000
0.883847 0.068070 0.000000
0.900000 0.068070 0.000000
0.000000 0.080649 0.000000
0.007536 0.080649 0.000000
0.016723 0.080649 0.000000
0.026658 0.080649 0.000000
0.037111 0.080649 0.000000
0.047968 0.080649 0.000000
0.059157 0.080649 0.000000
0.070631 0.080649 0.000000
0.082355 0.080649 0.000000
0.094301 0.080649 0.000000
0.106448 0.080649 0.000000
0.118778 0.080649 0.000000
0.131279 0.080649 0.000000
0.143936 0.080649 0.000000
0.156741 0.080649 0.000000
0.169684 0.080649 0.000000
0.182757 0.080649 0.000000
0.195953 0.080649 0.000000
0.209266 0.080649 0.000000
0.222691 0.080649 0.000000
0.236222 0.080649 0.000000
0.249855 0.080649 0.000000
0.263586 0.080649 0.000000
0.277410 0.080649 0.000000
0.291325 0.080649 0.000000
0.305328 0.080649 0.000000
0.319415 0.080649 0.000000
0.333583 0.080649 0.000000
0.347830 0.080649 0.000000
0.362154 0.080649 0.000000
0.376552 0.080649 0.000000
0.391022 0.080649 0.000000
0.405563 0.080649 0.000000
0.420171 0.080649 0.000000
0.434847 0.080649 0.000000
0.449587 0.080649 0.000000
0.464391 0.080649 0.000000
0.479256 0.080649 0.000000
0.494182 0.080649 0.000000
0.509167 0.080649 0.000000
0.524209 0.080649 0.000000
0.539308 0.080649 0.000000
0.554463 0.080649 0.000000
0.569671 0.080649 0.000000
0.584933 0.080649 0.000000
0.600247 0.080649 0.000000
0.615612 0.080649 0.000000
0.631027 0.080649 0.000000
0.646492 0.080649 0.000000
0.662005 0.080649 0.000000
0.677565 0.080649 0.000000
0.693172 0.080649 0.000000
0.708826 0.080649 0.000000
0.724524 0.080649 0.000000
0.740267 0.080649 0.000000
0.756054 0.080649 0.000000
0.771884 0.080649 0.000000
0.787756 0.080649 0.000000
0.803670 0.080649 0.000000
0.819625 0.080649 0.000000
0.835621 0.080649 0.000000
0.851657 0.080649 0.000000
0.867733 0.080649 0.000000
0.883847 0.080649 0.000000
0.900000 0.080649 0.000000
0.000000 0.093409 0.000000
0.007536 0.093409 0.000000
0.016723 0.093409 0.000000
0.026658 0.093409 0.000000
0.037111 0.093409 0.000000
0.047968 0.093409 0.000000
0.059157 0.093409 0.000000
0.070631 0.093409 0.000000
0.082355 0.093409 0.000000
0.094301 0.093409 0.000000
0.106448 0.093409 0.000000
0.118778 0.093409 0.000000
0.131279 0.093409 0.000000
0.143936 0.093409 0.000000
0.156741 0.093409 0.000000
0.169684 0.093409 0.000000
0.182757 0.093409 0.000000
0.195953 0.093409 0.000000
0.209266 0.093409 0.000000
0.222691 0.093409 0.000000
0.236222 0.093409 0.000000
0.249855 0.093409 0.000000
0.263586 0.093409 0.000000
0.277410 0.093409 0.000000
0.291325 0.093409 0.000000
0.305328 0.093409 0.000000
0.319415 0.093409 0.000000
0.333583 0.093409 0.000000
0.347830 0.093409 0.000000
0.362154 0.093409 0.000000
0.376552 0.093409 0.000000
0.391022 0.093409 0.000000
0.405563 0.093409 0.000000
0.420171 0.093409 0.000000
0.434847 0.093409 0.000000
0.449587 0.093409 0.000000
0.464391 0.093409 0.000000
0.479256 0.093409 0.000000
0.494182 0.093409 0.000000
0.509167 0.093409 0.000000
0.524209 0.093409 0.000000
0.539308 0.093409 0.000000
0.554463 0.093409 0.000000
0.569671 0.093409 0.000000
0.584933 0.093409 0.000000
0.600247 0.093409 0.000000
0.615612 0.093409 0.000000
0.631027 0.093409 0.000000
0.646492 0.093409 0.000000
0.662005 0.093409 0.000000
0.677565 0.093409 0.000000
0.693172 0.093409 0.000000
0.708826 0.093409 0.000000
0.724524 0.093409 0.000000
0.740267 0.093409 0.000000
0.756054 0.093409 0.000000
0.771884 0.093409 0.000000
0.787756 0.093409 0.000000
0.803670 0.093409 0.000000
0.819625 0.093409 0.000000
0.835621 0.093409 0.000000
0.851657 0.093409 0.000000
0.867733 0.093409 0.000000
0.883847 0.093409 0.000000
0.900000 0.093409 0.000000
0.000000 0.106330 0.000000
0.007536 0.106330 0.000000
0.016723 0.106330 0.000000
0.026658 0.106330 0.000000
0.037111 0.106330 0.000000
0.047968 0.106330 0.000000
0.059157 0.106330 0.000000
0.070631 0.106330 0.000000
0.082355 0.106330 0.000000
0.094301 0.106330 0.000000
0.106448 0.106330 0.000000
0.118778 0.106330 0.000000
0.131279 0.106330 0.000000
0.143936 0.106330 0.000000
0.156741 0.106330 0.000000
0.169684 0.106330 0.000000
0.182757 0.106330 0.000000
0.195953 0.106330 0.000000
0.209266 0.106330 0.000000
0.222691 0.106330 0.000000
0.236222 0.106330 0.000000
0.249855 0.106330 0.000000
0.263586 0.106330 0.000000
0.277410 0.106330 0.000000
0.291325 0.106330 0.000000
0.305328 0.106330 0.000000
0.319415 0.106330 0.000000
0.333583 0.106330 0.000000
0.347830 0.106330 0.000000
0.362154 0.106330 0.000000
0.376552 0.106330 0.000000
0.391022 0.106330 0.000000
0.405563 0.106330 0.000000
0.420171 0.106330 0.000000
0.434847 0.106330 0.000000
0.449587 0.106330 0.000000
0.464391 0.106330 0.000000
0.479256 0.106330 0.000000
0.494182 0.106330 0.000000
0.509167 0.106330 0.000000
0.524209 0.106330 0.000000
0.539308 0.106330 0.000000
0.554463 0.106330 0.000000
0.569671 0.106330 0.000000
0.584933 0.106330 0.000000
0.600247 0.106330 0.000000
0.615612 0.106330 0.000000
0.631027 0.106330 0.000000
0.646492 0.106330 0.000000
0.662005 0.106330 0.000000
0.677565 0.106330 0.000000
0.693172 0.106330 0.000000
0.708826 0.106330 0.000000
0.724524 0.106330 0.000000
0.740267 0.106330 0.000000
0.756054 0.106330 0.000000
0.771884 0.106330 0.000000
0.787756 0.106330 0.000000
0.803670 0.106330 0.000000
0.819625 0.106330 0.000000
0.835621 0.106330 0.000000
0.851657 0.106330 0.000000
0.867733 0.106330 0.000000
0.883847 0.106330 0.000000
0.900000 0.106330 0.000000
0.000000 0.119396 0.000000
0.007536 0.119396 0.000000
0.016723 0.119396 0.000000
0.026658 0.119396 0.000000
0.037111 0.119396 0.000000
0.047968 0.119396 0.000000
0.059157 0.119396 0.000000
0.070631 0.119396 0.000000
0.082355 0.119396 0.000000
0.094301 0.119396 0.000000
0.106448 0.119396 0.000000
0.118778 0.119396 0.000000
0.131279 0.119396 0.000000
0.143936 0.119396 0.000000
0.156741 0.119396 0.000000
0.169684 0.119396 0.000000
0.182757 0.119396 0.000000
0.195953 0.119396 0.000000
0.209266 0.119396 0.000000
0.222691 0.119396 0.000000
0.236222 0.119396 0.000000
0.249855 0.119396 0.000000
0.263586 0.119396 0.000000
0.277410 0.119396 0.000000
0.291325 0.119396 0.000000
0.305328 0.119396 0.000000
0.319415 0.119396 0.000000
0.333583 0.119396 0.000000
0.347830 0.119396 0.000000
0.362154 0.119396 0.000000
0.376552 0.119396 0.000000
0.391022 0.119396 0.000000
0.405563 0.119396 0.000000
0.420171 0.119396 0.000000
0.434847 0.119396 0.000000
0.449587 0.119396 0.000000
0.464391 0.119396 0.000000
0.479256 0.119396 0.000000
0.494182 0.119396 0.000000
0.509167 0.119396 0.000000
0.524209 0.119396 0.000000
0.539308 0.119396 0.000000
0.554463 0.119396 0.000000
0.569671 0.119396 0.000000
0.584933 0.119396 0.000000
0.600247 0.119396 0.000000
0.615612 0.119396 0.000000
0.631027 0.119396 0.000000
0.646492 0.119396 0.000000
0.662005 0.119396 0.000000
0.677565 0.119396 0.000000
0.693172 0.119396 0.000000
0.708826 0.119396 0.000000
0.724524 0.119396 0.000000
0.740267 0.119396 0.000000
0.756054 0.119396 0.000000
0.771884 0.119396 0.000000
0.787756 0.119396 0.000000
0.803670 0.119396 0.000000
0.819625 0.119396 0.000000
0.835621 0.119396 0.000000
0.851657 0.119396 0.000000
0.867733 0.119396 0.000000
0.883847 0.119396 0.000000
0.900000 0.119396 0.000000
0.000000 0.132593 0.000000
0.007536 0.132593 0.000000
0.016723 0.132593 0.000000
0.026658 0.132593 0.000000
0.037111 0.132593 0.000000
0.047968 0.132593 0.000000
0.059157 0.132593 0.000000
0.070631 0.132593 0.000000
0.082355 0.132593 0.000000
0.094301 0.132593 0.000000
0.106448 0.132593 0.000000
0.118778 0.132593 0.000000
0.131279 0.132593 0.000000
0.143936 0.132593 0.000000
0.156741 0.132593 0.000000
0.169684 0.132593 0.000000
0.182757 0.132593 0.000000
0.195953 0.132593 0.000000
0.209266 0.132593 0.000000
0.222691 0.132593 0.000000
0.236222 0.132593 0.000000
0.249855 0.132593 0.000000
0.263586 0.132593 0.000000
0.277410 0.132593 0.000000
0.291325 0.132593 0.000000
0.305328 0.132593 0.000000
0.319415 0.132593 0.000000
0.333583 0.132593 0.000000
0.347830 0.132593 0.000000
0.362154 0.132593 0.000000
0.376552 0.132593 0.000000
0.391022 0.132593 0.000000
0.405563 0.132593 0.000000
0.420171 0.132593 0.000000
0.434847 0.132593 0.000000
0.449587 0.132593 0.000000
0.464391 0.132593 0.000000
0.479256 0.132593 0.000000
0.494182 0.132593 0.000000
0.509167 0.132593 0.000000
0.524209 0.132593 0.000000
0.539308 0.132593 0.000000
0.554463 0.132593 0.000000
0.569671 0.132593 0.000000
0.584933 0.132593 0.000000
0.600247 0.132593 0.000000
0.615612 0.132593 0.000000
0.631027 0.132593 0.000000
0.646492 0.132593 0.000000
0.662005 0.132593 0.000000
0.677565 0.132593 0.000000
0.693172 0.132593 0.000000
0.708826 0.132593 0.000000
0.724524 0.132593 0.000000
0.740267 0.132593 0.000000
0.756054 0.132593 0.000000
0.771884 0.132593 0.000000
0.787756 0.132593 0.000000
0.803670 0.132593 0.000000
0.819625 0.132593 0.000000
0.835621 0.132593 0.000000
0.851657 0.132593 0.000000
0.867733 0.132593 0.000000
0.883847 0.132593 0.000000
0.900000 0.132593 0.000000
0.000000 0.145911 0.000000
0.007536 0.145911 0.000000
0.016723 0.145911 0.000000
0.026658 0.145911 0.000000
0.037111 0.145911 0.000000
0.047968 0.145911 0.000000
0.059157 0.145911 0.000000
0.070631 0.145911 0.000000
0.082355 0.145911 0.000000
0.094301 0.145911 0.000000
0.106448 0.145911 0.000000
0.118778 0.145911 0.000000
0.131279 0.145911 0.000000
0.143936 0.145911 0.000000
0.156741 0.145911 0.000000
0.169684 0.145911 0.000000
0.182757 0.145911 0.000000
0.195953 0.145911 0.000000
0.209266 0.145911 0.000000
0.222691 0.145911 0.000000
0.236222 0.145911 0.000000
0.249855 0.145911 0.000000
0.263586 0.145911 0.000000
0.277410 0.145911 0.000000
0.291325 0.145911 0.000000
0.305328 0.145911 0.000000
0.319415 0.145911 0.000000
0.333583 0.145911 0.000000
0.347830 0.145911 0.000000
0.362154 0.145911 0.000000
0.376552 0.145911 0.000000
0.391022 0.145911 0.000000
0.405563 0.145911 0.000000
0.420171 0.145911 0.000000
0.434847 0.145911 0.000000
0.449587 0.145911 0.000000
0.464391 0.145911 0.000000
0.479256 0.145911 0.000000
0.494182 0.145911 0.000000
0.509167 0.145911 0.000000
0.524209 0.145911 0.000000
0.539308 0.145911 0.000000
0.554463 0.145911 0.000000
0.569671 0.145911 0.000000
0.584933 0.145911 0.000000
0.600247 0.145911 0.000000
0.615612 0.145911 0.000000
0.631027 0.145911 0.000000
0.646492 0.145911 0.000000
0.662005 0.145911 0.000000
0.677565 0.145911 0.000000
0.693172 0.145911 0.000000
0.708826 0.145911 0.000000
0.724524 0.145911 0.000000
0.740267 0.145911 0.000000
0.756054 0.145911 0.000000
0.771884 0.145911 0.000000
0.787756 0.145911 0.000000
0.803670 0.145911 0.000000
0.819625 0.145911 0.000000
0.835621 0.145911 0.000000
0.851657 0.145911 0.000000
0.867733 0.145911 0.000000
0.883847 0.145911 0.000000
0.900000 0.145911 0.000000
0.000000 0.159341 0.000000
0.007536 0.159341 0.000000
0.016723 0.159341 0.000000
0.026658 0.159341 0.000000
0.037111 0.159341 0.000000
0.047968 0.159341 0.000000
0.059157 0.159341 0.000000
0.070631 0.159341 0.000000
0.082355 0.159341 0.000000
0.094301 0.159341 0.000000
0.106448 0.159341 0.000000
0.118778 0.159341 0.000000
0.131279 0.159341 0.000000
0.143936 0.159341 0.000000
0.156741 0.159341 0.000000
0.169684 0.159341 0.000000
0.182757 0.159341 0.000000
0.195953 0.159341 0.000000
0.209266 0.159341 0.000000
0.222691 0.159341 0.000000
0.236222 0.159341 0.000000
0.249855 0.159341 0.000000
0.263586 0.159341 0.000000
0.277410 0.159341 0.000000
0.291325 0.159341 0.000000
0.305328 0.159341 0.000000
0.319415 0.159341 0.000000
0.333583 0.159341 0.000000
0.347830 0.159341 0.000000
0.362154 0.159341 0.000000
0.376552 0.159341 0.000000
0.391022 0.159341 0.000000
0.405563 0.159341 0.000000
0.420171 0.159341 0.000000
0.434847 0.159341 0.000000
0.449587 0.159341 0.000000
0.464391 0.159341 0.000000
0.479256 0.159341 0.000000
0.494182 0.159341 0.000000
0.509167 0.159341 0.000000
0.524209 0.159341 0.000000
