custom_nodes/comfyui-vrgamedevgirl/LUTS/Dark_Muted_Cool_Cinematic_2.cube
#Created by: Adobe Photoshop Export Color Lookup Plugin
TITLE "ComfyUI_00055_.png"
#LUT size
LUT_3D_SIZE 5
#data domain
DOMAIN_MIN 0.0 0.0 0.0
DOMAIN_MAX 1.0 1.0 1.0
#LUT data points
0.105988 0.141144 0.203918
0.180847 0.129517 0.192108
0.251495 0.141144 0.168762
0.325073 0.164368 0.184143
0.439331 0.219543 0.203918
0.094025 0.184601 0.172668
0.165039 0.176880 0.152863
0.244202 0.173340 0.168976
0.333038 0.203979 0.188202
0.451508 0.255402 0.227509
0.134399 0.260071 0.189026
0.170044 0.268097 0.173187
0.272552 0.276306 0.177612
0.388733 0.303741 0.223267
0.534698 0.374481 0.283051
0.277710 0.449799 0.281769
0.320831 0.465363 0.277710
0.403656 0.485260 0.281616
0.551025 0.531555 0.316620
0.751343 0.629639 0.406799
0.666656 0.866669 0.548950
0.678772 0.874634 0.545044
0.750183 0.910492 0.541443
0.889343 0.952698 0.576324
1.000000 0.968750 0.584381
0.078705 0.133270 0.290558
0.160980 0.133331 0.259094
0.235870 0.141388 0.239624
0.309570 0.164581 0.236023
0.431244 0.223511 0.266968
0.090332 0.184601 0.239563
0.145355 0.173035 0.235718
0.228119 0.180939 0.243378
0.324829 0.204071 0.247528
0.458923 0.259308 0.278931
0.146118 0.260132 0.248260
0.173798 0.264282 0.248047
0.272308 0.276154 0.236389
0.380981 0.311188 0.275177
0.530884 0.382599 0.338531
0.301147 0.453552 0.344757
0.324677 0.461456 0.348419
0.396545 0.489197 0.325653
0.543518 0.528198 0.360291
0.751251 0.637634 0.450653
0.670959 0.862823 0.588898
0.694550 0.882446 0.592560
0.765808 0.914398 0.600311
0.881683 0.952942 0.612030
1.000000 0.972656 0.631561
0.089966 0.125519 0.369507
0.152710 0.133270 0.349487
0.220306 0.149109 0.306580
0.297852 0.172577 0.310211
0.419678 0.231415 0.345520
0.031433 0.177032 0.334015
0.114624 0.176941 0.330170
0.216553 0.184906 0.306671
0.309814 0.208038 0.318085
0.439789 0.267365 0.354004
0.138458 0.264282 0.315002
0.178162 0.268188 0.319061
0.256927 0.280212 0.334717
0.373260 0.319153 0.365723
0.530945 0.394318 0.413696
0.320312 0.457703 0.415863
0.336853 0.458069 0.423431
0.411713 0.489349 0.439392
0.554840 0.554779 0.466187
0.743378 0.649567 0.549042
0.706146 0.863068 0.675385
0.737549 0.878601 0.694916
0.789185 0.914093 0.698975
0.885895 0.964355 0.695465
0.999847 0.972656 0.703003
0.097931 0.129364 0.442841
0.141541 0.129578 0.430725
0.217010 0.145203 0.399078
0.301605 0.184082 0.376007
0.427185 0.243225 0.411346
0.051270 0.176941 0.419159
0.114655 0.176941 0.418854
0.220459 0.181091 0.406982
0.313568 0.219543 0.391724
0.451202 0.282837 0.423523
0.127869 0.268188 0.395782
0.158905 0.272186 0.414551
0.256683 0.291840 0.431335
0.380768 0.330566 0.439148
0.534454 0.409790 0.487122
0.339752 0.465363 0.481201
0.363831 0.473389 0.485443
0.435089 0.501221 0.513092
0.558685 0.558838 0.559204
0.747498 0.668640 0.653320
0.733337 0.886108 0.764191
0.749512 0.898010 0.772430
0.808868 0.918396 0.788727
0.901550 0.964264 0.826508
0.988434 0.968750 0.803436
0.097931 0.133331 0.517700
0.129730 0.133484 0.509888
0.220459 0.145355 0.489807
0.324738 0.184296 0.478455
0.443237 0.274475 0.497925
0.062531 0.180847 0.509735
0.125977 0.177032 0.497986
0.220764 0.192657 0.502075
0.336945 0.223755 0.494171
0.474640 0.314026 0.514099
0.115936 0.283813 0.514252
0.147552 0.284119 0.514557
0.276611 0.303894 0.530182
0.401062 0.342957 0.553619
0.562195 0.429626 0.581665
0.359283 0.492706 0.579926
0.379456 0.500702 0.587891
0.458069 0.532166 0.623749
0.586121 0.590332 0.681305
0.786835 0.704224 0.740082
0.764587 0.909882 0.843231
0.799927 0.921539 0.851044
0.847748 0.945190 0.870880
0.913635 0.964508 0.893921
0.980469 0.968750 0.897919
