custom_nodes/comfyui-vrgamedevgirl/LUTS/Dark_Muted_Cool_Cinematic.cube
#Created by: Adobe Photoshop Export Color Lookup Plugin
TITLE "ComfyUI_00055_.png"
#LUT size
LUT_3D_SIZE 5
#data domain
DOMAIN_MIN 0.0 0.0 0.0
DOMAIN_MAX 1.0 1.0 1.0
#LUT data points
0.000000 0.000000 0.000000
0.159180 0.000000 0.000000
0.411743 0.000000 0.000000
0.656036 0.000000 0.000000
0.885345 0.000000 0.000000
0.000000 0.193481 0.000000
0.168274 0.199066 0.000000
0.421356 0.205780 0.000000
0.664215 0.212891 0.000000
0.891602 0.221863 0.000000
0.000000 0.453278 0.000000
0.179779 0.459534 0.000000
0.432892 0.466522 0.000000
0.673340 0.473602 0.000000
0.898346 0.482300 0.000000
0.000000 0.695923 0.000000
0.191803 0.700623 0.000000
0.444550 0.705811 0.000000
0.682739 0.711395 0.000000
0.905853 0.718658 0.000000
0.000000 0.921509 0.000000
0.206787 0.925385 0.000000
0.460052 0.929749 0.000000
0.695099 0.934204 0.023682
0.915039 0.939514 0.053009
0.000000 0.000000 0.220612
0.160736 0.000000 0.225098
0.413452 0.000000 0.230988
0.657532 0.000000 0.237671
0.886505 0.000000 0.246552
0.000000 0.195465 0.230133
0.170105 0.201202 0.235901
0.423248 0.208008 0.242615
0.665741 0.215179 0.249786
0.892731 0.224060 0.258636
0.000000 0.455627 0.243134
0.181732 0.461823 0.249298
0.434753 0.468811 0.256195
0.674835 0.475800 0.263092
0.899567 0.484619 0.271790
0.000000 0.697632 0.257141
0.193634 0.702332 0.263092
0.446472 0.707550 0.269775
0.684326 0.713226 0.277039
0.907135 0.720459 0.286407
0.000000 0.922913 0.274292
0.208801 0.926758 0.280670
0.462097 0.931183 0.287903
0.696625 0.935608 0.295258
0.916107 0.940704 0.303741
0.000000 0.000000 0.469452
0.162537 0.000000 0.474335
0.415405 0.000000 0.480530
0.659210 0.000000 0.487427
0.887817 0.000000 0.496338
0.000000 0.197754 0.479675
0.172211 0.203674 0.485535
0.425354 0.210510 0.492401
0.667480 0.217712 0.499573
0.894012 0.226562 0.508301
0.000000 0.458130 0.492920
0.183929 0.464386 0.499115
0.436890 0.471313 0.505920
0.676453 0.478180 0.512634
0.900879 0.487213 0.521362
0.000000 0.699615 0.506836
0.195679 0.704193 0.512634
0.448639 0.709534 0.519348
0.686096 0.715271 0.526550
0.908508 0.722473 0.535614
0.000000 0.924469 0.523895
0.211060 0.928375 0.530151
0.464386 0.932739 0.537109
0.698334 0.937103 0.543976
0.917236 0.942017 0.551727
0.000000 0.000000 0.698944
0.164551 0.000000 0.702972
0.417450 0.000000 0.707947
0.660980 0.000000 0.713318
0.889160 0.000000 0.720184
0.000000 0.200256 0.707245
0.174469 0.206238 0.711914
0.427612 0.213165 0.717163
0.669250 0.220367 0.722687
0.895294 0.229034 0.729218
0.000000 0.460785 0.717560
0.186127 0.467041 0.722290
0.439056 0.473877 0.727417
0.678162 0.480774 0.732605
0.902313 0.489960 0.739380
0.000000 0.701569 0.728149
0.197876 0.706177 0.732635
0.450958 0.711639 0.737854
0.687988 0.717407 0.743347
0.909882 0.724579 0.750183
0.000000 0.926178 0.741272
0.213440 0.930084 0.746094
0.466705 0.934387 0.751312
0.699982 0.938629 0.756439
0.918274 0.943237 0.761932
0.000000 0.000000 0.915100
0.167114 0.000000 0.918396
0.420135 0.000000 0.922363
0.663208 0.000000 0.926605
0.890869 0.000000 0.931976
0.000000 0.203400 0.921814
0.177277 0.209534 0.925476
0.430389 0.216492 0.929657
0.671448 0.223602 0.933899
0.896881 0.232178 0.938995
0.000000 0.464081 0.929932
0.188965 0.470306 0.933624
0.441711 0.476990 0.937561
0.680420 0.484070 0.941772
0.904083 0.493378 0.947266
0.000000 0.703979 0.938110
0.200745 0.708771 0.941803
0.453888 0.714294 0.945984
0.690308 0.720062 0.950439
0.911621 0.727081 0.955872
0.000000 0.928192 0.948730
0.216339 0.932098 0.952606
0.469543 0.936371 0.956726
0.702057 0.940430 0.960693
0.919434 0.944580 0.964722
