custom_nodes/comfyui-vrgamedevgirl/LUTS/Dark_Soft_Vivid_Warm_2.cube
#Created by: Adobe Photoshop Export Color Lookup Plugin
#Copyright: (C) Copyright 2017 PremiumBeat.com
TITLE "Santa Fe"
#LUT size
LUT_3D_SIZE 4
#data domain
DOMAIN_MIN 0.0 0.0 0.0
DOMAIN_MAX 1.0 1.0 1.0
#LUT data points
0.006409 0.022430 0.010925
0.157959 0.023743 0.012573
0.408539 0.026550 0.016052
0.952332 0.034790 0.026245
0.010254 0.175079 0.014496
0.162567 0.176971 0.016846
0.414215 0.180603 0.021332
0.959473 0.189911 0.032898
0.019501 0.428833 0.023102
0.172699 0.431396 0.026245
0.425476 0.435852 0.031799
0.971893 0.446075 0.044464
0.045502 0.981140 0.047272
0.199036 0.983948 0.050751
0.451721 0.988342 0.056183
0.995148 0.996277 0.066040
0.007019 0.022858 0.161285
0.158478 0.024109 0.114990
0.408691 0.026672 0.039368
0.952332 0.034790 0.026245
0.011047 0.175690 0.150116
0.163147 0.177429 0.104431
0.414276 0.180634 0.029633
0.959473 0.189911 0.032898
0.020416 0.429504 0.134216
0.173248 0.431793 0.089233
0.425476 0.435852 0.031799
0.971893 0.446075 0.044464
0.046021 0.981506 0.104950
0.199097 0.983978 0.060181
0.451721 0.988342 0.056183
0.995148 0.996277 0.066040
0.008118 0.023682 0.409119
0.159790 0.025116 0.363037
0.410309 0.027893 0.287689
0.953156 0.035400 0.126862
0.012604 0.176849 0.398376
0.164856 0.178680 0.352844
0.416229 0.182098 0.278229
0.960236 0.190491 0.118500
0.022461 0.431061 0.382935
0.175385 0.433411 0.338043
0.427582 0.437439 0.264221
0.972473 0.446472 0.105286
0.048279 0.983215 0.353882
0.201324 0.985657 0.309052
0.453186 0.989441 0.234924
0.995178 0.996307 0.073303
0.011017 0.025848 0.944611
0.163086 0.027588 0.898926
0.414185 0.030792 0.824097
0.957886 0.038971 0.664062
0.016327 0.179657 0.934662
0.168915 0.181732 0.889435
0.420715 0.185455 0.815216
0.965240 0.194244 0.655975
0.027130 0.434570 0.920105
0.180206 0.437012 0.875305
0.432587 0.441193 0.801666
0.977417 0.450195 0.642670
0.053009 0.986755 0.891083
0.205872 0.989044 0.846100
0.457336 0.992523 0.771576
0.998047 0.998474 0.608795
