custom_nodes/comfyui-vrgamedevgirl/LUTS/Dark_Vivid_Cinematic.cube
#Created by: Adobe Photoshop Export Color Lookup Plugin
#Copyright: (C) Copyright 2017 PremiumBeat
TITLE "Loch Ness"
#LUT size
LUT_3D_SIZE 4
#data domain
DOMAIN_MIN 0.0 0.0 0.0
DOMAIN_MAX 1.0 1.0 1.0
#LUT data points
0.000000 0.000000 0.000000
0.131317 0.000000 0.000000
0.530029 0.000000 0.000000
0.769409 0.000000 0.000000
0.000000 0.131317 0.000000
0.131317 0.131317 0.000000
0.530029 0.131348 0.000000
0.769409 0.131317 0.000000
0.000000 0.530029 0.000000
0.131348 0.530029 0.000000
0.530029 0.530029 0.000000
0.769409 0.530090 0.000000
0.000000 0.769409 0.000000
0.131317 0.769409 0.000000
0.530090 0.769409 0.000000
0.769409 0.769409 0.000000
0.000000 0.000000 0.131317
0.131317 0.000000 0.131317
0.530029 0.000000 0.131348
0.769409 0.000000 0.131317
0.000000 0.131317 0.131317
0.131317 0.131317 0.131317
0.530029 0.131317 0.131317
0.769409 0.131317 0.131317
0.000000 0.530029 0.131348
0.131317 0.530029 0.131317
0.530029 0.530029 0.131317
0.769409 0.529968 0.131317
0.000000 0.769409 0.131317
0.131317 0.769409 0.131317
0.529968 0.769409 0.131317
0.769409 0.769409 0.131317
0.000000 0.000000 0.530029
0.131348 0.000000 0.530029
0.530029 0.000000 0.530029
0.769409 0.000000 0.530090
0.000000 0.131348 0.530029
0.131317 0.131317 0.530029
0.530029 0.131317 0.530029
0.769409 0.131317 0.529968
0.000000 0.530029 0.530029
0.131317 0.530029 0.530029
0.530029 0.530029 0.530029
0.769409 0.530029 0.530029
0.000000 0.769409 0.530090
0.131317 0.769409 0.529968
0.530029 0.769409 0.530029
0.769409 0.769409 0.530029
0.000000 0.000000 0.769409
0.131317 0.000000 0.769409
0.530090 0.000000 0.769409
0.769409 0.000000 0.769409
0.000000 0.131317 0.769409
0.131317 0.131317 0.769409
0.529968 0.131317 0.769409
0.769409 0.131317 0.769409
0.000000 0.530090 0.769409
0.131317 0.529968 0.769409
0.530029 0.530029 0.769409
0.769409 0.530029 0.769409
0.000000 0.769409 0.769409
0.131317 0.769409 0.769409
0.530029 0.769409 0.769409
0.769409 0.769409 0.769409
