custom_nodes/comfyui-vrgamedevgirl/LUTS/Dark_Soft_Vivid_Cool.cube
#Created by: Adobe Photoshop Export Color Lookup Plugin
#Copyright: (C) Copyright 2017 PremiumBeat
TITLE "Boulder"
#LUT size
LUT_3D_SIZE 8
#data domain
DOMAIN_MIN 0.0 0.0 0.0
DOMAIN_MAX 1.0 1.0 1.0
#LUT data points
0.064911 0.054779 0.071594
0.075470 0.054016 0.070801
0.130371 0.049896 0.066589
0.224152 0.041779 0.058289
0.349792 0.030060 0.046234
0.562683 0.014587 0.030182
0.657257 0.000000 0.014648
0.790924 0.000000 0.000854
0.064270 0.065125 0.070862
0.075928 0.065247 0.070770
0.131073 0.061218 0.066559
0.225464 0.052948 0.058197
0.353058 0.040833 0.046082
0.567780 0.024475 0.029999
0.660004 0.009888 0.014496
0.798798 0.000000 0.000732
0.060425 0.120972 0.066711
0.073059 0.121307 0.066742
0.132019 0.121521 0.066498
0.225739 0.114349 0.058197
0.352295 0.103363 0.046112
0.566742 0.087830 0.029999
0.661224 0.071228 0.014618
0.799774 0.057709 0.003204
0.053101 0.216125 0.058472
0.067291 0.216705 0.058472
0.127045 0.217560 0.058441
0.226959 0.217896 0.058075
0.353149 0.209564 0.046021
0.566437 0.198059 0.029999
0.659882 0.186279 0.014496
0.800079 0.175415 0.000885
0.043335 0.338959 0.046661
0.059753 0.340485 0.046539
0.120483 0.342133 0.046478
0.221222 0.343231 0.046387
0.355164 0.343781 0.045929
0.567627 0.332092 0.029968
0.660156 0.320892 0.014465
0.800232 0.310974 0.000763
0.031708 0.552704 0.030914
0.051086 0.555725 0.030701
0.113373 0.558350 0.030548
0.214325 0.560333 0.030457
0.346649 0.561768 0.030457
0.569946 0.562378 0.029846
0.661255 0.550568 0.014465
0.800629 0.539246 0.001312
0.021881 0.658081 0.015686
0.044403 0.659851 0.015381
0.107544 0.661957 0.015137
0.208618 0.663574 0.015045
0.339294 0.664703 0.015045
0.562775 0.665680 0.015137
0.662598 0.665833 0.014435
0.800690 0.660004 0.003723
0.014496 0.818817 0.002167
0.039246 0.825043 0.001862
0.103210 0.833527 0.001495
0.204163 0.839844 0.001312
0.333191 0.844666 0.001343
0.555939 0.848358 0.001465
0.658997 0.850494 0.001648
0.800049 0.842865 0.015503
0.064362 0.054199 0.080444
0.075714 0.053986 0.080444
0.130585 0.049896 0.076599
0.224457 0.041748 0.068542
0.350098 0.030029 0.056793
0.563019 0.014496 0.041016
0.657471 0.000000 0.025574
0.791687 0.000000 0.011688
0.064240 0.065216 0.080658
0.075653 0.064636 0.080048
0.130859 0.060638 0.076202
0.225250 0.052338 0.068420
0.352783 0.040192 0.057526
0.567627 0.024017 0.043030
0.659973 0.009369 0.027588
0.798798 0.000000 0.013702
0.060486 0.121063 0.076538
0.072723 0.120850 0.076172
0.131836 0.121124 0.076202
0.225525 0.113892 0.068329
0.352081 0.102997 0.056946
0.566498 0.087494 0.042084
0.661102 0.070892 0.028381
0.798370 0.057678 0.021240
0.053101 0.216370 0.067780
0.067047 0.216553 0.067535
0.126984 0.217346 0.067963
0.226898 0.217682 0.067993
0.353058 0.209473 0.056519
0.566345 0.198029 0.041260
0.659882 0.186279 0.026398
0.799103 0.175751 0.013947
0.043274 0.339661 0.054108
0.059784 0.340729 0.054260
0.120972 0.342346 0.054962
0.221527 0.343567 0.055481
0.355560 0.344055 0.055481
0.567902 0.332397 0.040070
0.660370 0.321198 0.024933
0.799469 0.311615 0.012299
0.031464 0.554016 0.037201
0.051422 0.556366 0.037323
0.114044 0.558929 0.038239
0.214874 0.560944 0.039062
0.347321 0.562286 0.039795
0.570404 0.562897 0.039886
0.661469 0.551025 0.025146
0.799591 0.539917 0.014801
0.021667 0.658661 0.022064
0.044250 0.660492 0.021820
0.108276 0.662292 0.022797
0.209198 0.663879 0.023956
0.339783 0.665039 0.024872
0.563141 0.665894 0.025818
0.662842 0.666077 0.025726
0.799255 0.660004 0.022369
0.014221 0.820892 0.008759
0.039307 0.827087 0.008484
0.103821 0.834778 0.009033
0.204803 0.840881 0.010406
0.333893 0.845612 0.011566
0.556274 0.849152 0.012573
0.659271 0.851349 0.013428
0.797729 0.840271 0.045532
0.060791 0.050354 0.134094
0.072998 0.050354 0.134491
0.131348 0.049805 0.134766
0.224823 0.041748 0.127777
0.350433 0.029999 0.117340
0.563171 0.014465 0.103027
0.657562 0.000000 0.088806
0.791840 0.000000 0.076019
0.060760 0.061310 0.134674
0.072876 0.060730 0.134430
0.131683 0.060425 0.134888
0.225708 0.052307 0.128540
0.353210 0.040192 0.119781
0.567871 0.024078 0.107971
0.660034 0.009399 0.093750
0.798920 0.000000 0.080902
0.060638 0.120728 0.134613
0.073120 0.120361 0.134247
0.128937 0.117401 0.131470
0.223053 0.110199 0.124756
0.349152 0.099182 0.114960
0.563782 0.083649 0.102661
0.659668 0.067200 0.092194
0.794617 0.054474 0.089874
0.053345 0.215942 0.126556
0.067169 0.216034 0.126495
0.124023 0.214417 0.124359
0.224304 0.214783 0.124939
0.349976 0.206421 0.114929
0.563477 0.194824 0.101532
0.658264 0.183044 0.088593
0.794281 0.172363 0.078247
0.043457 0.339294 0.113678
0.059418 0.339813 0.114014
0.117554 0.338928 0.112610
0.218719 0.340088 0.113922
0.352234 0.340546 0.114655
0.564819 0.328979 0.100983
0.658630 0.317688 0.087555
0.794617 0.308075 0.076355
0.031464 0.554382 0.094147
0.050568 0.555237 0.094757
0.110992 0.555695 0.094635
0.212311 0.557770 0.096558
0.344330 0.559143 0.098022
0.567810 0.559784 0.098816
0.659973 0.547699 0.085114
0.794922 0.536499 0.077423
0.021271 0.659698 0.070923
0.043427 0.660217 0.071442
0.106445 0.661255 0.072845
0.207611 0.662781 0.075500
0.338104 0.663910 0.077454
0.561493 0.664825 0.078766
0.661957 0.665039 0.078735
0.794586 0.658813 0.084595
0.014008 0.824921 0.050629
0.037964 0.828278 0.049011
0.103455 0.833923 0.051758
0.204407 0.839905 0.054779
0.333374 0.844452 0.057281
0.555725 0.847992 0.059326
0.658966 0.850037 0.060822
0.792236 0.834229 0.116913
0.053833 0.042816 0.224365
0.067230 0.042450 0.228333
0.126434 0.042419 0.229248
0.225677 0.041687 0.229492
0.351105 0.029938 0.221344
0.563721 0.014435 0.210419
0.657806 0.000000 0.199432
0.792328 0.000000 0.189636
0.053589 0.052734 0.228271
0.067261 0.052399 0.228607
0.126862 0.052795 0.229797
0.226898 0.052094 0.230713
0.354492 0.039978 0.224274
0.568298 0.024139 0.214935
0.660278 0.009491 0.204163
0.799072 0.000000 0.194397
0.053772 0.112518 0.228394
0.067535 0.112427 0.228485
0.123749 0.110016 0.226837
0.223907 0.109863 0.227417
0.349915 0.099091 0.220032
0.564484 0.083618 0.210846
0.660004 0.067139 0.203522
0.794586 0.054993 0.201874
0.053894 0.215149 0.227966
0.068665 0.215332 0.228333
0.124908 0.213593 0.226562
0.219360 0.208679 0.221832
0.344269 0.200378 0.214142
0.557800 0.188690 0.203796
0.655365 0.176636 0.193970
0.785583 0.166138 0.186279
0.044006 0.338593 0.218384
0.060638 0.339233 0.218903
0.117920 0.337830 0.217560
0.213593 0.333618 0.213684
0.346252 0.334106 0.214539
0.559113 0.322632 0.204041
0.655640 0.311707 0.193634
0.785675 0.302155 0.185181
0.031891 0.553711 0.204529
0.051453 0.554596 0.205170
0.110229 0.553711 0.204468
0.206696 0.550293 0.201385
0.338104 0.551880 0.203003
0.561859 0.552490 0.203918
0.656738 0.539734 0.193481
0.785706 0.528229 0.187592
0.021454 0.659149 0.189636
0.043701 0.659668 0.190430
0.104034 0.659454 0.189972
0.201172 0.658478 0.188049
0.331085 0.659515 0.190155
0.554321 0.660339 0.191833
0.658203 0.660492 0.192505
0.785156 0.654846 0.195984
0.013123 0.823975 0.174896
0.037689 0.825623 0.175781
0.099365 0.825531 0.175568
0.197235 0.824341 0.174713
0.325745 0.828827 0.177277
0.547394 0.832245 0.179291
0.655060 0.834290 0.180603
0.782837 0.821716 0.222137
0.044769 0.032440 0.339050
0.059723 0.031708 0.348389
0.119507 0.030975 0.357117
0.219788 0.030853 0.358643
0.352539 0.029846 0.358978
0.564667 0.014343 0.346863
0.658203 0.000000 0.335449
0.793365 0.000000 0.325562
0.043915 0.039856 0.355347
0.060272 0.039917 0.356689
0.120911 0.040649 0.358826
0.221771 0.040833 0.361176
0.356689 0.039520 0.363464
0.569214 0.024109 0.352264
0.660706 0.009583 0.340729
0.799072 0.000000 0.330566
0.044067 0.099518 0.355103
0.059784 0.099823 0.355774
0.117340 0.098328 0.355042
0.218353 0.099304 0.356873
0.351715 0.098694 0.358154
0.565887 0.083374 0.348328
0.660797 0.066772 0.340942
0.794525 0.055878 0.337769
0.044617 0.205048 0.355286
0.061188 0.205688 0.356018
0.118134 0.204285 0.354706
0.213287 0.200012 0.350311
0.345581 0.199951 0.351135
0.558807 0.188507 0.340332
0.655853 0.176666 0.330536
0.785553 0.166779 0.322998
0.045349 0.337219 0.354645
0.063354 0.337921 0.355499
0.120850 0.336884 0.354553
0.214691 0.332397 0.349945
0.338379 0.324921 0.342316
0.550812 0.313965 0.331451
0.651764 0.303131 0.321106
0.773468 0.294220 0.313141
0.033264 0.552551 0.340668
0.053680 0.553558 0.341522
0.112732 0.552887 0.341003
0.207275 0.548615 0.337128
0.330292 0.541260 0.330872
0.553497 0.541931 0.332092
0.652710 0.528442 0.321594
0.773499 0.516846 0.315826
0.022644 0.658661 0.326630
0.045593 0.659180 0.327728
0.106018 0.659058 0.327454
0.201050 0.657288 0.324280
0.323120 0.654327 0.319000
0.545288 0.655182 0.320923
0.653992 0.655304 0.321686
0.772949 0.650299 0.324371
0.014221 0.822479 0.314026
0.039215 0.824066 0.314911
0.100861 0.824066 0.315002
0.196198 0.819336 0.312378
0.317535 0.811432 0.308014
0.537628 0.814758 0.310242
0.650848 0.816742 0.311676
0.770630 0.806152 0.353638
0.033234 0.018555 0.541687
0.050781 0.017578 0.554840
0.111267 0.016327 0.569763
0.212341 0.015717 0.576874
0.343872 0.015564 0.578369
0.566345 0.014191 0.578705
0.658905 0.000000 0.568878
0.795166 0.000000 0.559052
0.032471 0.022552 0.573822
0.053070 0.022980 0.575653
0.115570 0.023834 0.578308
0.216187 0.024384 0.580841
0.348846 0.024780 0.582733
0.570770 0.024017 0.583038
0.661438 0.009552 0.573700
0.799072 0.000000 0.563538
0.032288 0.081360 0.572693
0.051208 0.081909 0.573547
0.110840 0.081543 0.574127
0.211823 0.083313 0.576477
0.344177 0.084106 0.578735
0.568634 0.082397 0.581024
0.662567 0.065399 0.575714
0.794525 0.057434 0.567963
0.032745 0.190643 0.572632
0.052032 0.191467 0.573608
0.110382 0.190582 0.573059
0.206146 0.187347 0.570343
0.337433 0.188538 0.572327
0.561066 0.188110 0.573608
0.656769 0.176453 0.564606
0.785492 0.167725 0.555664
0.034058 0.323151 0.572906
0.054321 0.324005 0.573822
0.113129 0.323517 0.573425
0.207367 0.319824 0.570068
0.329895 0.313385 0.563873
0.552612 0.313354 0.564850
0.652405 0.302765 0.554291
0.773254 0.294922 0.544525
0.036041 0.550385 0.572266
0.058197 0.551392 0.573181
0.117523 0.551086 0.572968
0.210541 0.547363 0.569977
0.331787 0.539337 0.563446
0.542511 0.526886 0.553131
0.647919 0.512756 0.541168
0.758545 0.502136 0.533020
0.025330 0.657806 0.559570
0.049469 0.658325 0.560455
0.110291 0.658295 0.560638
0.204041 0.656769 0.557739
0.324066 0.653412 0.550842
0.533508 0.648865 0.540863
0.649048 0.649048 0.541931
0.758087 0.644928 0.542847
0.016754 0.820038 0.546326
0.042633 0.821655 0.547302
0.104645 0.821930 0.547546
0.198914 0.817749 0.544861
0.317993 0.807556 0.537842
0.525177 0.793945 0.527893
0.646057 0.795929 0.530060
0.755890 0.788086 0.573486
0.022705 0.005096 0.648346
0.042908 0.004028 0.654785
0.104706 0.002472 0.665039
0.205719 0.001251 0.674713
0.335815 0.000885 0.678192
0.558624 0.000793 0.679626
0.659821 0.000000 0.679688
0.797333 0.000000 0.672852
0.023529 0.008850 0.664093
0.046844 0.007843 0.671570
0.110809 0.007843 0.677979
0.210663 0.008942 0.680298
0.340820 0.009857 0.682098
0.563385 0.010559 0.683563
0.662384 0.009399 0.683563
0.799072 0.000000 0.674988
0.022339 0.062744 0.672974
0.044403 0.063446 0.673706
0.106445 0.064209 0.674927
0.207214 0.066681 0.677429
0.337769 0.068024 0.679871
0.563202 0.067535 0.683441
0.665161 0.062927 0.687958
0.794403 0.059113 0.675873
0.022461 0.175964 0.672516
0.044525 0.176666 0.673218
0.104309 0.176331 0.673187
0.200592 0.174194 0.672089
0.330139 0.176025 0.674011
0.553802 0.176941 0.676056
0.658051 0.175751 0.677185
0.785461 0.168915 0.669617
0.023712 0.309143 0.672729
0.046387 0.310150 0.673401
0.106506 0.309937 0.673431
0.200989 0.307007 0.671478
0.322388 0.301666 0.668030
0.544373 0.302979 0.669647
0.653442 0.302399 0.670197
0.773193 0.296021 0.663574
0.026245 0.534332 0.672913
0.050354 0.535522 0.673553
0.110901 0.535675 0.673676
0.204346 0.532257 0.671875
0.324158 0.524384 0.667877
0.532990 0.512268 0.662506
0.648590 0.511780 0.662842
0.758057 0.503510 0.657501
0.029022 0.656708 0.672211
0.054596 0.657166 0.672821
0.115692 0.657257 0.673004
0.208008 0.656006 0.671570
0.327179 0.652893 0.667847
0.534698 0.647949 0.661987
0.644745 0.643219 0.656616
0.744965 0.640350 0.654724
0.020233 0.816925 0.664825
0.047272 0.818542 0.665466
0.109558 0.819031 0.665741
0.202545 0.815399 0.664490
0.320862 0.806061 0.661316
0.526031 0.790649 0.656128
0.641815 0.777405 0.651672
0.743164 0.774658 0.670135
0.013916 0.000000 0.775513
0.036346 0.000000 0.795929
0.099487 0.000000 0.830780
0.200348 0.000000 0.867676
0.329498 0.000000 0.890350
0.550964 0.000000 0.895508
0.656433 0.000000 0.898926
0.799774 0.000000 0.898315
0.015503 0.000000 0.823120
0.040833 0.000000 0.846619
0.106293 0.000000 0.884491
0.206085 0.000000 0.894958
0.334259 0.000000 0.901459
0.556183 0.000000 0.906616
0.658875 0.000000 0.910034
0.799103 0.000000 0.899292
0.014862 0.045593 0.874878
0.039551 0.045990 0.877045
0.104004 0.047943 0.883057
0.204468 0.050903 0.891663
0.334076 0.052551 0.900757
0.559235 0.051819 0.913757
0.662628 0.050079 0.926727
0.794373 0.060944 0.896790
0.014313 0.162018 0.871246
0.038696 0.162842 0.873322
0.099792 0.162720 0.873810
0.196716 0.161682 0.873138
0.324921 0.164062 0.880188
0.546600 0.165497 0.887207
0.655212 0.165802 0.893860
0.785339 0.170319 0.881256
0.015320 0.296844 0.871368
0.040192 0.297699 0.873535
0.101379 0.297821 0.874054
0.196136 0.295502 0.869415
0.316589 0.291138 0.860870
0.536438 0.292786 0.866913
0.650482 0.293610 0.871704
0.773132 0.297272 0.861572
0.017822 0.518372 0.872314
0.043610 0.519440 0.874298
0.105347 0.519775 0.874939
0.199127 0.516846 0.870697
0.317841 0.509247 0.859680
0.524292 0.497742 0.843781
0.645721 0.499420 0.847900
0.757965 0.505646 0.838593
0.021271 0.650452 0.872314
0.048248 0.650970 0.874298
0.110352 0.651093 0.875122
0.203125 0.650116 0.871429
0.321228 0.647461 0.860809
0.526276 0.642944 0.842987
0.641663 0.638672 0.826630
0.744385 0.641174 0.821991
0.024170 0.813629 0.869781
0.052216 0.815155 0.871887
0.114716 0.815765 0.872833
0.206543 0.812805 0.869415
0.324097 0.804260 0.859558
0.529053 0.789581 0.842377
0.642029 0.774384 0.824066
0.733398 0.767303 0.835052
