custom_nodes/comfyui-vrgamedevgirl/LUTS/Dark_High_Contrast_Vivid_Magenta_Tint.cube
#Created by: Adobe Photoshop Export Color Lookup Plugin
#Copyright: (C) Copyright 2017 PremiumBeat
TITLE "Reykjavik"
#LUT size
LUT_3D_SIZE 8
#data domain
DOMAIN_MIN 0.0 0.0 0.0
DOMAIN_MAX 1.0 1.0 1.0
#LUT data points
0.007751 0.019318 0.022644
0.062531 0.019409 0.022705
0.146057 0.019592 0.022858
0.269470 0.019928 0.023071
0.449158 0.020447 0.023438
0.670593 0.021210 0.023987
0.846039 0.021881 0.024475
0.982483 0.022430 0.024902
0.008179 0.073364 0.022797
0.062988 0.073486 0.022888
0.146576 0.073700 0.023041
0.270050 0.074036 0.023285
0.449829 0.074615 0.023712
0.671387 0.075439 0.024292
0.846893 0.076141 0.024811
0.983368 0.076721 0.025208
0.008942 0.154663 0.023071
0.063812 0.154816 0.023193
0.147491 0.155060 0.023376
0.271057 0.155457 0.023651
0.450958 0.156097 0.024109
0.672638 0.156982 0.024750
0.848236 0.157715 0.025299
0.984741 0.158325 0.025726
0.010284 0.269348 0.023560
0.065216 0.269531 0.023712
0.148956 0.269836 0.023926
0.272644 0.270294 0.024231
0.452728 0.270996 0.024780
0.674530 0.271942 0.025452
0.850220 0.272736 0.026031
0.986755 0.273346 0.026489
0.012482 0.427856 0.024384
0.067474 0.428070 0.024536
0.151337 0.428406 0.024780
0.275146 0.428955 0.025177
0.455353 0.429718 0.025757
0.677277 0.430725 0.026489
0.853027 0.431549 0.027069
0.989594 0.432190 0.027527
0.015808 0.633270 0.025604
0.070862 0.633514 0.025787
0.154785 0.633881 0.026062
0.278687 0.634460 0.026489
0.458984 0.635284 0.027100
0.680939 0.636292 0.027832
0.856628 0.637085 0.028412
0.993134 0.637695 0.028839
0.019226 0.827393 0.026886
0.074280 0.827667 0.027069
0.158234 0.828033 0.027344
0.282135 0.828613 0.027771
0.462402 0.829437 0.028351
0.684235 0.830383 0.029053
0.859802 0.831116 0.029572
0.996155 0.831635 0.029938
0.022217 0.995331 0.027985
0.077271 0.995575 0.028168
0.161163 0.995941 0.028442
0.285034 0.996490 0.028809
0.465179 0.997253 0.029358
0.686798 0.998108 0.029999
0.862152 0.998718 0.030426
0.998291 0.999146 0.030731
0.007812 0.019348 0.077240
0.062622 0.019470 0.077301
0.146149 0.019653 0.077454
0.269562 0.019958 0.077667
0.449280 0.020508 0.078064
0.670746 0.021271 0.078613
0.846222 0.021942 0.079102
0.982635 0.022522 0.079529
0.008270 0.073395 0.077393
0.063080 0.073547 0.077484
0.146698 0.073761 0.077637
0.270172 0.074097 0.077911
0.449982 0.074677 0.078308
0.671539 0.075500 0.078918
0.847076 0.076202 0.079437
0.983521 0.076782 0.079834
0.009064 0.154724 0.077698
0.063934 0.154877 0.077789
0.147614 0.155121 0.077972
0.271179 0.155518 0.078278
0.451111 0.156189 0.078735
0.672821 0.157043 0.079376
0.848419 0.157806 0.079926
0.984924 0.158417 0.080353
0.010406 0.269409 0.078186
0.065338 0.269592 0.078308
0.149109 0.269897 0.078522
0.272797 0.270355 0.078857
0.452881 0.271088 0.079407
0.674713 0.272034 0.080078
0.850403 0.272827 0.080658
0.986938 0.273468 0.081116
0.012634 0.427948 0.079010
0.067627 0.428162 0.079163
0.151489 0.428497 0.079407
0.275330 0.429016 0.079803
0.455536 0.429810 0.080383
0.677490 0.430847 0.081116
0.853210 0.431641 0.081696
0.989777 0.432281 0.082153
0.015991 0.633362 0.080261
0.071045 0.633606 0.080444
0.154968 0.633972 0.080719
0.278870 0.634552 0.081116
0.459167 0.635376 0.081726
0.681122 0.636383 0.082458
0.856812 0.637177 0.083038
0.993317 0.637787 0.083466
0.019409 0.827515 0.081512
0.074463 0.827759 0.081696
0.158417 0.828156 0.081970
0.282318 0.828705 0.082397
0.462585 0.829529 0.082977
0.684418 0.830475 0.083679
0.859955 0.831207 0.084198
0.996277 0.831726 0.084564
0.022369 0.995422 0.082611
0.077423 0.995667 0.082794
0.161346 0.996033 0.083069
0.285187 0.996582 0.083466
0.465332 0.997314 0.083984
0.686951 0.998169 0.084625
0.862274 0.998779 0.085052
0.998413 0.999207 0.085358
0.007935 0.019409 0.160461
0.062744 0.019531 0.160553
0.146301 0.019714 0.160675
0.269745 0.020050 0.160919
0.449463 0.020599 0.161316
0.670959 0.021393 0.161896
0.846466 0.022064 0.162384
0.982880 0.022644 0.162781
0.008392 0.073486 0.160614
0.063232 0.073608 0.160736
0.146851 0.073822 0.160889
0.270355 0.074188 0.161163
0.450195 0.074799 0.161591
0.671783 0.075623 0.162170
0.847321 0.076355 0.162689
0.983795 0.076935 0.163116
0.009216 0.154785 0.160919
0.064087 0.154968 0.161041
0.147797 0.155212 0.161224
0.271393 0.155640 0.161530
0.451355 0.156281 0.162018
0.673065 0.157196 0.162659
0.848663 0.157928 0.163208
0.985199 0.158539 0.163635
0.010620 0.269531 0.161438
0.065552 0.269714 0.161591
0.149323 0.270020 0.161804
0.273041 0.270477 0.162140
0.453125 0.271210 0.162659
0.674988 0.272186 0.163361
0.850677 0.272980 0.163940
0.987213 0.273590 0.164398
0.012878 0.428070 0.162292
0.067871 0.428284 0.162445
0.151733 0.428619 0.162689
0.275574 0.429169 0.163086
0.455811 0.429962 0.163666
0.677765 0.430969 0.164398
0.853485 0.431793 0.164978
0.990051 0.432404 0.165436
0.016266 0.633484 0.163544
0.071320 0.633728 0.163727
0.155243 0.634125 0.164001
0.279144 0.634674 0.164398
0.459442 0.635529 0.165009
0.681396 0.636536 0.165741
0.857086 0.637329 0.166321
0.993561 0.637909 0.166748
0.019684 0.827637 0.164795
0.074768 0.827881 0.164978
0.158691 0.828278 0.165253
0.282593 0.828857 0.165680
0.462860 0.829651 0.166260
0.684662 0.830597 0.166962
0.860199 0.831299 0.167450
0.996490 0.831818 0.167816
0.022644 0.995544 0.165894
0.077698 0.995789 0.166077
0.161621 0.996155 0.166351
0.285461 0.996704 0.166718
0.465576 0.997437 0.167267
0.687164 0.998291 0.167877
0.862457 0.998871 0.168304
0.998596 0.999268 0.168610
0.008118 0.019501 0.283325
0.062927 0.019623 0.283417
0.146545 0.019836 0.283569
0.269989 0.020172 0.283813
0.449768 0.020752 0.284210
0.671295 0.021545 0.284790
0.846832 0.022247 0.285309
0.983276 0.022827 0.285736
0.008606 0.073578 0.283508
0.063477 0.073730 0.283600
0.147095 0.073975 0.283783
0.270630 0.074341 0.284058
0.450500 0.074951 0.284485
0.672119 0.075806 0.285095
0.847687 0.076538 0.285645
0.984192 0.077118 0.286072
0.009491 0.154938 0.283813
0.064362 0.155090 0.283936
0.148071 0.155365 0.284119
0.271698 0.155792 0.284454
0.451691 0.156464 0.284943
0.673431 0.157379 0.285583
0.849060 0.158142 0.286133
0.985596 0.158752 0.286591
0.010925 0.269684 0.284363
0.065857 0.269867 0.284485
0.149658 0.270172 0.284729
0.273376 0.270660 0.285065
0.453522 0.271423 0.285614
0.675385 0.272369 0.286316
0.851074 0.273163 0.286896
0.987640 0.273804 0.287354
0.013245 0.428253 0.285217
0.068237 0.428467 0.285370
0.152130 0.428833 0.285614
0.275970 0.429352 0.286011
0.456207 0.430176 0.286591
0.678162 0.431183 0.287354
0.853912 0.432007 0.287933
0.990448 0.432617 0.288391
0.016663 0.633698 0.286469
0.071716 0.633942 0.286652
0.155640 0.634308 0.286926
0.279572 0.634888 0.287354
0.459869 0.635742 0.287964
0.681793 0.636749 0.288696
0.857452 0.637512 0.289246
0.993927 0.638092 0.289673
0.020111 0.827850 0.287750
0.075165 0.828094 0.287933
0.159119 0.828491 0.288208
0.282990 0.829041 0.288605
0.463226 0.829865 0.289185
0.685028 0.830811 0.289886
0.860535 0.831482 0.290375
0.996826 0.831970 0.290741
0.023041 0.995758 0.288849
0.078094 0.996002 0.289001
0.162018 0.996368 0.289276
0.285828 0.996887 0.289673
0.465912 0.997620 0.290192
0.687469 0.998444 0.290771
0.862732 0.999023 0.291199
0.998840 0.999390 0.291473
0.008423 0.019653 0.462097
0.063263 0.019806 0.462189
0.146881 0.020020 0.462341
0.270386 0.020386 0.462616
0.450226 0.020966 0.463043
0.671814 0.021820 0.463654
0.847351 0.022522 0.464172
0.983826 0.023132 0.464600
0.008972 0.073761 0.462280
0.063812 0.073914 0.462402
0.147491 0.074158 0.462585
0.271057 0.074554 0.462860
0.450989 0.075195 0.463318
0.672668 0.076080 0.463959
0.848267 0.076813 0.464508
0.984772 0.077423 0.464935
0.009857 0.155121 0.462616
0.064789 0.155304 0.462738
0.148529 0.155579 0.462952
0.272186 0.156036 0.463287
0.452209 0.156738 0.463776
0.673981 0.157654 0.464447
0.849640 0.158447 0.465027
0.986176 0.159058 0.465454
0.011383 0.269897 0.463165
0.066345 0.270111 0.463318
0.150146 0.270447 0.463562
0.273926 0.270935 0.463928
0.454071 0.271698 0.464478
0.675964 0.272675 0.465179
0.851654 0.273468 0.465759
0.988220 0.274109 0.466217
0.013763 0.428528 0.464081
0.068787 0.428741 0.464233
0.152679 0.429108 0.464508
0.276550 0.429657 0.464905
0.456818 0.430481 0.465485
0.678772 0.431488 0.466217
0.854492 0.432312 0.466797
0.991028 0.432922 0.467255
0.017242 0.634003 0.465363
0.072296 0.634247 0.465546
0.156250 0.634644 0.465820
0.280151 0.635193 0.466217
0.460449 0.636017 0.466827
0.682373 0.637024 0.467560
0.858032 0.637817 0.468109
0.994476 0.638367 0.468536
0.020691 0.828156 0.466614
0.075775 0.828400 0.466797
0.159698 0.828796 0.467102
0.283569 0.829346 0.467499
0.463806 0.830139 0.468079
0.685547 0.831055 0.468719
0.860992 0.831726 0.469208
0.997284 0.832214 0.469574
0.023621 0.996033 0.467712
0.078674 0.996277 0.467896
0.162567 0.996643 0.468140
0.286377 0.997162 0.468536
0.466431 0.997864 0.469025
0.687927 0.998657 0.469604
0.863129 0.999207 0.470001
0.999176 0.999573 0.470276
0.008820 0.019867 0.682190
0.063690 0.020020 0.682312
0.147339 0.020264 0.682465
0.270905 0.020630 0.682770
0.450806 0.021271 0.683228
0.672455 0.022156 0.683838
0.848053 0.022888 0.684387
0.984528 0.023468 0.684814
0.009399 0.073975 0.682404
0.064301 0.074158 0.682526
0.148010 0.074432 0.682709
0.271606 0.074829 0.683014
0.451599 0.075500 0.683502
0.673309 0.076416 0.684174
0.848969 0.077179 0.684723
0.985474 0.077789 0.685150
0.010376 0.155396 0.682770
0.065308 0.155579 0.682892
0.149078 0.155884 0.683105
0.272797 0.156342 0.683472
0.452850 0.157074 0.683990
0.674683 0.158020 0.684662
0.850372 0.158813 0.685242
0.986908 0.159424 0.685699
0.011963 0.270203 0.683350
0.066956 0.270416 0.683502
0.150787 0.270752 0.683746
0.274567 0.271271 0.684113
0.454773 0.272034 0.684692
0.676666 0.273041 0.685394
0.852386 0.273865 0.686005
0.988953 0.274475 0.686462
0.014435 0.428864 0.684265
0.069489 0.429108 0.684448
0.153381 0.429474 0.684723
0.277252 0.430023 0.685120
0.457550 0.430847 0.685699
0.679504 0.431854 0.686462
0.855225 0.432678 0.687042
0.991760 0.433289 0.687500
0.017975 0.634369 0.685577
0.073029 0.634613 0.685760
0.156982 0.635010 0.686035
0.280914 0.635590 0.686462
0.461182 0.636414 0.687073
0.683075 0.637390 0.687775
0.858704 0.638153 0.688324
0.995117 0.638702 0.688721
0.021423 0.828522 0.686859
0.076477 0.828766 0.687042
0.160431 0.829163 0.687317
0.284302 0.829712 0.687714
0.464478 0.830475 0.688263
0.686157 0.831390 0.688934
0.861572 0.832031 0.689392
0.997772 0.832489 0.689728
0.024323 0.996399 0.687927
0.079346 0.996643 0.688110
0.163239 0.996979 0.688354
0.287018 0.997498 0.688721
0.467010 0.998169 0.689209
0.688416 0.998932 0.689758
0.863556 0.999420 0.690125
0.999542 0.999756 0.690369
0.009155 0.020050 0.856445
0.064056 0.020203 0.856567
0.147736 0.020447 0.856750
0.271332 0.020874 0.857056
0.451263 0.021515 0.857544
0.672974 0.022400 0.858185
0.848602 0.023163 0.858734
0.985107 0.023773 0.859161
0.009796 0.074188 0.856689
0.064697 0.074341 0.856812
0.148407 0.074646 0.857025
0.272064 0.075073 0.857330
0.452087 0.075775 0.857849
0.673859 0.076691 0.858521
0.849518 0.077454 0.859070
0.986053 0.078094 0.859528
0.010803 0.155609 0.857056
0.065765 0.155792 0.857208
0.149536 0.156128 0.857422
0.273285 0.156586 0.857788
0.453400 0.157349 0.858307
0.675232 0.158295 0.859009
0.850952 0.159088 0.859589
0.987488 0.159729 0.860046
0.012451 0.270447 0.857666
0.067444 0.270691 0.857819
0.151306 0.271027 0.858093
0.275116 0.271545 0.858459
0.455322 0.272339 0.859039
0.677246 0.273346 0.859772
0.852997 0.274139 0.860352
0.989563 0.274780 0.860809
0.014984 0.429138 0.858612
0.070038 0.429382 0.858795
0.153931 0.429749 0.859070
0.277832 0.430298 0.859467
0.458130 0.431152 0.860077
0.680084 0.432159 0.860809
0.855804 0.432953 0.861389
0.992310 0.433563 0.861816
0.018555 0.634644 0.859924
0.073639 0.634918 0.860107
0.157562 0.635315 0.860413
0.281494 0.635864 0.860809
0.461761 0.636688 0.861420
0.683624 0.637665 0.862122
0.859222 0.638397 0.862640
0.995605 0.638947 0.863037
0.022003 0.828827 0.861206
0.077057 0.829071 0.861389
0.160980 0.829437 0.861664
0.284851 0.829987 0.862061
0.464996 0.830750 0.862610
0.686646 0.831635 0.863251
0.862000 0.832245 0.863678
0.998169 0.832672 0.864014
0.024872 0.996674 0.862274
0.079895 0.996918 0.862427
0.163757 0.997253 0.862671
0.287506 0.997742 0.863037
0.467468 0.998413 0.863525
0.688812 0.999115 0.864044
0.863892 0.999603 0.864380
0.999817 0.999908 0.864594
0.009460 0.020172 0.991882
0.064331 0.020355 0.992004
0.148041 0.020599 0.992218
0.271667 0.021027 0.992523
0.451660 0.021698 0.993011
0.673401 0.022614 0.993652
0.849030 0.023376 0.994202
0.985535 0.023987 0.994659
0.010101 0.074341 0.992126
0.065002 0.074524 0.992249
0.148773 0.074799 0.992462
0.272430 0.075256 0.992798
0.452484 0.075958 0.993317
0.674286 0.076904 0.993988
0.849945 0.077698 0.994568
0.986511 0.078308 0.994995
0.011169 0.155792 0.992523
0.066132 0.155975 0.992676
0.149902 0.156311 0.992889
0.273682 0.156799 0.993256
0.453796 0.157562 0.993805
0.675690 0.158539 0.994507
0.851379 0.159332 0.995087
0.987946 0.159943 0.995544
0.012848 0.270660 0.993134
0.067841 0.270874 0.993317
0.151703 0.271240 0.993561
0.275543 0.271759 0.993958
0.455750 0.272552 0.994507
0.677704 0.273560 0.995270
0.853455 0.274384 0.995850
0.989990 0.275024 0.996307
0.015411 0.429352 0.994110
0.070465 0.429596 0.994263
0.154388 0.429962 0.994537
0.278290 0.430542 0.994965
0.458557 0.431366 0.995544
0.680542 0.432404 0.996307
0.856232 0.433197 0.996887
0.992737 0.433807 0.997314
0.019012 0.634888 0.995422
0.074066 0.635132 0.995605
0.158020 0.635529 0.995880
0.281921 0.636108 0.996307
0.462189 0.636932 0.996887
0.684052 0.637878 0.997589
0.859619 0.638611 0.998138
0.995972 0.639130 0.998505
0.022461 0.829041 0.996704
0.077515 0.829285 0.996887
0.161407 0.829681 0.997162
0.285278 0.830200 0.997528
0.465393 0.830963 0.998077
0.687012 0.831818 0.998688
0.862335 0.832397 0.999115
0.998474 0.832825 0.999420
0.025269 0.996887 0.997742
0.080292 0.997101 0.997894
0.164154 0.997467 0.998169
0.287872 0.997925 0.998505
0.467804 0.998566 0.998962
0.689087 0.999268 0.999481
0.864105 0.999725 0.999786
1.000000 1.000000 1.000000
