custom_nodes/comfyui-vrgamedevgirl/LUTS/Dark_High_Contrast_Vivid_Magenta_Tint.cube
#Created by: Adobe Photoshop Export Color Lookup Plugin
#Copyright: (C) Copyright 2017 PremiumBeat
TITLE "Reykjavik"
#LUT size
LUT_3D_SIZE 64
#data domain
DOMAIN_MIN 0.0 0.0 0.0
DOMAIN_MAX 1.0 1.0 1.0
#LUT data points
0.007751 0.019318 0.022644
0.012543 0.019318 0.022644
0.017670 0.019318 0.022644
0.023132 0.019348 0.022644
0.028870 0.019348 0.022675
0.034973 0.019379 0.022675
0.041351 0.019379 0.022675
0.048065 0.019379 0.022705
0.055145 0.019409 0.022705
0.062531 0.019409 0.022705
0.070282 0.019440 0.022736
0.078369 0.019440 0.022736
0.086853 0.019470 0.022736
0.095673 0.019501 0.022766
0.104950 0.019501 0.022766
0.114563 0.019531 0.022797
0.124634 0.019562 0.022797
0.135132 0.019592 0.022827
0.146057 0.019592 0.022858
0.157501 0.019623 0.022858
0.169434 0.019653 0.022888
0.181885 0.019684 0.022919
0.194916 0.019714 0.022919
0.208496 0.019745 0.022949
0.222717 0.019775 0.022980
0.237610 0.019836 0.023010
0.253174 0.019867 0.023041
0.269470 0.019928 0.023071
0.286530 0.019958 0.023102
0.304260 0.020020 0.023132
0.322693 0.020050 0.023163
0.341827 0.020111 0.023224
0.361664 0.020172 0.023254
0.382263 0.020233 0.023315
0.403748 0.020294 0.023346
0.426025 0.020355 0.023407
0.449158 0.020447 0.023438
0.473053 0.020508 0.023499
0.497772 0.020599 0.023560
0.523254 0.020691 0.023621
0.548889 0.020752 0.023682
0.574219 0.020844 0.023743
0.599091 0.020935 0.023804
0.623505 0.021027 0.023865
0.647339 0.021118 0.023926
0.670593 0.021210 0.023987
0.693176 0.021271 0.024048
0.715057 0.021362 0.024109
0.736206 0.021454 0.024170
0.756500 0.021515 0.024231
0.776031 0.021606 0.024292
0.794647 0.021667 0.024323
0.812469 0.021729 0.024384
0.829620 0.021790 0.024445
0.846039 0.021881 0.024475
0.861938 0.021942 0.024536
0.877350 0.022003 0.024567
0.892365 0.022064 0.024628
0.907104 0.022125 0.024658
0.921600 0.022186 0.024719
0.936096 0.022217 0.024750
0.950714 0.022278 0.024780
0.965851 0.022369 0.024841
0.982483 0.022430 0.024902
0.007782 0.024048 0.022644
0.012604 0.024078 0.022644
0.017700 0.024078 0.022675
0.023163 0.024078 0.022675
0.028900 0.024109 0.022675
0.035004 0.024109 0.022675
0.041382 0.024139 0.022705
0.048126 0.024139 0.022705
0.055176 0.024170 0.022705
0.062561 0.024170 0.022736
0.070312 0.024200 0.022736
0.078430 0.024200 0.022736
0.086914 0.024231 0.022766
0.095734 0.024231 0.022766
0.104980 0.024261 0.022797
0.114594 0.024292 0.022797
0.124664 0.024292 0.022827
0.135193 0.024323 0.022858
0.146118 0.024353 0.022858
0.157532 0.024384 0.022888
0.169495 0.024414 0.022888
0.181915 0.024445 0.022919
0.194977 0.024475 0.022949
0.208557 0.024506 0.022980
0.222778 0.024536 0.023010
0.237671 0.024567 0.023010
0.253235 0.024628 0.023041
0.269501 0.024658 0.023071
0.286560 0.024719 0.023132
0.304321 0.024750 0.023163
0.322754 0.024811 0.023193
0.341888 0.024872 0.023224
0.361725 0.024933 0.023285
0.382324 0.024994 0.023315
0.403809 0.025055 0.023376
0.426086 0.025116 0.023407
0.449219 0.025208 0.023468
0.473114 0.025269 0.023529
0.497833 0.025360 0.023590
0.523315 0.025452 0.023651
0.548950 0.025543 0.023712
0.574280 0.025604 0.023773
0.599152 0.025696 0.023834
0.623566 0.025787 0.023895
0.647430 0.025879 0.023956
0.670654 0.025970 0.024017
0.693237 0.026031 0.024078
0.715118 0.026123 0.024139
0.736267 0.026215 0.024200
0.756592 0.026276 0.024261
0.776093 0.026367 0.024323
0.794708 0.026428 0.024353
0.812561 0.026489 0.024414
0.829681 0.026581 0.024475
0.846130 0.026642 0.024506
0.862000 0.026703 0.024567
0.877441 0.026764 0.024597
0.892426 0.026825 0.024658
0.907196 0.026886 0.024689
0.921692 0.026947 0.024719
0.936188 0.027008 0.024780
0.950775 0.027069 0.024811
0.965912 0.027130 0.024872
0.982544 0.027191 0.024933
0.007812 0.029114 0.022675
0.012634 0.029114 0.022675
0.017731 0.029114 0.022675
0.023193 0.029144 0.022675
0.028961 0.029144 0.022705
0.035034 0.029144 0.022705
0.041412 0.029175 0.022705
0.048157 0.029175 0.022705
0.055206 0.029205 0.022736
0.062622 0.029205 0.022736
0.070343 0.029236 0.022766
0.078461 0.029236 0.022766
0.086945 0.029266 0.022766
0.095764 0.029297 0.022797
0.105042 0.029297 0.022797
0.114655 0.029327 0.022827
0.124725 0.029358 0.022827
0.135223 0.029388 0.022858
0.146149 0.029388 0.022888
0.157593 0.029419 0.022888
0.169525 0.029449 0.022919
0.181976 0.029480 0.022949
0.195007 0.029510 0.022949
0.208588 0.029572 0.022980
0.222839 0.029602 0.023010
0.237701 0.029633 0.023041
0.253296 0.029663 0.023071
0.269562 0.029724 0.023102
0.286621 0.029755 0.023132
0.304382 0.029816 0.023163
0.322815 0.029877 0.023224
0.341949 0.029938 0.023254
0.361786 0.029968 0.023285
0.382385 0.030060 0.023346
0.403870 0.030121 0.023376
0.426147 0.030182 0.023438
0.449280 0.030243 0.023499
0.473175 0.030334 0.023560
0.497894 0.030426 0.023621
0.523407 0.030487 0.023682
0.549011 0.030579 0.023743
0.574341 0.030670 0.023804
0.599213 0.030762 0.023865
0.623627 0.030853 0.023926
0.647491 0.030945 0.023987
0.670746 0.031036 0.024048
0.693298 0.031097 0.024109
0.715210 0.031189 0.024170
0.736328 0.031281 0.024231
0.756653 0.031342 0.024292
0.776154 0.031433 0.024353
0.794800 0.031494 0.024384
0.812622 0.031555 0.024445
0.829773 0.031647 0.024506
0.846191 0.031708 0.024536
0.862091 0.031769 0.024597
0.877533 0.031830 0.024628
0.892517 0.031891 0.024689
0.907257 0.031952 0.024719
0.921783 0.032013 0.024780
0.936249 0.032074 0.024811
0.950867 0.032135 0.024841
0.966003 0.032196 0.024902
0.982635 0.032257 0.024933
0.007874 0.034515 0.022675
0.012665 0.034515 0.022675
0.017761 0.034515 0.022705
0.023224 0.034546 0.022705
0.028992 0.034546 0.022705
0.035065 0.034546 0.022705
0.041443 0.034576 0.022736
0.048187 0.034576 0.022736
0.055267 0.034607 0.022736
0.062653 0.034607 0.022766
0.070404 0.034637 0.022766
0.078491 0.034637 0.022797
0.087006 0.034668 0.022797
0.095825 0.034698 0.022797
0.105072 0.034698 0.022827
0.114685 0.034729 0.022858
0.124756 0.034760 0.022858
0.135284 0.034790 0.022888
0.146210 0.034821 0.022888
0.157654 0.034851 0.022919
0.169586 0.034851 0.022949
0.182037 0.034912 0.022949
0.195068 0.034943 0.022980
0.208649 0.034973 0.023010
0.222870 0.035004 0.023041
0.237762 0.035034 0.023071
0.253326 0.035095 0.023102
0.269623 0.035126 0.023132
0.286682 0.035187 0.023163
0.304443 0.035217 0.023193
0.322876 0.035278 0.023224
0.342010 0.035339 0.023285
0.361847 0.035400 0.023315
0.382446 0.035461 0.023376
0.403931 0.035522 0.023407
0.426208 0.035583 0.023468
0.449341 0.035675 0.023529
0.473236 0.035736 0.023590
0.497955 0.035828 0.023621
0.523468 0.035919 0.023682
0.549103 0.036011 0.023773
0.574432 0.036102 0.023834
0.599304 0.036194 0.023895
0.623718 0.036255 0.023956
0.647552 0.036346 0.024017
0.670807 0.036438 0.024078
0.693390 0.036530 0.024139
0.715271 0.036621 0.024200
0.736420 0.036682 0.024261
0.756744 0.036774 0.024323
0.776245 0.036835 0.024384
0.794861 0.036926 0.024414
0.812714 0.036987 0.024475
0.829834 0.037048 0.024536
0.846283 0.037109 0.024567
0.862183 0.037201 0.024628
0.877594 0.037262 0.024658
0.892609 0.037323 0.024719
0.907349 0.037384 0.024750
0.921844 0.037445 0.024811
0.936340 0.037476 0.024841
0.950958 0.037567 0.024872
0.966095 0.037628 0.024933
0.982727 0.037689 0.024994
0.007904 0.040161 0.022705
0.012726 0.040192 0.022705
0.017822 0.040192 0.022705
0.023285 0.040192 0.022705
0.029053 0.040222 0.022736
0.035126 0.040222 0.022736
0.041504 0.040253 0.022736
0.048248 0.040253 0.022766
0.055298 0.040283 0.022766
0.062683 0.040283 0.022766
0.070435 0.040314 0.022797
0.078552 0.040314 0.022797
0.087036 0.040344 0.022827
0.095856 0.040375 0.022827
0.105133 0.040375 0.022858
0.114746 0.040405 0.022858
0.124817 0.040436 0.022888
0.135315 0.040466 0.022888
0.146271 0.040497 0.022919
0.157684 0.040497 0.022949
0.169647 0.040527 0.022949
0.182098 0.040558 0.022980
0.195129 0.040619 0.023010
0.208710 0.040649 0.023041
0.222931 0.040680 0.023071
0.237823 0.040710 0.023071
0.253387 0.040771 0.023132
0.269684 0.040802 0.023163
0.286743 0.040863 0.023193
0.304504 0.040894 0.023224
0.322937 0.040955 0.023254
0.342072 0.041016 0.023315
0.361908 0.041077 0.023346
0.382507 0.041138 0.023376
0.403992 0.041199 0.023438
0.426270 0.041290 0.023499
0.449432 0.041351 0.023560
0.473297 0.041443 0.023590
0.498047 0.041504 0.023651
0.523529 0.041595 0.023712
0.549164 0.041687 0.023804
0.574493 0.041779 0.023865
0.599396 0.041870 0.023926
0.623810 0.041962 0.023987
0.647644 0.042053 0.024048
0.670898 0.042114 0.024109
0.693481 0.042206 0.024170
0.715363 0.042297 0.024231
0.736511 0.042389 0.024292
0.756836 0.042450 0.024353
0.776337 0.042542 0.024414
0.794952 0.042603 0.024445
0.812805 0.042694 0.024506
0.829926 0.042755 0.024567
0.846375 0.042816 0.024597
0.862274 0.042877 0.024658
0.877686 0.042938 0.024689
0.892670 0.042999 0.024750
0.907440 0.043060 0.024780
0.921936 0.043121 0.024841
0.936432 0.043182 0.024872
0.951050 0.043243 0.024933
0.966187 0.043304 0.024963
0.982819 0.043365 0.025024
0.007965 0.046204 0.022705
0.012756 0.046204 0.022705
0.017853 0.046204 0.022736
0.023315 0.046234 0.022736
0.029083 0.046234 0.022736
0.035156 0.046265 0.022736
0.041565 0.046265 0.022766
0.048279 0.046295 0.022766
0.055359 0.046295 0.022797
0.062744 0.046326 0.022797
0.070496 0.046326 0.022797
0.078613 0.046356 0.022827
0.087097 0.046356 0.022827
0.095917 0.046387 0.022858
0.105194 0.046417 0.022858
0.114807 0.046448 0.022888
0.124878 0.046448 0.022888
0.135376 0.046478 0.022919
0.146332 0.046509 0.022949
0.157745 0.046539 0.022949
0.169708 0.046570 0.022980
0.182129 0.046600 0.023010
0.195190 0.046631 0.023041
0.208771 0.046661 0.023041
0.222992 0.046722 0.023071
0.237885 0.046753 0.023102
0.253448 0.046783 0.023132
0.269745 0.046844 0.023163
0.286804 0.046875 0.023224
0.304565 0.046936 0.023254
0.322998 0.046997 0.023285
0.342163 0.047058 0.023315
0.361969 0.047119 0.023376
0.382599 0.047180 0.023407
0.404083 0.047241 0.023468
0.426361 0.047302 0.023529
0.449493 0.047394 0.023560
0.473389 0.047455 0.023621
0.498108 0.047546 0.023682
0.523621 0.047638 0.023743
0.549255 0.047729 0.023834
0.574585 0.047821 0.023895
0.599457 0.047913 0.023956
0.623871 0.048004 0.024017
0.647736 0.048096 0.024078
0.670990 0.048187 0.024139
0.693542 0.048248 0.024200
0.715454 0.048340 0.024261
0.736603 0.048431 0.024323
0.756927 0.048492 0.024384
0.776428 0.048584 0.024445
0.795044 0.048645 0.024475
0.812897 0.048737 0.024536
0.830017 0.048798 0.024597
0.846466 0.048859 0.024628
0.862366 0.048920 0.024689
0.877777 0.048981 0.024719
0.892792 0.049042 0.024780
0.907532 0.049103 0.024811
0.922058 0.049164 0.024872
0.936523 0.049225 0.024902
0.951141 0.049286 0.024963
0.966278 0.049347 0.024994
0.982910 0.049438 0.025055
0.007996 0.052490 0.022736
0.012817 0.052490 0.022736
0.017914 0.052521 0.022736
0.023376 0.052521 0.022766
0.029144 0.052521 0.022766
0.035217 0.052551 0.022766
0.041595 0.052551 0.022766
0.048340 0.052582 0.022797
0.055420 0.052582 0.022797
0.062805 0.052612 0.022827
0.070557 0.052612 0.022827
0.078674 0.052643 0.022827
0.087158 0.052673 0.022858
0.095978 0.052673 0.022858
0.105225 0.052704 0.022888
0.114868 0.052734 0.022888
0.124939 0.052765 0.022919
0.135437 0.052795 0.022949
0.146362 0.052795 0.022949
0.157806 0.052826 0.022980
0.169769 0.052856 0.023010
0.182190 0.052887 0.023010
0.195251 0.052948 0.023041
0.208832 0.052979 0.023071
0.223053 0.053009 0.023102
0.237946 0.053040 0.023132
0.253540 0.053101 0.023163
0.269806 0.053131 0.023193
0.286896 0.053192 0.023224
0.304626 0.053253 0.023285
0.323059 0.053284 0.023315
0.342224 0.053345 0.023346
0.362061 0.053406 0.023407
0.382660 0.053467 0.023438
0.404144 0.053558 0.023499
0.426422 0.053619 0.023560
0.449585 0.053711 0.023590
0.473480 0.053772 0.023651
0.498199 0.053864 0.023712
0.523712 0.053955 0.023773
0.549316 0.054047 0.023865
0.574677 0.054138 0.023926
0.599548 0.054230 0.023987
0.623962 0.054321 0.024048
0.647827 0.054413 0.024109
0.671082 0.054474 0.024170
0.693665 0.054565 0.024231
0.715546 0.054657 0.024292
0.736694 0.054749 0.024353
0.757019 0.054810 0.024414
0.776520 0.054901 0.024475
0.795135 0.054962 0.024536
0.812988 0.055054 0.024567
0.830139 0.055115 0.024628
0.846588 0.055176 0.024689
0.862457 0.055237 0.024719
0.877899 0.055298 0.024780
0.892883 0.055359 0.024811
0.907623 0.055420 0.024872
0.922150 0.055481 0.024902
0.936646 0.055542 0.024933
0.951233 0.055603 0.024994
0.966370 0.055664 0.025024
0.983002 0.055756 0.025085
0.008057 0.059143 0.022736
0.012878 0.059143 0.022766
0.017975 0.059174 0.022766
0.023438 0.059174 0.022766
0.029205 0.059174 0.022766
0.035278 0.059204 0.022797
0.041656 0.059204 0.022797
0.048401 0.059235 0.022827
0.055481 0.059235 0.022827
0.062866 0.059265 0.022827
0.070618 0.059265 0.022858
0.078705 0.059296 0.022858
0.087219 0.059326 0.022888
0.096039 0.059326 0.022888
0.105286 0.059357 0.022919
0.114929 0.059387 0.022919
0.125000 0.059418 0.022949
0.135498 0.059448 0.022949
0.146454 0.059479 0.022980
0.157867 0.059479 0.023010
0.169830 0.059509 0.023041
0.182281 0.059570 0.023041
0.195312 0.059601 0.023071
0.208893 0.059631 0.023102
0.223145 0.059662 0.023132
0.238037 0.059723 0.023163
0.253601 0.059753 0.023193
0.269897 0.059784 0.023224
0.286957 0.059845 0.023254
0.304718 0.059906 0.023315
0.323151 0.059967 0.023346
0.342285 0.060028 0.023376
0.362152 0.060089 0.023438
0.382751 0.060150 0.023468
0.404236 0.060211 0.023529
0.426514 0.060272 0.023590
0.449646 0.060364 0.023621
0.473541 0.060455 0.023682
0.498291 0.060516 0.023743
0.523804 0.060608 0.023834
0.549438 0.060699 0.023895
0.574768 0.060791 0.023956
0.599640 0.060883 0.024017
0.624054 0.060974 0.024078
0.647919 0.061066 0.024139
0.671173 0.061157 0.024200
0.693756 0.061249 0.024261
0.715637 0.061340 0.024323
0.736786 0.061401 0.024384
0.757111 0.061493 0.024445
0.776611 0.061584 0.024506
0.795258 0.061646 0.024567
0.813080 0.061707 0.024628
0.830231 0.061798 0.024658
0.846680 0.061859 0.024719
0.862549 0.061920 0.024750
0.877991 0.061981 0.024811
0.892975 0.062042 0.024841
0.907745 0.062103 0.024902
0.922241 0.062164 0.024933
0.936737 0.062225 0.024994
0.951355 0.062286 0.025024
0.966492 0.062347 0.025085
0.983124 0.062439 0.025116
0.008118 0.066071 0.022766
0.012909 0.066071 0.022766
0.018036 0.066071 0.022797
0.023499 0.066101 0.022797
0.029266 0.066101 0.022797
0.035339 0.066132 0.022827
0.041718 0.066132 0.022827
0.048462 0.066132 0.022827
0.055542 0.066162 0.022858
0.062927 0.066193 0.022858
0.070679 0.066193 0.022858
0.078766 0.066223 0.022888
0.087280 0.066223 0.022888
0.096100 0.066254 0.022919
0.105377 0.066284 0.022919
0.114990 0.066315 0.022949
0.125061 0.066345 0.022980
0.135590 0.066345 0.022980
0.146515 0.066376 0.023010
0.157959 0.066406 0.023041
0.169891 0.066437 0.023041
0.182343 0.066467 0.023071
0.195404 0.066528 0.023102
0.208984 0.066559 0.023132
0.223206 0.066589 0.023163
0.238098 0.066620 0.023193
0.253693 0.066681 0.023224
0.269989 0.066742 0.023254
0.287048 0.066772 0.023285
0.304779 0.066833 0.023346
0.323242 0.066895 0.023376
0.342377 0.066956 0.023407
0.362213 0.067017 0.023468
0.382843 0.067078 0.023499
0.404327 0.067139 0.023560
0.426605 0.067230 0.023621
0.449738 0.067291 0.023682
0.473633 0.067383 0.023712
0.498383 0.067474 0.023804
0.523895 0.067566 0.023865
0.549530 0.067657 0.023926
0.574860 0.067749 0.023987
0.599731 0.067841 0.024048
0.624176 0.067932 0.024109
0.648010 0.068024 0.024170
0.671265 0.068085 0.024261
0.693848 0.068176 0.024323
0.715759 0.068268 0.024384
0.736908 0.068359 0.024445
0.757233 0.068451 0.024506
0.776733 0.068512 0.024536
0.795349 0.068604 0.024597
0.813202 0.068665 0.024658
0.830353 0.068726 0.024719
0.846771 0.068787 0.024750
0.862671 0.068878 0.024811
0.878113 0.068939 0.024841
0.893097 0.069000 0.024902
0.907867 0.069061 0.024933
0.922363 0.069122 0.024994
0.936859 0.069183 0.025024
0.951477 0.069244 0.025085
0.966614 0.069305 0.025116
0.983246 0.069366 0.025177
0.008179 0.073364 0.022797
0.012970 0.073364 0.022797
0.018097 0.073395 0.022797
0.023560 0.073395 0.022827
0.029327 0.073395 0.022827
0.035400 0.073425 0.022827
0.041779 0.073425 0.022858
0.048523 0.073456 0.022858
0.055603 0.073456 0.022858
0.062988 0.073486 0.022888
0.070740 0.073517 0.022888
0.078857 0.073517 0.022919
0.087341 0.073547 0.022919
0.096161 0.073578 0.022949
0.105438 0.073578 0.022949
0.115051 0.073608 0.022980
0.125122 0.073639 0.022980
0.135651 0.073669 0.023010
0.146576 0.073700 0.023041
0.158020 0.073730 0.023071
0.169983 0.073761 0.023071
0.182434 0.073792 0.023102
0.195465 0.073822 0.023132
0.209045 0.073853 0.023163
0.223297 0.073914 0.023193
0.238190 0.073944 0.023224
0.253754 0.074005 0.023254
0.270050 0.074036 0.023285
0.287109 0.074097 0.023315
0.304871 0.074158 0.023376
0.323303 0.074219 0.023407
0.342468 0.074249 0.023438
0.362305 0.074341 0.023499
0.382935 0.074402 0.023529
0.404419 0.074463 0.023590
0.426697 0.074524 0.023651
0.449829 0.074615 0.023712
0.473755 0.074707 0.023773
0.498474 0.074799 0.023834
0.523987 0.074890 0.023895
0.549622 0.074982 0.023956
0.574951 0.075073 0.024017
0.599854 0.075165 0.024078
0.624268 0.075256 0.024170
0.648132 0.075348 0.024231
0.671387 0.075439 0.024292
0.693970 0.075500 0.024353
0.715851 0.075592 0.024414
0.737000 0.075684 0.024475
0.757324 0.075775 0.024536
0.776855 0.075836 0.024597
0.795471 0.075928 0.024658
0.813324 0.075989 0.024689
0.830444 0.076050 0.024750
0.846893 0.076141 0.024811
0.862793 0.076202 0.024841
0.878235 0.076263 0.024902
0.893219 0.076324 0.024933
0.907959 0.076385 0.024994
0.922485 0.076447 0.025024
0.936981 0.076508 0.025085
0.951569 0.076569 0.025116
0.966736 0.076630 0.025177
0.983368 0.076721 0.025208
0.008240 0.080963 0.022827
0.013062 0.080963 0.022827
0.018158 0.080994 0.022827
0.023621 0.080994 0.022858
0.029388 0.080994 0.022858
0.035461 0.081024 0.022858
0.041870 0.081024 0.022888
0.048584 0.081055 0.022888
0.055664 0.081085 0.022888
0.063049 0.081085 0.022919
0.070801 0.081116 0.022919
0.078918 0.081116 0.022949
0.087402 0.081146 0.022949
0.096252 0.081177 0.022980
0.105499 0.081207 0.022980
0.115143 0.081207 0.023010
0.125214 0.081238 0.023010
0.135712 0.081268 0.023041
0.146667 0.081299 0.023071
0.158112 0.081329 0.023071
0.170044 0.081360 0.023102
0.182495 0.081390 0.023132
0.195557 0.081451 0.023163
0.209137 0.081482 0.023193
0.223389 0.081512 0.023224
0.238281 0.081573 0.023254
0.253845 0.081604 0.023285
0.270142 0.081665 0.023315
0.287201 0.081696 0.023346
0.304962 0.081757 0.023407
0.323395 0.081818 0.023438
0.342560 0.081879 0.023468
0.362396 0.081940 0.023529
0.383026 0.082001 0.023590
0.404510 0.082092 0.023621
0.426788 0.082153 0.023682
0.449951 0.082245 0.023743
0.473846 0.082306 0.023804
0.498596 0.082397 0.023865
0.524109 0.082489 0.023926
0.549713 0.082581 0.023987
0.575073 0.082672 0.024078
0.599945 0.082764 0.024139
0.624390 0.082855 0.024200
0.648224 0.082947 0.024261
0.671509 0.083038 0.024323
0.694092 0.083130 0.024384
0.715973 0.083221 0.024445
0.737122 0.083313 0.024506
0.757446 0.083405 0.024567
0.776978 0.083466 0.024628
0.795593 0.083557 0.024689
0.813446 0.083618 0.024750
0.830566 0.083679 0.024811
0.847015 0.083771 0.024841
0.862915 0.083832 0.024902
0.878357 0.083893 0.024933
0.893341 0.083954 0.024994
0.908112 0.084015 0.025024
0.922607 0.084076 0.025085
0.937103 0.084137 0.025116
0.951721 0.084198 0.025177
0.966858 0.084259 0.025208
0.983490 0.084351 0.025269
0.008301 0.088959 0.022858
0.013123 0.088959 0.022858
0.018219 0.088959 0.022858
0.023682 0.088989 0.022858
0.029449 0.088989 0.022888
0.035553 0.089020 0.022888
0.041931 0.089020 0.022888
0.048676 0.089050 0.022919
0.055725 0.089050 0.022919
0.063141 0.089081 0.022949
0.070892 0.089111 0.022949
0.079010 0.089111 0.022980
0.087494 0.089142 0.022980
0.096313 0.089172 0.023010
0.105591 0.089172 0.023010
0.115204 0.089203 0.023041
0.125305 0.089233 0.023041
0.135803 0.089264 0.023071
0.146759 0.089294 0.023102
0.158173 0.089325 0.023132
0.170135 0.089355 0.023132
0.182587 0.089386 0.023163
0.195648 0.089417 0.023193
0.209229 0.089478 0.023224
0.223480 0.089508 0.023254
0.238373 0.089569 0.023285
0.253937 0.089600 0.023315
0.270233 0.089661 0.023346
0.287292 0.089691 0.023376
0.305054 0.089752 0.023438
0.323517 0.089813 0.023468
0.342651 0.089874 0.023529
0.362518 0.089935 0.023560
0.383118 0.090027 0.023621
0.404602 0.090088 0.023682
0.426910 0.090149 0.023712
0.450043 0.090240 0.023773
0.473938 0.090332 0.023834
0.498688 0.090424 0.023895
0.524200 0.090515 0.023987
0.549835 0.090607 0.024048
0.575195 0.090698 0.024109
0.600067 0.090790 0.024170
0.624512 0.090881 0.024231
0.648346 0.090973 0.024323
0.671631 0.091064 0.024384
0.694214 0.091156 0.024445
0.716095 0.091248 0.024506
0.737244 0.091339 0.024567
0.757568 0.091400 0.024628
0.777100 0.091492 0.024689
0.795715 0.091553 0.024750
0.813568 0.091644 0.024780
0.830688 0.091705 0.024841
0.847168 0.091766 0.024902
0.863037 0.091858 0.024933
0.878479 0.091919 0.024994
0.893463 0.091980 0.025024
0.908234 0.092041 0.025085
0.922760 0.092102 0.025116
0.937225 0.092163 0.025177
0.951843 0.092224 0.025208
0.966980 0.092285 0.025269
0.983612 0.092346 0.025330
0.008392 0.097229 0.022858
0.013184 0.097260 0.022888
0.018311 0.097260 0.022888
0.023773 0.097260 0.022888
0.029541 0.097290 0.022919
0.035614 0.097290 0.022919
0.041992 0.097321 0.022919
0.048737 0.097321 0.022949
0.055817 0.097351 0.022949
0.063202 0.097382 0.022980
0.070984 0.097382 0.022980
0.079071 0.097412 0.023010
0.087585 0.097443 0.023010
0.096405 0.097443 0.023041
0.105682 0.097473 0.023041
0.115295 0.097504 0.023071
0.125366 0.097534 0.023071
0.135895 0.097565 0.023102
0.146820 0.097595 0.023132
0.158264 0.097626 0.023163
0.170227 0.097656 0.023163
0.182678 0.097687 0.023193
0.195740 0.097717 0.023224
0.209320 0.097778 0.023254
0.223572 0.097809 0.023285
0.238464 0.097839 0.023315
0.254028 0.097900 0.023346
0.270325 0.097961 0.023376
0.287415 0.097992 0.023438
0.305176 0.098053 0.023468
0.323608 0.098114 0.023499
0.342773 0.098175 0.023560
0.362610 0.098236 0.023590
0.383240 0.098328 0.023651
0.404724 0.098389 0.023712
0.427002 0.098480 0.023773
0.450165 0.098541 0.023834
0.474060 0.098633 0.023895
0.498810 0.098724 0.023956
0.524323 0.098816 0.024017
0.549957 0.098907 0.024078
0.575287 0.098999 0.024139
0.600189 0.099091 0.024231
0.624603 0.099182 0.024292
0.648468 0.099274 0.024353
0.671753 0.099365 0.024414
0.694336 0.099457 0.024475
0.716217 0.099548 0.024567
0.737366 0.099640 0.024597
0.757690 0.099731 0.024658
0.777222 0.099792 0.024719
0.795837 0.099884 0.024780
0.813690 0.099945 0.024841
0.830841 0.100037 0.024902
0.847290 0.100098 0.024933
0.863190 0.100159 0.024994
0.878601 0.100220 0.025024
0.893616 0.100281 0.025085
0.908356 0.100342 0.025116
0.922882 0.100403 0.025177
0.937378 0.100464 0.025208
0.951965 0.100525 0.025269
0.967133 0.100616 0.025299
0.983765 0.100677 0.025360
0.008453 0.105865 0.022888
0.013275 0.105896 0.022919
0.018372 0.105896 0.022919
0.023834 0.105927 0.022919
0.029602 0.105927 0.022949
0.035706 0.105957 0.022949
0.042084 0.105957 0.022949
0.048828 0.105988 0.022980
0.055908 0.105988 0.022980
0.063293 0.106018 0.023010
0.071045 0.106018 0.023010
0.079163 0.106049 0.023041
0.087677 0.106079 0.023041
0.096497 0.106110 0.023071
0.105774 0.106110 0.023071
0.115387 0.106140 0.023102
0.125458 0.106171 0.023132
0.135986 0.106201 0.023132
0.146912 0.106232 0.023163
0.158356 0.106262 0.023193
0.170319 0.106293 0.023224
0.182770 0.106354 0.023224
0.195831 0.106384 0.023254
0.209412 0.106415 0.023285
0.223663 0.106476 0.023315
0.238556 0.106506 0.023346
0.254150 0.106567 0.023376
0.270447 0.106598 0.023438
0.287506 0.106659 0.023468
0.305267 0.106720 0.023499
0.323730 0.106781 0.023560
0.342865 0.106842 0.023590
0.362732 0.106903 0.023651
0.383362 0.106964 0.023682
0.404846 0.107056 0.023743
0.427124 0.107117 0.023804
0.450287 0.107208 0.023865
0.474182 0.107300 0.023926
0.498932 0.107391 0.023987
0.524445 0.107483 0.024048
0.550079 0.107574 0.024139
0.575439 0.107666 0.024200
0.600311 0.107758 0.024261
0.624756 0.107849 0.024323
0.648621 0.107941 0.024414
0.671875 0.108032 0.024475
0.694458 0.108124 0.024536
0.716370 0.108215 0.024597
