custom_nodes/comfyui-vrgamedevgirl/LUTS/Dark_Vivid_Cinematic.cube
#Created by: Adobe Photoshop Export Color Lookup Plugin
#Copyright: (C) Copyright 2017 PremiumBeat
TITLE "Loch Ness"
#LUT size
LUT_3D_SIZE 64
#data domain
DOMAIN_MIN 0.0 0.0 0.0
DOMAIN_MAX 1.0 1.0 1.0
#LUT data points
0.000000 0.000000 0.000000
0.000000 0.000000 0.000000
0.000000 0.000000 0.000000
0.000000 0.000000 0.000000
0.000000 0.000000 0.000000
0.000000 0.000000 0.000000
0.000000 0.000000 0.000000
0.000000 0.000000 0.000000
0.000000 0.000000 0.000000
0.000000 0.000000 0.000000
0.000000 0.000000 0.000000
0.000000 0.000000 0.000000
0.002533 0.000000 0.000000
0.019623 0.000000 0.000000
0.032074 0.000000 0.000000
0.044983 0.000000 0.000000
0.058289 0.000000 0.000000
0.071991 0.000000 0.000000
0.086151 0.000000 0.000000
0.100800 0.000000 0.000000
0.115845 0.000000 0.000000
0.131317 0.000000 0.000000
0.147278 0.000000 0.000000
0.163666 0.000000 0.000000
0.180450 0.000000 0.000000
0.197723 0.000000 0.000000
0.215485 0.000000 0.000000
0.233582 0.000000 0.000000
0.252228 0.000000 0.000000
0.271271 0.000000 0.000000
0.290741 0.000000 0.000000
0.310669 0.000000 0.000000
0.330994 0.000000 0.000000
0.351654 0.000000 0.000000
0.372711 0.000000 0.000000
0.393829 0.000000 0.000000
0.414581 0.000000 0.000000
0.434784 0.000000 0.000000
0.454620 0.000000 0.000000
0.473999 0.000000 0.000000
0.493073 0.000000 0.000000
0.511688 0.000000 0.000000
0.530029 0.000000 0.000000
0.547974 0.000000 0.000000
0.565674 0.000000 0.000000
0.583008 0.000000 0.000000
0.600098 0.000000 0.000000
0.616791 0.000000 0.000000
0.633301 0.000000 0.000000
0.649475 0.000000 0.000000
0.665436 0.000000 0.000000
0.681183 0.000000 0.000000
0.696686 0.000000 0.000000
0.712006 0.000000 0.000000
0.727020 0.000000 0.000000
0.741852 0.000000 0.000000
0.756500 0.000000 0.000000
0.769409 0.000000 0.000000
0.769409 0.000000 0.000000
0.769409 0.000000 0.000000
0.769409 0.000000 0.000000
0.769409 0.000000 0.000000
0.769409 0.000000 0.000000
0.769409 0.000000 0.000000
0.000000 0.000000 0.000000
0.000000 0.000000 0.000000
0.000000 0.000000 0.000000
0.000000 0.000000 0.000000
0.000000 0.000000 0.000000
0.000000 0.000000 0.000000
0.000000 0.000000 0.000000
0.000000 0.000000 0.000000
0.000000 0.000000 0.000000
0.000000 0.000000 0.000000
0.000000 0.000000 0.000000
0.000000 0.000000 0.000000
0.002533 0.000000 0.000000
0.019623 0.000000 0.000000
0.032074 0.000000 0.000000
0.044983 0.000000 0.000000
0.058289 0.000000 0.000000
0.071991 0.000000 0.000000
0.086151 0.000000 0.000000
0.100800 0.000000 0.000000
0.115845 0.000000 0.000000
0.131317 0.000000 0.000000
0.147278 0.000000 0.000000
0.163666 0.000000 0.000000
0.180450 0.000000 0.000000
0.197723 0.000000 0.000000
0.215485 0.000000 0.000000
0.233582 0.000000 0.000000
0.252228 0.000000 0.000000
0.271271 0.000000 0.000000
0.290741 0.000000 0.000000
0.310669 0.000000 0.000000
0.330994 0.000000 0.000000
0.351654 0.000000 0.000000
0.372711 0.000000 0.000000
0.393829 0.000000 0.000000
0.414581 0.000000 0.000000
0.434784 0.000000 0.000000
0.454620 0.000000 0.000000
0.473999 0.000000 0.000000
0.493073 0.000000 0.000000
0.511688 0.000000 0.000000
0.530029 0.000000 0.000000
0.547974 0.000000 0.000000
0.565674 0.000000 0.000000
0.583008 0.000000 0.000000
0.600098 0.000000 0.000000
0.616791 0.000000 0.000000
0.633301 0.000000 0.000000
0.649475 0.000000 0.000000
0.665436 0.000000 0.000000
0.681183 0.000000 0.000000
0.696686 0.000000 0.000000
0.712006 0.000000 0.000000
0.727020 0.000000 0.000000
0.741852 0.000000 0.000000
0.756500 0.000000 0.000000
0.769409 0.000000 0.000000
0.769409 0.000000 0.000000
0.769409 0.000000 0.000000
0.769409 0.000000 0.000000
0.769409 0.000000 0.000000
0.769409 0.000000 0.000000
0.769409 0.000000 0.000000
0.000000 0.000000 0.000000
0.000000 0.000000 0.000000
0.000000 0.000000 0.000000
0.000000 0.000000 0.000000
0.000000 0.000000 0.000000
0.000000 0.000000 0.000000
0.000000 0.000000 0.000000
0.000000 0.000000 0.000000
0.000000 0.000000 0.000000
0.000000 0.000000 0.000000
0.000000 0.000000 0.000000
0.000000 0.000000 0.000000
0.002533 0.000000 0.000000
0.019623 0.000000 0.000000
0.032074 0.000000 0.000000
0.044983 0.000000 0.000000
0.058289 0.000000 0.000000
0.071991 0.000000 0.000000
0.086151 0.000000 0.000000
0.100800 0.000000 0.000000
0.115845 0.000000 0.000000
0.131317 0.000000 0.000000
0.147278 0.000000 0.000000
0.163666 0.000000 0.000000
0.180450 0.000000 0.000000
0.197723 0.000000 0.000000
0.215485 0.000000 0.000000
0.233582 0.000000 0.000000
0.252228 0.000000 0.000000
0.271271 0.000000 0.000000
0.290741 0.000000 0.000000
0.310669 0.000000 0.000000
0.330994 0.000000 0.000000
0.351654 0.000000 0.000000
0.372711 0.000000 0.000000
0.393829 0.000000 0.000000
0.414581 0.000000 0.000000
0.434784 0.000000 0.000000
0.454620 0.000000 0.000000
0.473999 0.000000 0.000000
0.493073 0.000000 0.000000
0.511688 0.000000 0.000000
0.530029 0.000000 0.000000
0.547974 0.000000 0.000000
0.565674 0.000000 0.000000
0.583008 0.000000 0.000000
0.600098 0.000000 0.000000
0.616791 0.000000 0.000000
0.633301 0.000000 0.000000
0.649475 0.000000 0.000000
0.665436 0.000000 0.000000
0.681183 0.000000 0.000000
0.696686 0.000000 0.000000
0.712006 0.000000 0.000000
0.727020 0.000000 0.000000
0.741852 0.000000 0.000000
0.756500 0.000000 0.000000
0.769409 0.000000 0.000000
0.769409 0.000000 0.000000
0.769409 0.000000 0.000000
0.769409 0.000000 0.000000
0.769409 0.000000 0.000000
0.769409 0.000000 0.000000
0.769409 0.000000 0.000000
0.000000 0.000000 0.000000
0.000000 0.000000 0.000000
0.000000 0.000000 0.000000
0.000000 0.000000 0.000000
0.000000 0.000000 0.000000
0.000000 0.000000 0.000000
0.000000 0.000000 0.000000
0.000000 0.000000 0.000000
0.000000 0.000000 0.000000
0.000000 0.000000 0.000000
0.000000 0.000000 0.000000
0.000000 0.000000 0.000000
0.002533 0.000000 0.000000
0.019623 0.000000 0.000000
0.032074 0.000000 0.000000
0.044983 0.000000 0.000000
0.058289 0.000000 0.000000
0.071991 0.000000 0.000000
0.086151 0.000000 0.000000
0.100800 0.000000 0.000000
0.115845 0.000000 0.000000
0.131317 0.000000 0.000000
0.147278 0.000000 0.000000
0.163666 0.000000 0.000000
0.180450 0.000000 0.000000
0.197723 0.000000 0.000000
0.215485 0.000000 0.000000
0.233582 0.000000 0.000000
0.252228 0.000000 0.000000
0.271271 0.000000 0.000000
0.290741 0.000000 0.000000
0.310669 0.000000 0.000000
0.330994 0.000000 0.000000
0.351654 0.000000 0.000000
0.372711 0.000000 0.000000
0.393829 0.000000 0.000000
0.414581 0.000000 0.000000
0.434784 0.000000 0.000000
0.454620 0.000000 0.000000
0.473999 0.000000 0.000000
0.493073 0.000000 0.000000
0.511688 0.000000 0.000000
0.530029 0.000000 0.000000
0.547974 0.000000 0.000000
0.565674 0.000000 0.000000
0.583008 0.000000 0.000000
0.600098 0.000000 0.000000
0.616791 0.000000 0.000000
0.633301 0.000000 0.000000
0.649475 0.000000 0.000000
0.665436 0.000000 0.000000
0.681183 0.000000 0.000000
0.696686 0.000000 0.000000
0.712006 0.000000 0.000000
0.727020 0.000000 0.000000
0.741852 0.000000 0.000000
0.756500 0.000000 0.000000
0.769409 0.000000 0.000000
0.769409 0.000000 0.000000
0.769409 0.000000 0.000000
0.769409 0.000000 0.000000
0.769409 0.000000 0.000000
0.769409 0.000000 0.000000
0.769409 0.000000 0.000000
0.000000 0.000000 0.000000
0.000000 0.000000 0.000000
0.000000 0.000000 0.000000
0.000000 0.000000 0.000000
0.000000 0.000000 0.000000
0.000000 0.000000 0.000000
0.000000 0.000000 0.000000
0.000000 0.000000 0.000000
0.000000 0.000000 0.000000
0.000000 0.000000 0.000000
0.000000 0.000000 0.000000
0.000000 0.000000 0.000000
0.002533 0.000000 0.000000
0.019623 0.000000 0.000000
0.032074 0.000000 0.000000
0.044983 0.000000 0.000000
0.058289 0.000000 0.000000
0.071991 0.000000 0.000000
0.086151 0.000000 0.000000
0.100800 0.000000 0.000000
0.115845 0.000000 0.000000
0.131317 0.000000 0.000000
0.147278 0.000000 0.000000
0.163666 0.000000 0.000000
0.180450 0.000000 0.000000
0.197723 0.000000 0.000000
0.215485 0.000000 0.000000
0.233582 0.000000 0.000000
0.252228 0.000000 0.000000
0.271271 0.000000 0.000000
0.290741 0.000000 0.000000
0.310669 0.000000 0.000000
0.330994 0.000000 0.000000
0.351654 0.000000 0.000000
0.372711 0.000000 0.000000
0.393829 0.000000 0.000000
0.414581 0.000000 0.000000
0.434784 0.000000 0.000000
0.454620 0.000000 0.000000
0.473999 0.000000 0.000000
0.493073 0.000000 0.000000
0.511688 0.000000 0.000000
0.530029 0.000000 0.000000
0.547974 0.000000 0.000000
0.565674 0.000000 0.000000
0.583008 0.000000 0.000000
0.600098 0.000000 0.000000
0.616791 0.000000 0.000000
0.633301 0.000000 0.000000
0.649475 0.000000 0.000000
0.665436 0.000000 0.000000
0.681183 0.000000 0.000000
0.696686 0.000000 0.000000
0.712006 0.000000 0.000000
0.727020 0.000000 0.000000
0.741852 0.000000 0.000000
0.756500 0.000000 0.000000
0.769409 0.000000 0.000000
0.769409 0.000000 0.000000
0.769409 0.000000 0.000000
0.769409 0.000000 0.000000
0.769409 0.000000 0.000000
0.769409 0.000000 0.000000
0.769409 0.000000 0.000000
0.000000 0.000000 0.000000
0.000000 0.000000 0.000000
0.000000 0.000000 0.000000
0.000000 0.000000 0.000000
0.000000 0.000000 0.000000
0.000000 0.000000 0.000000
0.000000 0.000000 0.000000
0.000000 0.000000 0.000000
0.000000 0.000000 0.000000
0.000000 0.000000 0.000000
0.000000 0.000000 0.000000
0.000000 0.000000 0.000000
0.002533 0.000000 0.000000
0.019623 0.000000 0.000000
0.032074 0.000000 0.000000
0.044983 0.000000 0.000000
0.058289 0.000000 0.000000
0.071991 0.000000 0.000000
0.086151 0.000000 0.000000
0.100800 0.000000 0.000000
0.115845 0.000000 0.000000
0.131317 0.000000 0.000000
0.147278 0.000000 0.000000
0.163666 0.000000 0.000000
0.180450 0.000000 0.000000
0.197723 0.000000 0.000000
0.215485 0.000000 0.000000
0.233582 0.000000 0.000000
0.252228 0.000000 0.000000
0.271271 0.000000 0.000000
0.290741 0.000000 0.000000
0.310669 0.000000 0.000000
0.330994 0.000000 0.000000
0.351654 0.000000 0.000000
0.372711 0.000000 0.000000
0.393829 0.000000 0.000000
0.414581 0.000000 0.000000
0.434784 0.000000 0.000000
0.454620 0.000000 0.000000
0.473999 0.000000 0.000000
0.493073 0.000000 0.000000
0.511688 0.000000 0.000000
0.530029 0.000000 0.000000
0.547974 0.000000 0.000000
0.565674 0.000000 0.000000
0.583008 0.000000 0.000000
0.600098 0.000000 0.000000
0.616791 0.000000 0.000000
0.633301 0.000000 0.000000
0.649475 0.000000 0.000000
0.665436 0.000000 0.000000
0.681183 0.000000 0.000000
0.696686 0.000000 0.000000
0.712006 0.000000 0.000000
0.727020 0.000000 0.000000
0.741852 0.000000 0.000000
0.756500 0.000000 0.000000
0.769409 0.000000 0.000000
0.769409 0.000000 0.000000
0.769409 0.000000 0.000000
0.769409 0.000000 0.000000
0.769409 0.000000 0.000000
0.769409 0.000000 0.000000
0.769409 0.000000 0.000000
0.000000 0.000000 0.000000
0.000000 0.000000 0.000000
0.000000 0.000000 0.000000
0.000000 0.000000 0.000000
0.000000 0.000000 0.000000
0.000000 0.000000 0.000000
0.000000 0.000000 0.000000
0.000000 0.000000 0.000000
0.000000 0.000000 0.000000
0.000000 0.000000 0.000000
0.000000 0.000000 0.000000
0.000000 0.000000 0.000000
0.002533 0.000000 0.000000
0.019623 0.000000 0.000000
0.032074 0.000000 0.000000
0.044983 0.000000 0.000000
0.058289 0.000000 0.000000
0.071991 0.000000 0.000000
0.086151 0.000000 0.000000
0.100800 0.000000 0.000000
0.115845 0.000000 0.000000
0.131317 0.000000 0.000000
0.147278 0.000000 0.000000
0.163666 0.000000 0.000000
0.180450 0.000000 0.000000
0.197723 0.000000 0.000000
0.215485 0.000000 0.000000
0.233582 0.000000 0.000000
0.252228 0.000000 0.000000
0.271271 0.000000 0.000000
0.290741 0.000000 0.000000
0.310669 0.000000 0.000000
0.330994 0.000000 0.000000
0.351654 0.000000 0.000000
0.372711 0.000000 0.000000
0.393829 0.000000 0.000000
0.414581 0.000000 0.000000
0.434784 0.000000 0.000000
0.454620 0.000000 0.000000
0.473999 0.000000 0.000000
0.493073 0.000000 0.000000
0.511688 0.000000 0.000000
0.530029 0.000000 0.000000
0.547974 0.000000 0.000000
0.565674 0.000000 0.000000
0.583008 0.000000 0.000000
0.600098 0.000000 0.000000
0.616791 0.000000 0.000000
0.633301 0.000000 0.000000
0.649475 0.000000 0.000000
0.665436 0.000000 0.000000
0.681183 0.000000 0.000000
0.696686 0.000000 0.000000
0.712006 0.000000 0.000000
0.727020 0.000000 0.000000
0.741852 0.000000 0.000000
0.756500 0.000000 0.000000
0.769409 0.000000 0.000000
0.769409 0.000000 0.000000
0.769409 0.000000 0.000000
0.769409 0.000000 0.000000
0.769409 0.000000 0.000000
0.769409 0.000000 0.000000
0.769409 0.000000 0.000000
0.000000 0.000000 0.000000
0.000000 0.000000 0.000000
0.000000 0.000000 0.000000
0.000000 0.000000 0.000000
0.000000 0.000000 0.000000
0.000000 0.000000 0.000000
0.000000 0.000000 0.000000
0.000000 0.000000 0.000000
0.000000 0.000000 0.000000
0.000000 0.000000 0.000000
0.000000 0.000000 0.000000
0.000000 0.000000 0.000000
0.002533 0.000000 0.000000
0.019623 0.000000 0.000000
0.032074 0.000000 0.000000
0.044983 0.000000 0.000000
0.058289 0.000000 0.000000
0.071991 0.000000 0.000000
0.086151 0.000000 0.000000
0.100800 0.000000 0.000000
0.115845 0.000000 0.000000
0.131317 0.000000 0.000000
0.147278 0.000000 0.000000
0.163666 0.000000 0.000000
0.180450 0.000000 0.000000
0.197723 0.000000 0.000000
0.215485 0.000000 0.000000
0.233582 0.000000 0.000000
0.252228 0.000000 0.000000
0.271271 0.000000 0.000000
0.290741 0.000000 0.000000
0.310669 0.000000 0.000000
0.330994 0.000000 0.000000
0.351654 0.000000 0.000000
0.372711 0.000000 0.000000
0.393829 0.000000 0.000000
0.414581 0.000000 0.000000
0.434784 0.000000 0.000000
0.454620 0.000000 0.000000
0.473999 0.000000 0.000000
0.493073 0.000000 0.000000
0.511688 0.000000 0.000000
0.530029 0.000000 0.000000
0.547974 0.000000 0.000000
0.565674 0.000000 0.000000
0.583008 0.000000 0.000000
0.600098 0.000000 0.000000
0.616791 0.000000 0.000000
0.633301 0.000000 0.000000
0.649475 0.000000 0.000000
0.665436 0.000000 0.000000
0.681183 0.000000 0.000000
0.696686 0.000000 0.000000
0.712006 0.000000 0.000000
0.727020 0.000000 0.000000
0.741852 0.000000 0.000000
0.756500 0.000000 0.000000
0.769409 0.000000 0.000000
0.769409 0.000000 0.000000
0.769409 0.000000 0.000000
0.769409 0.000000 0.000000
0.769409 0.000000 0.000000
0.769409 0.000000 0.000000
0.769409 0.000000 0.000000
0.000000 0.000000 0.000000
0.000000 0.000000 0.000000
0.000000 0.000000 0.000000
0.000000 0.000000 0.000000
0.000000 0.000000 0.000000
0.000000 0.000000 0.000000
0.000000 0.000000 0.000000
0.000000 0.000000 0.000000
0.000000 0.000000 0.000000
0.000000 0.000000 0.000000
0.000000 0.000000 0.000000
0.000000 0.000000 0.000000
0.002533 0.000000 0.000000
0.019623 0.000000 0.000000
0.032074 0.000000 0.000000
0.044983 0.000000 0.000000
0.058289 0.000000 0.000000
0.071991 0.000000 0.000000
0.086151 0.000000 0.000000
0.100800 0.000000 0.000000
0.115845 0.000000 0.000000
0.131317 0.000000 0.000000
0.147278 0.000000 0.000000
0.163666 0.000000 0.000000
0.180450 0.000000 0.000000
0.197723 0.000000 0.000000
0.215485 0.000000 0.000000
0.233582 0.000000 0.000000
0.252228 0.000000 0.000000
0.271271 0.000000 0.000000
0.290741 0.000000 0.000000
0.310669 0.000000 0.000000
0.330994 0.000000 0.000000
0.351654 0.000000 0.000000
0.372711 0.000000 0.000000
0.393829 0.000000 0.000000
0.414581 0.000000 0.000000
0.434784 0.000000 0.000000
0.454620 0.000000 0.000000
0.473999 0.000000 0.000000
0.493073 0.000000 0.000000
0.511688 0.000000 0.000000
0.530029 0.000000 0.000000
0.547974 0.000000 0.000000
0.565674 0.000000 0.000000
0.583008 0.000000 0.000000
0.600098 0.000000 0.000000
0.616791 0.000000 0.000000
0.633301 0.000000 0.000000
0.649475 0.000000 0.000000
0.665436 0.000000 0.000000
0.681183 0.000000 0.000000
0.696686 0.000000 0.000000
0.712006 0.000000 0.000000
0.727020 0.000000 0.000000
0.741852 0.000000 0.000000
0.756500 0.000000 0.000000
0.769409 0.000000 0.000000
0.769409 0.000000 0.000000
0.769409 0.000000 0.000000
0.769409 0.000000 0.000000
0.769409 0.000000 0.000000
0.769409 0.000000 0.000000
0.769409 0.000000 0.000000
0.000000 0.000000 0.000000
0.000000 0.000000 0.000000
0.000000 0.000000 0.000000
0.000000 0.000000 0.000000
0.000000 0.000000 0.000000
0.000000 0.000000 0.000000
0.000000 0.000000 0.000000
0.000000 0.000000 0.000000
0.000000 0.000000 0.000000
0.000000 0.000000 0.000000
0.000000 0.000000 0.000000
0.000000 0.000000 0.000000
0.002533 0.000000 0.000000
0.019623 0.000000 0.000000
0.032074 0.000000 0.000000
0.044983 0.000000 0.000000
0.058289 0.000000 0.000000
0.071991 0.000000 0.000000
0.086151 0.000000 0.000000
0.100800 0.000000 0.000000
0.115845 0.000000 0.000000
0.131317 0.000000 0.000000
0.147278 0.000000 0.000000
0.163666 0.000000 0.000000
0.180450 0.000000 0.000000
0.197723 0.000000 0.000000
0.215485 0.000000 0.000000
0.233582 0.000000 0.000000
0.252228 0.000000 0.000000
0.271271 0.000000 0.000000
0.290741 0.000000 0.000000
0.310669 0.000000 0.000000
0.330994 0.000000 0.000000
0.351654 0.000000 0.000000
0.372711 0.000000 0.000000
0.393829 0.000000 0.000000
0.414581 0.000000 0.000000
0.434784 0.000000 0.000000
0.454620 0.000000 0.000000
0.473999 0.000000 0.000000
0.493073 0.000000 0.000000
0.511688 0.000000 0.000000
0.530029 0.000000 0.000000
0.547974 0.000000 0.000000
0.565674 0.000000 0.000000
0.583008 0.000000 0.000000
0.600098 0.000000 0.000000
0.616791 0.000000 0.000000
0.633301 0.000000 0.000000
0.649475 0.000000 0.000000
0.665436 0.000000 0.000000
0.681183 0.000000 0.000000
0.696686 0.000000 0.000000
0.712006 0.000000 0.000000
0.727020 0.000000 0.000000
0.741852 0.000000 0.000000
0.756500 0.000000 0.000000
0.769409 0.000000 0.000000
0.769409 0.000000 0.000000
0.769409 0.000000 0.000000
0.769409 0.000000 0.000000
0.769409 0.000000 0.000000
0.769409 0.000000 0.000000
0.769409 0.000000 0.000000
0.000000 0.000000 0.000000
0.000000 0.000000 0.000000
0.000000 0.000000 0.000000
0.000000 0.000000 0.000000
0.000000 0.000000 0.000000
0.000000 0.000000 0.000000
0.000000 0.000000 0.000000
0.000000 0.000000 0.000000
0.000000 0.000000 0.000000
0.000000 0.000000 0.000000
0.000000 0.000000 0.000000
0.000000 0.000000 0.000000
0.002533 0.000000 0.000000
0.019623 0.000000 0.000000
0.032074 0.000000 0.000000
0.044983 0.000000 0.000000
0.058289 0.000000 0.000000
0.071991 0.000000 0.000000
0.086151 0.000000 0.000000
0.100800 0.000000 0.000000
0.115845 0.000000 0.000000
0.131317 0.000000 0.000000
0.147278 0.000000 0.000000
0.163666 0.000000 0.000000
0.180450 0.000000 0.000000
0.197723 0.000000 0.000000
0.215485 0.000000 0.000000
0.233582 0.000000 0.000000
0.252228 0.000000 0.000000
0.271271 0.000000 0.000000
0.290741 0.000000 0.000000
0.310669 0.000000 0.000000
0.330994 0.000000 0.000000
0.351654 0.000000 0.000000
0.372711 0.000000 0.000000
0.393829 0.000000 0.000000
0.414581 0.000000 0.000000
0.434784 0.000000 0.000000
0.454620 0.000000 0.000000
0.473999 0.000000 0.000000
0.493073 0.000000 0.000000
0.511688 0.000000 0.000000
0.530029 0.000000 0.000000
0.547974 0.000000 0.000000
0.565674 0.000000 0.000000
0.583008 0.000000 0.000000
0.600098 0.000000 0.000000
0.616791 0.000000 0.000000
0.633301 0.000000 0.000000
0.649475 0.000000 0.000000
0.665436 0.000000 0.000000
0.681183 0.000000 0.000000
0.696686 0.000000 0.000000
0.712006 0.000000 0.000000
0.727020 0.000000 0.000000
0.741852 0.000000 0.000000
0.756500 0.000000 0.000000
0.769409 0.000000 0.000000
0.769409 0.000000 0.000000
0.769409 0.000000 0.000000
0.769409 0.000000 0.000000
0.769409 0.000000 0.000000
0.769409 0.000000 0.000000
0.769409 0.000000 0.000000
0.000000 0.000000 0.000000
0.000000 0.000000 0.000000
0.000000 0.000000 0.000000
0.000000 0.000000 0.000000
0.000000 0.000000 0.000000
0.000000 0.000000 0.000000
0.000000 0.000000 0.000000
0.000000 0.000000 0.000000
0.000000 0.000000 0.000000
0.000000 0.000000 0.000000
0.000000 0.000000 0.000000
0.000000 0.000000 0.000000
0.002533 0.000000 0.000000
0.019623 0.000000 0.000000
0.032074 0.000000 0.000000
0.044983 0.000000 0.000000
0.058289 0.000000 0.000000
0.071991 0.000000 0.000000
0.086151 0.000000 0.000000
0.100800 0.000000 0.000000
0.115845 0.000000 0.000000
0.131317 0.000000 0.000000
0.147278 0.000000 0.000000
0.163666 0.000000 0.000000
0.180450 0.000000 0.000000
0.197723 0.000000 0.000000
0.215485 0.000000 0.000000
0.233582 0.000000 0.000000
0.252228 0.000000 0.000000
0.271271 0.000000 0.000000
0.290741 0.000000 0.000000
0.310669 0.000000 0.000000
0.330994 0.000000 0.000000
0.351654 0.000000 0.000000
0.372711 0.000000 0.000000
0.393829 0.000000 0.000000
0.414581 0.000000 0.000000
0.434784 0.000000 0.000000
0.454620 0.000000 0.000000
0.473999 0.000000 0.000000
0.493073 0.000000 0.000000
0.511688 0.000000 0.000000
0.530029 0.000000 0.000000
0.547974 0.000000 0.000000
0.565674 0.000000 0.000000
0.583008 0.000000 0.000000
0.600098 0.000000 0.000000
0.616791 0.000000 0.000000
0.633301 0.000000 0.000000
0.649475 0.000000 0.000000
0.665436 0.000000 0.000000
0.681183 0.000000 0.000000
0.696686 0.000000 0.000000
0.712006 0.000000 0.000000
0.727020 0.000000 0.000000
0.741852 0.000000 0.000000
0.756500 0.000000 0.000000
0.769409 0.000000 0.000000
0.769409 0.000000 0.000000
0.769409 0.000000 0.000000
0.769409 0.000000 0.000000
0.769409 0.000000 0.000000
0.769409 0.000000 0.000000
0.769409 0.000000 0.000000
0.000000 0.002533 0.000000
0.000000 0.002533 0.000000
0.000000 0.002533 0.000000
0.000000 0.002533 0.000000
0.000000 0.002533 0.000000
0.000000 0.002533 0.000000
0.000000 0.002533 0.000000
0.000000 0.002533 0.000000
0.000000 0.002533 0.000000
0.000000 0.002533 0.000000
0.000000 0.002533 0.000000
0.000000 0.002533 0.000000
0.002533 0.002533 0.000000
0.019623 0.002533 0.000000
0.032074 0.002533 0.000000
0.044983 0.002533 0.000000
0.058289 0.002533 0.000000
0.071991 0.002533 0.000000
0.086151 0.002533 0.000000
0.100800 0.002533 0.000000
0.115845 0.002533 0.000000
0.131317 0.002533 0.000000
0.147278 0.002502 0.000000
0.163666 0.002502 0.000000
0.180450 0.002502 0.000000
0.197723 0.002502 0.000000
0.215485 0.002533 0.000000
0.233582 0.002502 0.000000
0.252228 0.002533 0.000000
0.271271 0.002502 0.000000
0.290741 0.002563 0.000000
0.310669 0.002502 0.000000
0.330994 0.002502 0.000000
0.351654 0.002563 0.000000
0.372711 0.002533 0.000000
0.393829 0.002502 0.000000
0.414581 0.002533 0.000000
0.434784 0.002533 0.000000
0.454620 0.002563 0.000000
0.473999 0.002533 0.000000
0.493073 0.002533 0.000000
0.511688 0.002502 0.000000
0.530029 0.002594 0.000000
0.547974 0.002533 0.000000
0.565674 0.002472 0.000000
0.583008 0.002563 0.000000
0.600098 0.002502 0.000000
0.616791 0.002563 0.000000
0.633301 0.002472 0.000000
0.649475 0.002533 0.000000
0.665436 0.002594 0.000000
0.681183 0.002502 0.000000
0.696686 0.002563 0.000000
0.712006 0.002594 0.000000
0.727020 0.002472 0.000000
0.741852 0.002533 0.000000
0.756500 0.002594 0.000000
0.769409 0.002441 0.000000
0.769409 0.002441 0.000000
0.769409 0.002441 0.000000
0.769409 0.002441 0.000000
0.769409 0.002441 0.000000
0.769409 0.002441 0.000000
0.769409 0.002441 0.000000
0.000000 0.019623 0.000000
0.000000 0.019623 0.000000
0.000000 0.019623 0.000000
0.000000 0.019623 0.000000
0.000000 0.019623 0.000000
0.000000 0.019623 0.000000
0.000000 0.019623 0.000000
0.000000 0.019623 0.000000
0.000000 0.019623 0.000000
0.000000 0.019623 0.000000
0.000000 0.019623 0.000000
0.000000 0.019623 0.000000
0.002533 0.019623 0.000000
0.019623 0.019623 0.000000
0.032074 0.019623 0.000000
0.044983 0.019623 0.000000
0.058289 0.019623 0.000000
0.071991 0.019623 0.000000
0.086151 0.019623 0.000000
0.100800 0.019623 0.000000
0.115845 0.019623 0.000000
0.131317 0.019623 0.000000
0.147278 0.019623 0.000000
0.163666 0.019623 0.000000
0.180450 0.019592 0.000000
0.197723 0.019653 0.000000
0.215485 0.019623 0.000000
0.233582 0.019623 0.000000
0.252228 0.019653 0.000000
0.271271 0.019592 0.000000
0.290741 0.019592 0.000000
0.310669 0.019653 0.000000
0.330994 0.019623 0.000000
0.351654 0.019653 0.000000
0.372711 0.019653 0.000000
0.393829 0.019623 0.000000
0.414581 0.019623 0.000000
0.434784 0.019623 0.000000
0.454620 0.019653 0.000000
0.473999 0.019684 0.000000
0.493073 0.019623 0.000000
0.511688 0.019623 0.000000
0.530029 0.019684 0.000000
0.547974 0.019653 0.000000
0.565674 0.019623 0.000000
0.583008 0.019653 0.000000
0.600098 0.019623 0.000000
0.616791 0.019562 0.000000
