custom_nodes/comfyui-vrgamedevgirl/LUTS/Dark_High_Contrast_Vivid_Cool.cube
#Created by: Adobe Photoshop Export Color Lookup Plugin
#Copyright: (C) Copyright 2017 PremiumBeat.com
TITLE "PB_Shade"
#LUT size
LUT_3D_SIZE 64
#data domain
DOMAIN_MIN 0.0 0.0 0.0
DOMAIN_MAX 1.0 1.0 1.0
#LUT data points
0.000183 0.000214 0.000214
0.000397 0.000397 0.000427
0.001556 0.000122 0.000519
0.003326 0.000336 0.000702
0.006592 0.000427 0.000702
0.012054 0.000305 0.000610
0.017944 0.000946 0.001099
0.021362 0.001343 0.001923
0.025757 0.001434 0.001953
0.029633 0.001678 0.002075
0.034119 0.001770 0.002136
0.039062 0.001831 0.002106
0.043762 0.002075 0.002258
0.049072 0.002197 0.002289
0.055267 0.001923 0.002441
0.060150 0.002441 0.002747
0.066467 0.002411 0.003021
0.073090 0.002472 0.002960
0.079224 0.002808 0.003540
0.086761 0.002747 0.003296
0.094116 0.002899 0.003204
0.101410 0.003265 0.003693
0.109650 0.003326 0.003937
0.118439 0.003387 0.004150
0.127197 0.003662 0.004456
0.136719 0.003906 0.004730
0.146515 0.004150 0.004883
0.157196 0.004303 0.005371
0.168274 0.004639 0.005493
0.179962 0.004822 0.006317
0.192444 0.005188 0.006256
0.205566 0.005463 0.006927
0.219635 0.005707 0.007050
0.234314 0.006195 0.007507
0.250092 0.006500 0.008179
0.266968 0.006927 0.009186
0.285309 0.007263 0.009521
0.304474 0.007812 0.010468
0.325165 0.008301 0.011505
0.347504 0.009033 0.013397
0.370392 0.009888 0.015350
0.394135 0.010956 0.017639
0.418732 0.012207 0.020630
0.444092 0.013672 0.024261
0.470367 0.015472 0.027802
0.497192 0.017365 0.032837
0.524933 0.019653 0.038513
0.553070 0.022278 0.043549
0.581299 0.024994 0.048340
0.607880 0.026611 0.052032
0.633575 0.028107 0.055298
0.657928 0.029510 0.058533
0.680450 0.030640 0.061279
0.700470 0.031464 0.062439
0.718292 0.032166 0.064362
0.733887 0.032837 0.065491
0.747375 0.033417 0.066254
0.758881 0.033813 0.067383
0.768860 0.034149 0.068512
0.777618 0.034546 0.068817
0.785156 0.034760 0.069885
0.791870 0.034973 0.070618
0.798309 0.035248 0.071045
0.804962 0.035492 0.071838
0.000031 0.000946 0.000305
0.000916 0.000793 0.000397
0.002075 0.000488 0.000488
0.003815 0.000702 0.000641
0.006165 0.001312 0.000793
0.011932 0.000916 0.001068
0.017487 0.001740 0.001770
0.022003 0.001648 0.002014
0.026489 0.001709 0.002167
0.029297 0.002502 0.002258
0.034882 0.002014 0.002350
0.039429 0.002228 0.002502
0.043610 0.002747 0.002563
0.049744 0.002472 0.002563
0.054993 0.002594 0.002960
0.060822 0.002747 0.002991
0.066864 0.002808 0.003448
0.073242 0.002991 0.003418
0.079773 0.003113 0.003784
0.087341 0.003082 0.003571
0.094208 0.003387 0.004089
0.101929 0.003571 0.003967
0.109772 0.003815 0.004791
0.118683 0.003906 0.004578
0.127472 0.004181 0.004913
0.137177 0.004211 0.005463
0.147064 0.004547 0.005219
0.157471 0.004791 0.005798
0.168549 0.005096 0.005890
0.180481 0.005249 0.006683
0.192871 0.005524 0.006989
0.206055 0.005859 0.007294
0.219849 0.006226 0.007843
0.234833 0.006561 0.008392
0.250824 0.006989 0.009125
0.267792 0.007629 0.009796
0.285919 0.008240 0.010712
0.305573 0.008850 0.011871
0.326538 0.009644 0.013519
0.349152 0.010651 0.015106
0.372406 0.011810 0.017822
0.396576 0.013153 0.020386
0.421417 0.014771 0.023682
0.447174 0.016571 0.027649
0.473846 0.018799 0.032501
0.501251 0.021240 0.037445
0.529449 0.023987 0.044006
0.556702 0.025665 0.047760
0.583893 0.027222 0.051147
0.610413 0.028870 0.054688
0.636230 0.030518 0.058136
0.660767 0.031891 0.061859
0.682770 0.032837 0.063599
0.702728 0.033569 0.065063
0.720581 0.034271 0.066559
0.736023 0.034851 0.068024
0.749512 0.035461 0.068787
0.761139 0.035858 0.070007
0.771118 0.036255 0.070770
0.779785 0.036560 0.071930
0.787476 0.036957 0.072144
0.794220 0.037170 0.072876
0.800629 0.037476 0.073334
0.807312 0.037720 0.074127
0.001160 0.001038 0.000641
0.001465 0.001190 0.000366
0.001678 0.001434 0.000610
0.003448 0.001617 0.000763
0.006744 0.001770 0.000793
0.010559 0.002350 0.001343
0.018066 0.002136 0.001770
0.022583 0.002075 0.002014
0.026367 0.002563 0.001953
0.030670 0.002441 0.002594
0.034546 0.002899 0.002563
0.039429 0.002991 0.002472
0.044922 0.002777 0.002930
0.050354 0.002777 0.003235
0.054901 0.003418 0.003296
0.061462 0.003113 0.003754
0.067352 0.003357 0.003876
0.073608 0.003510 0.004242
0.080536 0.003571 0.004211
0.087646 0.003754 0.004181
0.094940 0.003906 0.004547
0.102600 0.004089 0.004913
0.110718 0.004303 0.005188
0.119293 0.004578 0.005127
0.128174 0.004761 0.005920
0.137726 0.005035 0.006073
0.147736 0.005341 0.006348
0.158447 0.005524 0.006897
0.169556 0.005920 0.007080
0.181335 0.006287 0.007538
0.194031 0.006622 0.007904
0.207031 0.007080 0.008789
0.221191 0.007538 0.009003
0.236359 0.007965 0.010040
0.252075 0.008575 0.010895
0.269470 0.009216 0.011658
0.287872 0.009918 0.012695
0.307373 0.010803 0.014343
0.328888 0.011871 0.015900
0.351807 0.013123 0.018127
0.375336 0.014679 0.020721
0.399841 0.016357 0.024017
0.425232 0.018341 0.028046
0.451385 0.020660 0.032471
0.478394 0.023254 0.037537
0.505005 0.024689 0.042114
0.532013 0.026337 0.047180
0.559387 0.028015 0.050598
0.586731 0.029816 0.054077
0.613281 0.031372 0.057648
0.639069 0.032928 0.061035
0.663300 0.034210 0.064209
0.685150 0.035065 0.066315
0.705200 0.035919 0.067474
0.722900 0.036560 0.069305
0.738495 0.037170 0.070404
0.751923 0.037689 0.071564
0.763519 0.038147 0.072784
0.773529 0.038483 0.073486
0.782196 0.038879 0.074219
0.789764 0.039154 0.074890
0.796539 0.039398 0.075653
0.802979 0.039673 0.076080
0.809662 0.039917 0.076813
0.000336 0.003632 0.000824
0.001129 0.003510 0.001099
0.002319 0.003296 0.001251
0.004242 0.003418 0.000916
0.006561 0.004059 0.001099
0.012360 0.003662 0.001373
0.018829 0.003967 0.001923
0.022583 0.004395 0.001862
0.027161 0.004395 0.002136
0.030701 0.004761 0.002502
0.034424 0.005280 0.002869
0.040161 0.004883 0.003204
0.045807 0.004730 0.003265
0.049500 0.005585 0.003662
0.056458 0.004974 0.004059
0.062286 0.004974 0.004700
0.067505 0.005707 0.004395
0.073853 0.005920 0.004333
0.082031 0.005249 0.004974
0.088531 0.005615 0.005493
0.096039 0.005676 0.006042
0.103912 0.005859 0.006622
0.112030 0.006165 0.006409
0.120850 0.006256 0.006836
0.129974 0.006500 0.007355
0.139404 0.006866 0.007660
0.149597 0.007019 0.008301
0.160065 0.007477 0.008514
0.171387 0.007751 0.009094
0.183228 0.008240 0.009644
0.195801 0.008728 0.010162
0.209198 0.009155 0.010986
0.223389 0.009705 0.011749
0.238464 0.010376 0.012451
0.254669 0.011047 0.013428
0.272003 0.011871 0.014343
0.290558 0.012817 0.015564
0.310425 0.013885 0.017426
0.332336 0.015167 0.019623
0.355469 0.016785 0.022583
0.379547 0.018707 0.025543
0.404449 0.020905 0.029144
0.429626 0.022552 0.033020
0.454956 0.023987 0.036621
0.481140 0.025513 0.040894
0.507812 0.027222 0.045624
0.535126 0.029053 0.050415
0.562317 0.030609 0.053619
0.589508 0.032257 0.057465
0.616211 0.033997 0.061096
0.641907 0.035461 0.064819
0.665741 0.036591 0.066986
0.687592 0.037445 0.068665
0.707642 0.038269 0.070312
0.725464 0.038940 0.071716
0.740997 0.039551 0.073273
0.754425 0.040070 0.074432
0.766113 0.040588 0.075256
0.776093 0.040955 0.076019
0.784698 0.041290 0.077087
0.792328 0.041595 0.077637
0.799072 0.041870 0.078003
0.805450 0.042084 0.078888
0.812286 0.042389 0.079315
0.001129 0.006989 0.000885
0.002289 0.006714 0.000977
0.001678 0.007416 0.000916
0.004395 0.007111 0.000977
0.007538 0.007263 0.001465
0.012390 0.007355 0.001831
0.019012 0.007660 0.001923
0.022614 0.008087 0.002319
0.027161 0.008057 0.002563
0.030640 0.008514 0.003418
0.035309 0.008514 0.003693
0.039429 0.009125 0.003357
0.045746 0.008423 0.004181
0.050476 0.008942 0.004120
0.055908 0.009155 0.004181
0.062683 0.008789 0.004395
0.068542 0.009094 0.004456
0.075470 0.008942 0.005310
0.081573 0.009430 0.005554
0.088898 0.009552 0.005737
0.096436 0.009674 0.006317
0.104950 0.009521 0.006561
0.113068 0.009796 0.007202
0.121277 0.010223 0.007996
0.130920 0.010284 0.008240
0.140411 0.010620 0.009155
0.150909 0.010681 0.009705
0.161896 0.011017 0.010406
0.173981 0.010895 0.011780
0.186066 0.011261 0.012634
0.198914 0.011780 0.013214
0.212372 0.012329 0.014130
0.226654 0.012939 0.015015
0.241852 0.013763 0.015839
0.258209 0.014618 0.017029
0.275604 0.015625 0.018494
0.294342 0.016724 0.020233
0.314911 0.018097 0.022003
0.337036 0.019806 0.024902
0.360016 0.021088 0.027191
0.383362 0.022308 0.029480
0.407440 0.023621 0.032379
0.432312 0.025055 0.035950
0.457977 0.026642 0.040253
0.484192 0.028351 0.044525
0.510803 0.029938 0.049591
0.537964 0.031677 0.053406
0.565369 0.033356 0.057190
0.592621 0.035004 0.060608
0.619232 0.036652 0.064148
0.644989 0.038177 0.067871
0.668457 0.039124 0.069519
0.690277 0.039948 0.071655
0.710266 0.040741 0.073120
0.728088 0.041443 0.074615
0.743683 0.042114 0.075745
0.757080 0.042633 0.076904
0.768707 0.043060 0.078125
0.778717 0.043457 0.079315
0.787384 0.043762 0.080017
0.794952 0.044067 0.080627
0.801727 0.044312 0.081390
0.808105 0.044556 0.081848
0.814911 0.044952 0.082184
0.002228 0.011719 0.001862
0.003387 0.011414 0.001984
0.003784 0.011688 0.001801
0.004578 0.012360 0.002045
0.008667 0.011993 0.002441
0.012695 0.012604 0.002502
0.019196 0.012878 0.003082
0.023804 0.012878 0.003387
0.028381 0.012848 0.003693
0.031158 0.013824 0.003723
0.036896 0.013336 0.003937
0.041626 0.013458 0.004395
0.046539 0.013794 0.004181
0.051880 0.013855 0.004913
0.057281 0.014099 0.005005
0.063263 0.014221 0.005310
0.069855 0.014130 0.005859
0.076111 0.014374 0.006317
0.083038 0.014557 0.006592
0.089691 0.015045 0.006348
0.097290 0.015259 0.007019
0.105743 0.015106 0.007721
0.114441 0.015106 0.008484
0.122772 0.015656 0.008911
0.131775 0.016113 0.009186
0.141937 0.016144 0.010193
0.151978 0.016754 0.010895
0.162964 0.017090 0.011566
0.175049 0.017181 0.012756
0.187256 0.017670 0.013763
0.200348 0.018188 0.014648
0.214111 0.018646 0.016144
0.228821 0.019257 0.017578
0.244446 0.019836 0.019135
0.261597 0.019653 0.020874
0.279633 0.019684 0.022827
0.298096 0.020447 0.023926
0.318146 0.021362 0.025635
0.339813 0.022400 0.027588
0.362671 0.023651 0.030182
0.386230 0.025024 0.033112
0.410492 0.026489 0.036591
0.435425 0.027924 0.039673
0.460938 0.029449 0.043976
0.487152 0.031097 0.048645
0.513977 0.032745 0.053802
0.541199 0.034485 0.057068
0.568573 0.036224 0.060425
0.595825 0.037811 0.064209
0.622467 0.039490 0.067719
0.647858 0.040771 0.070892
0.671234 0.041748 0.072571
0.692993 0.042542 0.074615
0.713043 0.043396 0.076141
0.730896 0.044098 0.077667
0.746460 0.044739 0.078766
0.759857 0.045227 0.080322
0.771484 0.045715 0.081146
0.781464 0.046051 0.082275
0.790161 0.046448 0.082550
0.797760 0.046722 0.083527
0.804535 0.046967 0.084381
0.811005 0.047211 0.084839
0.817657 0.047516 0.085571
0.004181 0.018219 0.002502
0.003632 0.018921 0.002502
0.004761 0.018646 0.002594
0.006714 0.018860 0.002411
0.009857 0.018982 0.002899
0.014587 0.019165 0.003662
0.021240 0.019470 0.003815
0.024994 0.019928 0.003754
0.029449 0.019958 0.004517
0.033264 0.020447 0.004486
0.038025 0.020477 0.004822
0.043549 0.020142 0.005646
0.047577 0.021027 0.005585
0.053101 0.021088 0.005432
0.058472 0.021362 0.005554
0.063690 0.021790 0.005829
0.070862 0.021301 0.006744
0.077148 0.021515 0.006683
0.083893 0.021576 0.007324
0.090485 0.022125 0.007538
0.098022 0.022217 0.007660
0.106445 0.021942 0.008636
0.114502 0.022278 0.008942
0.123352 0.022308 0.009674
0.132935 0.022339 0.009918
0.142365 0.022614 0.010773
0.152802 0.022705 0.011292
0.163574 0.022888 0.012299
0.175720 0.022736 0.013275
0.187683 0.022949 0.014496
0.200714 0.023102 0.015503
0.214752 0.023163 0.016571
0.229645 0.023102 0.018127
0.245728 0.023041 0.019897
0.262665 0.023010 0.022186
0.280273 0.023621 0.023560
0.300385 0.023438 0.026672
0.321106 0.024200 0.028961
0.342865 0.025299 0.031372
0.365692 0.026550 0.033508
0.389252 0.027802 0.036774
0.413605 0.029266 0.039825
0.438629 0.030853 0.043579
0.464142 0.032379 0.048218
0.490387 0.034027 0.052826
0.517242 0.035736 0.057068
0.544495 0.037415 0.060364
0.571899 0.039154 0.064117
0.599121 0.040771 0.067871
0.625824 0.042450 0.071381
0.650757 0.043518 0.074036
0.674011 0.044403 0.076050
0.696014 0.045349 0.077332
0.715973 0.046143 0.079254
0.733795 0.046814 0.080750
0.749298 0.047424 0.082275
0.762695 0.047943 0.083405
0.774445 0.048462 0.084167
0.784424 0.048828 0.085358
0.793121 0.049225 0.086090
0.800720 0.049500 0.086609
0.807526 0.049774 0.087402
0.813904 0.050018 0.087921
0.820557 0.050232 0.088623
0.004791 0.022308 0.003021
0.005005 0.022522 0.003174
0.005219 0.022766 0.003418
0.006989 0.022980 0.003571
0.010284 0.023071 0.003601
0.014282 0.023682 0.003693
0.021759 0.023499 0.004150
0.026154 0.023468 0.004883
0.029968 0.023956 0.004822
0.033539 0.024414 0.005219
0.038269 0.024414 0.005524
0.043182 0.024536 0.005524
0.048798 0.024384 0.005615
0.054047 0.024445 0.006378
0.059418 0.024719 0.006470
0.065338 0.024811 0.006775
0.071136 0.025116 0.006866
0.078033 0.024994 0.007751
0.084259 0.025513 0.007568
0.091492 0.025604 0.007721
0.098999 0.025726 0.008331
0.106842 0.025940 0.008942
0.115509 0.025909 0.009674
0.123871 0.026337 0.009583
0.133301 0.026367 0.010712
0.142853 0.026703 0.011200
0.153381 0.026855 0.011810
0.164185 0.027069 0.012817
0.176178 0.026947 0.014191
0.188385 0.027344 0.014679
0.201355 0.027527 0.016113
0.215363 0.027618 0.017609
0.229858 0.027924 0.018311
0.245911 0.027771 0.020508
0.262970 0.027771 0.022461
0.281250 0.027740 0.024872
0.301605 0.027557 0.027893
0.323425 0.027527 0.031433
0.345917 0.028198 0.034668
0.368896 0.029510 0.037354
0.392487 0.030884 0.040222
0.416840 0.032288 0.043793
0.441895 0.033875 0.047882
0.467499 0.035492 0.052490
0.493988 0.037201 0.057190
0.520721 0.038788 0.060974
0.548035 0.040558 0.064209
0.575378 0.042267 0.067871
0.602692 0.043945 0.072083
0.629211 0.045441 0.075043
0.653778 0.046387 0.077148
0.677063 0.047302 0.079193
0.698975 0.048218 0.080902
0.719025 0.049011 0.082397
0.736847 0.049744 0.083862
0.752441 0.050354 0.085358
0.765869 0.050903 0.086517
0.777466 0.051331 0.087708
0.787476 0.051758 0.088470
0.796082 0.052032 0.089600
0.803772 0.052368 0.090210
0.810577 0.052673 0.090515
0.816986 0.052948 0.090973
0.823700 0.053192 0.091736
0.005432 0.026703 0.004089
0.005798 0.026886 0.003876
0.006989 0.026642 0.003998
0.007904 0.027283 0.003784
0.012024 0.026917 0.004150
0.016083 0.027496 0.004242
0.021729 0.028290 0.004578
0.027130 0.027802 0.005157
0.030792 0.028290 0.005524
0.035339 0.028229 0.005768
0.039276 0.028748 0.005768
0.044098 0.028900 0.005798
0.049438 0.028717 0.006714
0.054108 0.029236 0.006683
0.060181 0.029083 0.007202
0.066101 0.029175 0.007477
0.071960 0.029510 0.007599
0.078308 0.029785 0.007629
0.085022 0.029877 0.008270
0.092773 0.029633 0.008942
0.099701 0.030090 0.009491
0.107605 0.030365 0.009308
0.116241 0.030243 0.010376
0.124573 0.030701 0.010742
0.134033 0.030731 0.011414
0.144043 0.030792 0.011993
0.153961 0.031128 0.012848
0.165314 0.031128 0.013611
0.176422 0.031647 0.014404
0.188995 0.031616 0.015717
0.202423 0.031616 0.016876
0.216095 0.031921 0.017822
0.230499 0.032288 0.019409
0.246979 0.032043 0.021393
0.263641 0.032288 0.023590
0.282257 0.032257 0.026062
0.302734 0.032135 0.029236
0.324402 0.032257 0.032471
0.347198 0.032776 0.036041
0.372131 0.032593 0.041229
0.395996 0.034027 0.044220
0.420258 0.035492 0.048218
0.445404 0.036987 0.052277
0.471191 0.038666 0.056915
0.497528 0.040466 0.061096
0.524353 0.042053 0.064850
0.551636 0.043793 0.068085
0.579041 0.045502 0.072235
0.606384 0.047180 0.075897
0.632385 0.048462 0.078766
0.656921 0.049408 0.080353
0.680298 0.050354 0.082367
0.702118 0.051239 0.084473
0.722168 0.052002 0.085968
0.740021 0.052765 0.087494
0.755524 0.053345 0.089020
0.769012 0.053894 0.090179
0.780670 0.054352 0.091370
0.790710 0.054779 0.092041
0.799408 0.055145 0.092804
0.806976 0.055420 0.093781
0.813751 0.055725 0.094116
0.820190 0.055969 0.094574
0.826904 0.056244 0.095337
0.005463 0.031342 0.004089
0.006500 0.031097 0.004425
0.007690 0.030853 0.004547
0.009491 0.031067 0.004700
0.011932 0.031647 0.004395
0.016846 0.031799 0.004852
0.024109 0.031616 0.005768
0.027893 0.032074 0.005737
0.032471 0.032074 0.006012
0.036102 0.032532 0.006378
0.039886 0.033051 0.006836
0.045532 0.032745 0.007233
0.051147 0.032623 0.007355
0.054871 0.033600 0.007385
0.061127 0.033447 0.007446
0.066956 0.033569 0.008209
0.072784 0.033936 0.008331
0.078369 0.034607 0.008362
0.086395 0.033936 0.009491
0.093597 0.034027 0.009674
0.101166 0.034210 0.009888
0.108429 0.034790 0.010071
0.116516 0.035065 0.010712
0.125916 0.034882 0.011658
0.134796 0.035278 0.011871
0.144836 0.035248 0.013245
0.154785 0.035736 0.013367
0.166107 0.035614 0.014862
0.177185 0.036255 0.014923
0.190277 0.035889 0.016724
0.203064 0.036194 0.017792
0.216766 0.036530 0.018738
0.231750 0.036591 0.020447
0.247681 0.036713 0.022369
0.264465 0.036987 0.024231
0.282776 0.037384 0.026550
0.303223 0.037323 0.029694
0.324493 0.037811 0.033020
0.348419 0.037659 0.037598
0.373260 0.037689 0.042603
0.398438 0.038116 0.047485
0.424042 0.038818 0.052307
0.449188 0.040466 0.056427
0.474915 0.042053 0.061859
0.501373 0.043732 0.065582
0.528137 0.045471 0.068817
0.555481 0.047180 0.072510
0.582916 0.048859 0.076508
0.610291 0.050537 0.080231
0.635620 0.051575 0.082001
0.660217 0.052582 0.084106
0.683533 0.053497 0.086090
0.705536 0.054413 0.087799
0.725525 0.055206 0.089722
0.743378 0.055969 0.091125
0.758942 0.056580 0.092712
0.772400 0.057159 0.093414
0.783997 0.057526 0.095001
0.794067 0.057953 0.095795
0.802765 0.058289 0.096466
0.810364 0.058624 0.097382
0.817139 0.058899 0.097717
0.823578 0.059143 0.098267
0.830353 0.059418 0.099030
0.005432 0.036316 0.004730
0.006592 0.036072 0.004852
0.007812 0.035797 0.005005
0.010498 0.035492 0.005005
0.012695 0.036133 0.005615
0.018555 0.035736 0.005951
0.025208 0.036102 0.006134
0.028015 0.037048 0.006195
0.032623 0.037048 0.006500
0.037201 0.036987 0.006744
0.041168 0.037537 0.006866
0.046600 0.037231 0.007629
0.051270 0.037537 0.007782
0.055786 0.038116 0.008240
0.061981 0.037964 0.008301
0.067810 0.038086 0.009094
0.072968 0.038879 0.008820
0.079956 0.038727 0.009247
0.086700 0.038940 0.009583
0.093903 0.039062 0.009766
0.101410 0.039215 0.010406
0.108673 0.039734 0.010956
0.117432 0.039734 0.011292
0.126129 0.039886 0.012177
0.135620 0.039948 0.012878
0.145172 0.040283 0.013367
0.155121 0.040710 0.014313
0.166473 0.040710 0.015045
0.177979 0.040955 0.015961
0.190063 0.041321 0.016846
0.203522 0.041351 0.018097
0.217163 0.041687 0.019440
0.231659 0.042084 0.020660
0.248077 0.041870 0.023071
0.264923 0.042267 0.024963
0.283539 0.042664 0.027313
0.304169 0.042633 0.030884
0.325378 0.043121 0.034149
0.349152 0.043213 0.038422
0.373596 0.043610 0.043060
0.399048 0.043793 0.048676
0.425568 0.043976 0.054932
0.452881 0.044067 0.061584
0.478882 0.045624 0.066437
0.505249 0.047302 0.069611
0.532166 0.049011 0.073242
0.559418 0.050751 0.076904
0.586945 0.052399 0.080994
0.613708 0.053833 0.084015
0.639130 0.054871 0.085815
0.663757 0.055878 0.087860
0.687073 0.056793 0.089844
0.709015 0.057709 0.091492
0.729004 0.058533 0.093414
0.746887 0.059235 0.094910
0.762390 0.059875 0.096405
0.775879 0.060394 0.097504
0.787567 0.060883 0.098694
0.797546 0.061249 0.099518
0.806244 0.061646 0.100128
0.813843 0.061920 0.101135
0.820740 0.062256 0.101532
0.827118 0.062469 0.102417
0.833862 0.062805 0.102661
0.007538 0.040466 0.005096
0.007751 0.040680 0.005341
0.008148 0.040955 0.005219
0.010864 0.040649 0.005280
0.013062 0.041290 0.005737
0.018066 0.041412 0.005707
0.025543 0.041260 0.006226
0.030151 0.041260 0.006531
0.033783 0.041748 0.006958
0.037384 0.042145 0.007263
0.041321 0.042694 0.007294
0.045990 0.042847 0.007751
0.052399 0.042267 0.008301
0.056122 0.043274 0.008301
0.062317 0.043152 0.008423
0.068146 0.043274 0.009216
0.073273 0.044037 0.008911
0.080139 0.043884 0.009766
0.087067 0.044128 0.009705
0.094177 0.044281 0.010376
0.101807 0.044434 0.010590
0.109619 0.044647 0.011230
0.118286 0.044647 0.012024
0.127075 0.044830 0.012512
0.136078 0.045197 0.013123
0.145477 0.045654 0.013702
0.156097 0.045715 0.014740
0.166809 0.046082 0.015442
0.178406 0.046387 0.015991
0.190552 0.046753 0.016907
0.203888 0.046722 0.018555
0.218018 0.046722 0.020416
0.231995 0.047455 0.021576
0.248444 0.047516 0.023407
0.265411 0.048035 0.025421
0.284607 0.047974 0.028534
0.304474 0.048553 0.031464
0.325897 0.049072 0.034729
0.349518 0.049377 0.039246
0.373962 0.049866 0.043396
0.399658 0.049988 0.049774
0.426392 0.050110 0.056000
0.453247 0.050537 0.062683
0.481628 0.050262 0.069550
0.509430 0.051025 0.074158
0.536377 0.052734 0.077820
0.563690 0.054474 0.081787
0.591248 0.056213 0.084991
0.617371 0.057220 0.087860
0.642792 0.058289 0.089630
0.667358 0.059296 0.091736
0.690765 0.060272 0.093628
0.712616 0.061157 0.095734
0.732727 0.062012 0.097260
0.750519 0.062683 0.098694
0.766113 0.063293 0.100220
0.779510 0.063904 0.101318
0.791199 0.064362 0.102448
0.801239 0.064758 0.103668
0.809906 0.065063 0.104309
0.817566 0.065430 0.104828
0.824402 0.065735 0.105316
0.830811 0.065979 0.106140
0.837524 0.066223 0.106903
0.007202 0.046173 0.005524
0.007538 0.046387 0.005310
0.008728 0.046173 0.005463
0.011444 0.045868 0.005493
0.013641 0.046478 0.006134
0.019470 0.046143 0.006409
0.026123 0.046448 0.006561
0.029938 0.046967 0.006561
0.034546 0.046997 0.006897
0.038177 0.047424 0.007263
0.041931 0.047913 0.007690
0.047546 0.047699 0.008118
0.052338 0.048004 0.007904
0.056702 0.048584 0.008759
0.062897 0.048462 0.008820
0.068665 0.048615 0.009644
0.074554 0.049011 0.009430
0.080872 0.049377 0.009521
0.087555 0.049469 0.010193
0.094727 0.049683 0.010864
0.102814 0.049591 0.011627
0.109558 0.050476 0.011322
0.118195 0.050476 0.012054
0.127014 0.050720 0.012573
0.135956 0.051056 0.013153
0.146027 0.051178 0.013824
0.156403 0.051331 0.014862
0.167267 0.051758 0.015259
0.178864 0.051941 0.016510
0.190460 0.052704 0.017426
0.203888 0.052795 0.018677
0.217896 0.052856 0.020233
0.232788 0.053070 0.022125
0.248657 0.053680 0.023682
0.266479 0.053680 0.026459
0.284485 0.054565 0.028534
0.304993 0.054779 0.032349
0.325958 0.055695 0.035156
0.349915 0.055847 0.039948
0.374207 0.056519 0.044342
0.399597 0.056976 0.050171
0.426178 0.057159 0.056702
0.453644 0.057373 0.063446
0.481934 0.057220 0.069702
0.510620 0.057190 0.075684
0.540070 0.057037 0.082123
0.568085 0.058350 0.086334
0.595215 0.059875 0.089355
0.621155 0.060852 0.091705
0.646606 0.061951 0.093506
0.671204 0.062927 0.095551
0.694611 0.063934 0.097565
0.716461 0.064789 0.099640
0.736542 0.065613 0.101135
0.754364 0.066345 0.102966
0.769958 0.066956 0.104492
0.783386 0.067566 0.105591
0.795105 0.067993 0.106750
0.805115 0.068420 0.107513
0.813782 0.068726 0.108582
0.821411 0.069092 0.109131
0.828247 0.069427 0.109436
0.834686 0.069641 0.110352
0.841339 0.069885 0.111053
0.008240 0.051422 0.005829
0.009460 0.051208 0.005981
0.009857 0.051422 0.005798
0.011627 0.051575 0.005951
0.014954 0.051727 0.005981
0.019989 0.051880 0.006073
0.025574 0.052704 0.006775
0.030121 0.052704 0.007050
0.034729 0.052765 0.007355
0.039154 0.052673 0.007996
0.043091 0.053192 0.008026
0.048645 0.053040 0.008484
0.052582 0.053802 0.008423
0.057220 0.054382 0.008453
0.063232 0.054260 0.008942
0.069092 0.054443 0.009277
0.075531 0.054474 0.009888
0.081696 0.054779 0.010406
0.087860 0.055298 0.010681
0.095093 0.055542 0.010559
0.102570 0.055786 0.011261
0.110413 0.056061 0.011566
0.118500 0.056427 0.012268
0.127289 0.056671 0.012756
0.136292 0.057068 0.013428
0.146271 0.057159 0.014008
0.156189 0.057709 0.014648
0.167084 0.058044 0.015320
0.178955 0.058136 0.016815
0.191040 0.058502 0.017731
0.204407 0.058655 0.019409
0.217957 0.059143 0.020508
0.232788 0.059662 0.022186
0.248993 0.060150 0.023926
0.266113 0.060699 0.026337
0.284576 0.061340 0.028961
0.305023 0.061737 0.032074
0.326324 0.062561 0.035614
0.349518 0.063232 0.039764
0.374298 0.063721 0.044922
0.399658 0.064148 0.051147
0.425934 0.064697 0.057159
0.453064 0.065002 0.063171
0.481018 0.065308 0.068420
0.509979 0.065186 0.074677
0.539734 0.064789 0.081757
0.570312 0.064270 0.088684
0.599213 0.063599 0.093719
