custom_nodes/comfyui-vrgamedevgirl/LUTS/Dark_High_Contrast_Vivid_Cinematic.cube
#Created by: Adobe Photoshop Export Color Lookup Plugin
#Copyright: (C) Copyright 2017 PremiumBeat
TITLE "Everest"
#LUT size
LUT_3D_SIZE 4
#data domain
DOMAIN_MIN 0.0 0.0 0.0
DOMAIN_MAX 1.0 1.0 1.0
#LUT data points
0.000305 0.000458 0.000977
0.118805 0.002319 0.004883
0.658691 0.001038 0.010071
0.895294 0.000000 0.009674
0.001190 0.135773 0.009216
0.120087 0.137817 0.013947
0.660278 0.135986 0.016052
0.896790 0.134399 0.014069
0.000000 0.686584 0.024536
0.117004 0.689697 0.024017
0.672089 0.697418 0.034058
0.912140 0.696381 0.032349
0.000000 0.919769 0.025635
0.118622 0.922150 0.026886
0.677338 0.929901 0.034027
0.923920 0.933075 0.034851
0.000397 0.001434 0.162903
0.119019 0.002899 0.165527
0.658997 0.001709 0.169373
0.895599 0.000549 0.168732
0.001343 0.136475 0.169037
0.118073 0.136230 0.170166
0.657990 0.134094 0.171173
0.894501 0.132507 0.169525
0.000000 0.687653 0.179657
0.115387 0.688110 0.177979
0.670319 0.695526 0.186127
0.910400 0.694397 0.184387
0.000000 0.921234 0.181030
0.117371 0.920624 0.180359
0.676056 0.928040 0.185608
0.922485 0.931061 0.186188
0.000000 0.002167 0.693268
0.112640 0.000000 0.700928
0.660065 0.003876 0.715912
0.896790 0.002686 0.714935
0.000000 0.133698 0.701508
0.109711 0.129486 0.708923
0.658875 0.136139 0.716614
0.896240 0.134888 0.715271
0.000366 0.691498 0.723724
0.117645 0.690765 0.723175
0.663605 0.687988 0.720398
0.904785 0.686981 0.717773
0.002136 0.924133 0.726013
0.120636 0.923431 0.725159
0.671021 0.920441 0.718201
0.915955 0.922546 0.718384
0.000000 0.002899 0.900269
0.111481 0.000000 0.908691
0.656036 0.000916 0.924957
0.897003 0.003265 0.927368
0.000000 0.134125 0.908356
0.106293 0.126526 0.918762
0.654999 0.132874 0.925476
0.896759 0.135590 0.927948
0.000000 0.686920 0.930328
0.114899 0.687561 0.932190
0.661011 0.684814 0.928864
0.906921 0.687958 0.929688
0.003082 0.925293 0.938629
0.121979 0.924347 0.937622
0.673035 0.921326 0.930145
0.914246 0.918457 0.926361
