custom_nodes/comfyui-vrgamedevgirl/LUTS/Dark_Soft_Vivid_Cinematic_2.cube
#Created by: Adobe Photoshop Export Color Lookup Plugin
#Copyright: (C) Copyright 2017 PremiumBeat
TITLE "Stillwater"
#LUT size
LUT_3D_SIZE 64
#data domain
DOMAIN_MIN 0.0 0.0 0.0
DOMAIN_MAX 1.0 1.0 1.0
#LUT data points
0.018433 0.017334 0.016479
0.022400 0.017456 0.016541
0.026672 0.017578 0.016602
0.031311 0.017731 0.016663
0.036316 0.017883 0.016724
0.041687 0.018036 0.016815
0.047333 0.018219 0.016876
0.053406 0.018433 0.016968
0.059784 0.018616 0.017059
0.066528 0.018860 0.017151
0.073608 0.019104 0.017273
0.080994 0.019348 0.017365
0.088837 0.019623 0.017487
0.096985 0.019897 0.017609
0.105530 0.020233 0.017761
0.114380 0.020538 0.017883
0.123566 0.020874 0.018036
0.133179 0.021271 0.018188
0.143097 0.021637 0.018372
0.153412 0.022034 0.018555
0.164093 0.022461 0.018707
0.175079 0.022888 0.018890
0.186462 0.023346 0.019104
0.198242 0.023865 0.019318
0.210358 0.024384 0.019531
0.222870 0.024933 0.019775
0.235687 0.025482 0.020020
0.248932 0.026062 0.020264
0.262543 0.026703 0.020538
0.276550 0.027344 0.020813
0.290863 0.028015 0.021118
0.305603 0.028748 0.021423
0.320679 0.029480 0.021759
0.336121 0.030212 0.022095
0.352051 0.031036 0.022461
0.368378 0.031860 0.022827
0.385162 0.032745 0.023224
0.402344 0.033661 0.023621
0.419434 0.034576 0.024048
0.436218 0.035492 0.024475
0.452789 0.036407 0.024902
0.469147 0.037354 0.025330
0.485199 0.038269 0.025787
0.501068 0.039185 0.026215
0.516815 0.040100 0.026672
0.532196 0.041016 0.027100
0.547424 0.041931 0.027527
0.562469 0.042847 0.027985
0.577240 0.043732 0.028442
0.591858 0.044647 0.028870
0.606262 0.045532 0.029327
0.620544 0.046448 0.029816
0.634583 0.047333 0.030243
0.648438 0.048218 0.030701
0.662140 0.049103 0.031158
0.675720 0.050018 0.031647
0.689148 0.050903 0.032135
0.702393 0.051788 0.032593
0.715485 0.052673 0.033051
0.728516 0.053528 0.033539
0.741455 0.054413 0.034027
0.753876 0.054962 0.034332
0.766052 0.055298 0.034485
0.778534 0.055634 0.034698
0.018860 0.021332 0.016602
0.022827 0.021423 0.016632
0.027130 0.021576 0.016724
0.031738 0.021698 0.016754
0.036804 0.021881 0.016846
0.042114 0.022034 0.016907
0.047791 0.022217 0.016998
0.053833 0.022430 0.017090
0.060272 0.022644 0.017181
0.066986 0.022888 0.017273
0.074066 0.023132 0.017395
0.081543 0.023376 0.017487
0.089355 0.023651 0.017609
0.097534 0.023956 0.017761
0.106049 0.024261 0.017883
0.114899 0.024597 0.018005
0.124146 0.024963 0.018188
0.133698 0.025299 0.018311
0.143646 0.025696 0.018494
0.153961 0.026093 0.018677
0.164673 0.026550 0.018860
0.175720 0.027008 0.019043
0.187103 0.027466 0.019257
0.198853 0.027954 0.019470
0.210968 0.028473 0.019684
0.223511 0.029022 0.019928
0.236328 0.029602 0.020172
0.249634 0.030212 0.020447
0.263275 0.030853 0.020721
0.277222 0.031464 0.020996
0.291534 0.032166 0.021301
0.306305 0.032898 0.021606
0.321381 0.033630 0.021942
0.336823 0.034393 0.022278
0.352814 0.035217 0.022644
0.369080 0.036041 0.023010
0.385956 0.036957 0.023438
0.403137 0.037872 0.023834
0.420166 0.038788 0.024261
0.436951 0.039703 0.024689
0.453522 0.040619 0.025116
0.469910 0.041565 0.025574
0.485962 0.042480 0.026001
0.501831 0.043396 0.026428
0.517578 0.044342 0.026886
0.532990 0.045258 0.027313
0.548218 0.046173 0.027771
0.563232 0.047089 0.028229
0.578003 0.047974 0.028687
0.592682 0.048920 0.029144
0.607025 0.049805 0.029602
0.621307 0.050720 0.030060
0.635406 0.051636 0.030548
0.649261 0.052521 0.031006
0.662994 0.053436 0.031464
0.676483 0.054291 0.031921
0.689911 0.055206 0.032410
0.703156 0.056061 0.032867
0.716248 0.056946 0.033356
0.729248 0.057831 0.033813
0.742004 0.058594 0.034241
0.754150 0.058929 0.034424
0.766357 0.059265 0.034607
0.778839 0.059631 0.034821
0.019318 0.025635 0.016724
0.023315 0.025757 0.016754
0.027588 0.025879 0.016815
0.032227 0.026031 0.016876
0.037292 0.026215 0.016968
0.042603 0.026367 0.017029
0.048309 0.026581 0.017120
0.054352 0.026764 0.017212
0.060760 0.026978 0.017303
0.067505 0.027222 0.017395
0.074615 0.027466 0.017517
0.082062 0.027740 0.017639
0.089905 0.028015 0.017761
0.098114 0.028320 0.017883
0.106628 0.028625 0.018005
0.115509 0.028961 0.018158
0.124756 0.029327 0.018311
0.134308 0.029694 0.018463
0.144257 0.030060 0.018646
0.154602 0.030487 0.018829
0.165314 0.030914 0.019012
0.176361 0.031403 0.019196
0.187775 0.031891 0.019409
0.199585 0.032379 0.019623
0.211700 0.032928 0.019867
0.224182 0.033447 0.020081
0.237030 0.034027 0.020355
0.250366 0.034668 0.020599
0.263977 0.035278 0.020874
0.277954 0.035919 0.021179
0.292358 0.036652 0.021484
0.307037 0.037354 0.021790
0.322144 0.038086 0.022125
0.337677 0.038910 0.022491
0.353607 0.039703 0.022858
0.369934 0.040588 0.023224
0.386749 0.041443 0.023621
0.403961 0.042389 0.024048
0.420990 0.043304 0.024475
0.437866 0.044250 0.024933
0.454407 0.045197 0.025360
0.470734 0.046112 0.025787
0.486786 0.047028 0.026215
0.502655 0.047943 0.026672
0.518402 0.048920 0.027130
0.533813 0.049805 0.027588
0.549042 0.050751 0.028046
0.564087 0.051666 0.028503
0.578918 0.052612 0.028961
0.593506 0.053528 0.029419
0.607941 0.054443 0.029907
0.622162 0.055328 0.030334
0.636261 0.056244 0.030823
0.650116 0.057159 0.031311
0.663818 0.058044 0.031769
0.677368 0.058960 0.032257
0.690735 0.059845 0.032715
0.703979 0.060699 0.033203
0.717133 0.061646 0.033691
0.730133 0.062531 0.034180
0.742340 0.062897 0.034393
0.754425 0.063202 0.034546
0.766632 0.063538 0.034729
0.779144 0.063904 0.034943
0.019836 0.030304 0.016846
0.023834 0.030426 0.016907
0.028107 0.030579 0.016968
0.032806 0.030731 0.017029
0.037811 0.030884 0.017090
0.043182 0.031097 0.017181
0.048859 0.031281 0.017273
0.054932 0.031464 0.017334
0.061401 0.031708 0.017456
0.068085 0.031921 0.017548
0.075195 0.032166 0.017639
0.082672 0.032440 0.017761
0.090515 0.032745 0.017883
0.098724 0.033051 0.018036
0.107269 0.033356 0.018158
0.116150 0.033722 0.018311
0.125397 0.034058 0.018463
0.135040 0.034454 0.018646
0.144989 0.034851 0.018799
0.155273 0.035248 0.018982
0.165985 0.035706 0.019165
0.177063 0.036163 0.019379
0.188477 0.036652 0.019592
0.200317 0.037201 0.019806
0.212463 0.037720 0.020050
0.224945 0.038269 0.020264
0.237793 0.038849 0.020538
0.251129 0.039490 0.020782
0.264771 0.040131 0.021088
0.278809 0.040802 0.021362
0.293182 0.041504 0.021667
0.307892 0.042206 0.022003
0.322968 0.042969 0.022339
0.338501 0.043762 0.022705
0.354462 0.044586 0.023071
0.370819 0.045471 0.023468
0.387634 0.046356 0.023865
0.404816 0.047302 0.024292
0.421936 0.048248 0.024750
0.438751 0.049164 0.025177
0.455322 0.050110 0.025604
0.471619 0.051056 0.026062
0.487762 0.052002 0.026520
0.503571 0.052917 0.026947
0.519318 0.053864 0.027405
0.534790 0.054810 0.027893
0.550018 0.055756 0.028351
0.565002 0.056641 0.028778
0.579834 0.057587 0.029266
0.594421 0.058502 0.029724
0.608856 0.059448 0.030212
0.623138 0.060364 0.030670
0.637146 0.061249 0.031158
0.651001 0.062164 0.031616
0.664703 0.063049 0.032104
0.678253 0.063995 0.032593
0.691620 0.064850 0.033051
0.704926 0.065796 0.033569
0.718018 0.066681 0.034058
0.730499 0.067200 0.034332
0.742645 0.067505 0.034515
0.754791 0.067871 0.034698
0.766998 0.068176 0.034882
0.779480 0.068542 0.035065
0.020386 0.035339 0.016968
0.024414 0.035492 0.017029
0.028687 0.035645 0.017090
0.033386 0.035797 0.017151
0.038422 0.035950 0.017242
0.043793 0.036163 0.017334
0.049469 0.036346 0.017395
0.055573 0.036560 0.017487
0.062012 0.036774 0.017609
0.068787 0.037048 0.017700
0.075897 0.037292 0.017822
0.083344 0.037537 0.017914
0.091217 0.037872 0.018066
0.099396 0.038147 0.018188
0.107941 0.038483 0.018311
0.116882 0.038849 0.018494
0.126129 0.039185 0.018646
0.135742 0.039612 0.018799
0.145721 0.040009 0.018982
0.156036 0.040405 0.019165
0.166809 0.040894 0.019348
0.177856 0.041351 0.019562
0.189270 0.041840 0.019775
0.201111 0.042358 0.019989
0.213257 0.042908 0.020233
0.225830 0.043488 0.020477
0.238708 0.044067 0.020752
0.251984 0.044678 0.020996
0.265656 0.045319 0.021301
0.279694 0.046021 0.021606
0.294037 0.046722 0.021912
0.308777 0.047455 0.022217
0.323944 0.048248 0.022583
0.339417 0.049042 0.022919
0.355377 0.049866 0.023315
0.371735 0.050720 0.023712
0.388580 0.051636 0.024109
0.405762 0.052582 0.024567
0.422882 0.053558 0.024994
0.439697 0.054474 0.025452
0.456268 0.055450 0.025879
0.472656 0.056396 0.026337
0.488739 0.057343 0.026794
0.504608 0.058289 0.027252
0.520294 0.059204 0.027710
0.535767 0.060181 0.028198
0.550995 0.061127 0.028656
0.566040 0.062073 0.029144
0.580811 0.062958 0.029602
0.595398 0.063904 0.030060
0.609833 0.064819 0.030548
0.624115 0.065765 0.031036
0.638123 0.066650 0.031494
0.651978 0.067566 0.031982
0.665680 0.068481 0.032471
0.679230 0.069397 0.032959
0.692657 0.070312 0.033447
0.705872 0.071198 0.033936
0.718597 0.071838 0.034302
0.730835 0.072174 0.034454
0.743011 0.072510 0.034668
0.755157 0.072845 0.034851
0.767365 0.073181 0.035034
0.779846 0.073547 0.035217
0.021027 0.040741 0.017120
0.025024 0.040863 0.017181
0.029327 0.041016 0.017242
0.034027 0.041168 0.017334
0.039062 0.041351 0.017395
0.044434 0.041534 0.017487
0.050140 0.041748 0.017578
0.056244 0.041962 0.017670
0.062714 0.042206 0.017761
0.069458 0.042450 0.017883
0.076599 0.042694 0.017975
0.084045 0.042969 0.018097
0.091949 0.043304 0.018250
0.100159 0.043579 0.018372
0.108765 0.043945 0.018524
0.117645 0.044281 0.018646
0.126892 0.044647 0.018829
0.136536 0.045044 0.018982
0.146515 0.045471 0.019165
0.156921 0.045898 0.019348
0.167664 0.046356 0.019562
0.178680 0.046814 0.019745
0.190125 0.047333 0.019958
0.201996 0.047882 0.020203
0.214142 0.048401 0.020447
0.226715 0.049011 0.020691
0.239624 0.049622 0.020966
0.252899 0.050232 0.021240
0.266571 0.050873 0.021515
0.280640 0.051575 0.021820
0.295013 0.052277 0.022156
0.309784 0.053070 0.022491
0.324921 0.053833 0.022827
0.340424 0.054626 0.023193
0.356354 0.055450 0.023560
0.372742 0.056335 0.023956
0.389587 0.057251 0.024384
0.406799 0.058197 0.024841
0.423920 0.059204 0.025299
0.440735 0.060150 0.025726
0.457306 0.061096 0.026184
0.473694 0.062073 0.026672
0.489777 0.063019 0.027100
0.505646 0.063965 0.027588
0.521423 0.064941 0.028046
0.536835 0.065887 0.028534
0.552063 0.066833 0.028992
0.567078 0.067780 0.029480
0.581848 0.068695 0.029938
0.596466 0.069611 0.030426
0.610870 0.070557 0.030914
0.625153 0.071503 0.031403
0.639160 0.072388 0.031860
0.653015 0.073303 0.032349
0.666687 0.074219 0.032837
0.680237 0.075165 0.033356
0.693665 0.076080 0.033844
0.706665 0.076813 0.034271
0.718994 0.077148 0.034424
0.731201 0.077484 0.034637
0.743408 0.077820 0.034821
0.755524 0.078156 0.035004
0.767761 0.078522 0.035187
0.780243 0.078857 0.035400
0.021698 0.046448 0.017303
0.025726 0.046600 0.017365
0.030029 0.046753 0.017426
0.034729 0.046906 0.017487
0.039764 0.047089 0.017578
0.045166 0.047302 0.017639
0.050873 0.047485 0.017731
0.057007 0.047729 0.017822
0.063446 0.047943 0.017944
0.070251 0.048218 0.018036
0.077362 0.048492 0.018158
0.084869 0.048767 0.018280
0.092743 0.049072 0.018433
0.100952 0.049377 0.018555
0.109589 0.049744 0.018707
0.118469 0.050079 0.018860
0.127747 0.050446 0.019012
0.137390 0.050873 0.019196
0.147400 0.051300 0.019379
0.157806 0.051758 0.019562
0.168549 0.052216 0.019775
0.179596 0.052673 0.019958
0.191101 0.053223 0.020203
0.202911 0.053741 0.020416
0.215088 0.054291 0.020660
0.227692 0.054901 0.020935
0.240601 0.055511 0.021210
0.253906 0.056122 0.021484
0.267639 0.056824 0.021790
0.281647 0.057495 0.022064
0.296021 0.058228 0.022400
0.310852 0.058990 0.022736
0.325989 0.059784 0.023102
0.341461 0.060577 0.023468
0.357422 0.061432 0.023834
0.373840 0.062317 0.024261
0.390747 0.063263 0.024689
0.407898 0.064209 0.025146
0.425018 0.065186 0.025604
0.441833 0.066162 0.026062
0.458435 0.067139 0.026520
0.474823 0.068115 0.026978
0.490906 0.069061 0.027466
0.506775 0.070038 0.027924
0.522552 0.071014 0.028412
0.537933 0.071930 0.028870
0.553162 0.072906 0.029358
0.568207 0.073853 0.029846
0.582977 0.074768 0.030334
0.597565 0.075714 0.030792
0.611969 0.076660 0.031311
0.626251 0.077606 0.031799
0.640259 0.078522 0.032288
0.654175 0.079468 0.032806
0.667786 0.080353 0.033264
0.681335 0.081299 0.033783
0.694611 0.082123 0.034241
0.707062 0.082458 0.034424
0.719391 0.082794 0.034607
0.731628 0.083130 0.034790
0.743805 0.083466 0.034973
0.755951 0.083832 0.035187
0.768158 0.084167 0.035370
0.780640 0.084534 0.035583
0.022491 0.052582 0.017487
0.026459 0.052704 0.017548
0.030792 0.052856 0.017609
0.035492 0.053040 0.017670
0.040558 0.053192 0.017761
0.045959 0.053406 0.017822
0.051666 0.053619 0.017914
0.057800 0.053864 0.018036
0.064270 0.054077 0.018127
0.071075 0.054352 0.018250
0.078217 0.054626 0.018372
0.085724 0.054932 0.018494
0.093597 0.055237 0.018616
0.101898 0.055573 0.018768
0.110474 0.055939 0.018921
0.119385 0.056274 0.019073
0.128662 0.056641 0.019226
0.138336 0.057068 0.019409
0.148346 0.057495 0.019592
0.158752 0.057953 0.019775
0.169525 0.058441 0.019989
0.180664 0.058929 0.020203
0.192108 0.059448 0.020447
0.203949 0.059967 0.020660
0.216125 0.060547 0.020905
0.228729 0.061157 0.021179
0.241638 0.061768 0.021454
0.255035 0.062439 0.021759
0.268707 0.063110 0.022034
0.282745 0.063812 0.022339
0.297119 0.064545 0.022675
0.311951 0.065308 0.023041
0.327087 0.066101 0.023376
0.342590 0.066925 0.023743
0.358643 0.067810 0.024170
0.374969 0.068695 0.024567
0.391907 0.069672 0.025024
0.409058 0.070587 0.025452
0.426178 0.071594 0.025940
0.443024 0.072571 0.026398
0.459595 0.073547 0.026855
0.476013 0.074524 0.027344
0.492096 0.075500 0.027802
0.507965 0.076477 0.028290
0.523743 0.077454 0.028778
0.539124 0.078400 0.029266
0.554352 0.079376 0.029755
0.569397 0.080322 0.030243
0.584167 0.081268 0.030731
0.598755 0.082214 0.031219
0.613159 0.083160 0.031708
0.627411 0.084106 0.032227
0.641418 0.085022 0.032715
0.655334 0.085999 0.033234
0.669006 0.086945 0.033752
0.682434 0.087799 0.034210
0.695038 0.088135 0.034424
0.707489 0.088470 0.034607
0.719818 0.088806 0.034790
0.732056 0.089142 0.034973
0.744232 0.089508 0.035156
0.756378 0.089844 0.035370
0.768616 0.090210 0.035553
0.781097 0.090576 0.035767
0.023315 0.059052 0.017670
0.027283 0.059174 0.017731
0.031647 0.059357 0.017792
0.036316 0.059509 0.017883
0.041443 0.059723 0.017944
0.046814 0.059906 0.018036
0.052551 0.060120 0.018127
0.058685 0.060364 0.018250
0.065155 0.060608 0.018341
0.071960 0.060883 0.018463
0.079132 0.061157 0.018585
0.086670 0.061462 0.018707
0.094543 0.061798 0.018860
0.102844 0.062134 0.018982
0.111420 0.062500 0.019135
0.120331 0.062836 0.019287
0.129700 0.063263 0.019470
0.139343 0.063660 0.019653
0.149353 0.064087 0.019836
0.159790 0.064575 0.020050
0.170563 0.065033 0.020233
0.181702 0.065552 0.020477
0.193176 0.066071 0.020691
0.205017 0.066620 0.020935
0.217224 0.067200 0.021179
0.229828 0.067810 0.021454
0.242767 0.068451 0.021729
0.256165 0.069122 0.022034
0.269867 0.069794 0.022339
0.283905 0.070496 0.022644
0.298309 0.071228 0.022980
0.313141 0.072021 0.023346
0.328308 0.072845 0.023712
0.343872 0.073700 0.024078
0.359863 0.074554 0.024506
0.376221 0.075439 0.024902
0.393127 0.076416 0.025360
0.410370 0.077423 0.025848
0.427429 0.078400 0.026276
0.444336 0.079407 0.026794
0.460876 0.080353 0.027252
0.477264 0.081360 0.027740
0.493347 0.082336 0.028198
0.509216 0.083313 0.028687
0.524994 0.084290 0.029205
0.540405 0.085266 0.029694
0.555634 0.086243 0.030182
0.570648 0.087219 0.030670
0.585419 0.088135 0.031158
0.600067 0.089142 0.031677
0.614471 0.090088 0.032196
0.628662 0.091003 0.032684
0.642731 0.091980 0.033203
0.656555 0.092926 0.033722
0.670166 0.093811 0.034210
0.682861 0.094147 0.034393
0.695496 0.094513 0.034607
0.707947 0.094849 0.034790
0.720276 0.095184 0.034973
0.732513 0.095520 0.035156
0.744720 0.095886 0.035370
0.756836 0.096252 0.035553
0.769073 0.096619 0.035767
0.781616 0.096985 0.035980
0.024170 0.065857 0.017883
0.028168 0.065979 0.017944
0.032562 0.066162 0.018005
0.037231 0.066315 0.018097
0.042358 0.066528 0.018188
0.047729 0.066711 0.018250
0.053467 0.066956 0.018341
0.059631 0.067200 0.018463
0.066132 0.067444 0.018555
0.072937 0.067719 0.018677
0.080109 0.067993 0.018799
0.087646 0.068329 0.018951
0.095551 0.068634 0.019073
0.103851 0.069000 0.019226
0.112457 0.069366 0.019379
0.121399 0.069733 0.019531
0.130768 0.070129 0.019714
0.140411 0.070557 0.019897
0.150452 0.070984 0.020081
0.160889 0.071472 0.020294
0.171692 0.071960 0.020508
0.182831 0.072479 0.020752
0.194336 0.073029 0.020966
0.206177 0.073578 0.021210
0.218384 0.074158 0.021484
0.231018 0.074768 0.021759
0.243958 0.075409 0.022034
0.257385 0.076111 0.022339
0.271088 0.076813 0.022644
0.285156 0.077515 0.022949
0.299561 0.078278 0.023315
0.314392 0.079071 0.023682
0.329559 0.079895 0.024048
0.345154 0.080750 0.024445
0.361145 0.081635 0.024841
0.377502 0.082520 0.025269
0.394440 0.083527 0.025726
0.411682 0.084503 0.026215
0.428772 0.085480 0.026672
0.445587 0.086487 0.027161
0.462189 0.087494 0.027649
0.478607 0.088501 0.028137
0.494690 0.089478 0.028625
0.510559 0.090485 0.029144
0.526306 0.091461 0.029633
0.541718 0.092438 0.030121
0.556946 0.093414 0.030640
0.571960 0.094391 0.031158
0.586731 0.095367 0.031647
0.601379 0.096344 0.032166
0.615692 0.097260 0.032654
0.629944 0.098236 0.033203
0.644012 0.099213 0.033722
0.657776 0.100128 0.034210
0.670654 0.100464 0.034424
0.683350 0.100800 0.034607
0.695953 0.101166 0.034790
0.708435 0.101501 0.034973
0.720764 0.101868 0.035187
0.733002 0.102203 0.035370
0.745209 0.102570 0.035583
0.757355 0.102936 0.035767
0.769592 0.103302 0.035980
0.782104 0.103668 0.036194
0.025146 0.073029 0.018097
0.029144 0.073151 0.018158
0.033539 0.073364 0.018250
0.038208 0.073517 0.018311
0.043365 0.073730 0.018402
0.048737 0.073914 0.018494
0.054504 0.074158 0.018585
0.060638 0.074402 0.018707
0.067139 0.074646 0.018799
0.073975 0.074951 0.018921
0.081177 0.075226 0.019043
0.088715 0.075562 0.019196
0.096649 0.075897 0.019318
0.104950 0.076233 0.019470
0.113586 0.076599 0.019653
0.122528 0.076996 0.019806
0.131897 0.077423 0.019989
0.141571 0.077820 0.020172
0.151611 0.078278 0.020386
0.162079 0.078766 0.020569
0.172882 0.079254 0.020782
0.184052 0.079803 0.021027
0.195557 0.080353 0.021271
0.207428 0.080902 0.021515
0.219666 0.081512 0.021790
0.232300 0.082153 0.022064
0.245239 0.082794 0.022339
0.258667 0.083496 0.022675
0.272400 0.084198 0.022980
0.286469 0.084900 0.023315
0.300873 0.085663 0.023651
0.315735 0.086487 0.024017
0.330902 0.087311 0.024414
0.346466 0.088165 0.024780
0.362518 0.089081 0.025238
0.378876 0.089996 0.025665
0.395813 0.091003 0.026123
0.413055 0.092010 0.026611
0.430145 0.092987 0.027100
0.446991 0.093994 0.027588
0.463593 0.095001 0.028076
0.479980 0.096039 0.028595
0.496094 0.097015 0.029083
0.511932 0.098022 0.029602
0.527710 0.099060 0.030121
0.543121 0.100006 0.030609
0.558319 0.101013 0.031128
0.573364 0.101990 0.031647
0.588104 0.102966 0.032135
0.602753 0.103973 0.032684
0.617065 0.104889 0.033203
0.631317 0.105865 0.033722
0.645264 0.106781 0.034241
0.658295 0.107147 0.034424
0.671143 0.107483 0.034607
0.683838 0.107849 0.034790
0.696472 0.108185 0.035004
0.708954 0.108551 0.035187
0.721283 0.108887 0.035400
0.733521 0.109253 0.035583
0.745728 0.109619 0.035797
0.757874 0.109985 0.036011
0.770111 0.110352 0.036224
0.782654 0.110748 0.036438
0.026184 0.080566 0.018341
0.030182 0.080688 0.018402
0.034576 0.080902 0.018494
0.039276 0.081055 0.018555
0.044373 0.081238 0.018646
0.049805 0.081482 0.018738
0.055573 0.081696 0.018860
0.061737 0.081970 0.018951
0.068268 0.082214 0.019073
0.075104 0.082520 0.019196
0.082306 0.082825 0.019318
0.089874 0.083160 0.019470
0.097809 0.083496 0.019592
0.106140 0.083862 0.019775
0.114777 0.084229 0.019928
0.123718 0.084595 0.020081
0.133057 0.085022 0.020264
0.142792 0.085480 0.020477
0.152863 0.085938 0.020660
0.163330 0.086426 0.020874
0.174164 0.086945 0.021118
0.185333 0.087494 0.021332
0.196869 0.088043 0.021606
0.208740 0.088623 0.021851
0.220978 0.089203 0.022125
0.233643 0.089874 0.022400
0.246613 0.090546 0.022705
0.260040 0.091248 0.023010
0.273773 0.091949 0.023346
0.287842 0.092682 0.023682
0.302307 0.093445 0.024017
0.317139 0.094299 0.024414
0.332336 0.095123 0.024780
0.347900 0.095978 0.025208
0.363953 0.096924 0.025635
0.380341 0.097839 0.026062
0.397278 0.098846 0.026550
0.414459 0.099823 0.027039
0.431610 0.100891 0.027527
0.448456 0.101898 0.028046
0.465057 0.102905 0.028534
0.481445 0.103943 0.029053
0.497559 0.104950 0.029572
0.513397 0.105957 0.030090
0.529175 0.106995 0.030609
0.544556 0.107971 0.031128
0.559784 0.108978 0.031647
0.574799 0.109985 0.032166
0.589539 0.110931 0.032684
0.604126 0.111908 0.033203
0.618500 0.112885 0.033752
0.632599 0.113770 0.034241
0.645813 0.114136 0.034424
0.658813 0.114502 0.034637
0.671692 0.114868 0.034821
0.684387 0.115204 0.035034
0.697021 0.115570 0.035217
0.709473 0.115936 0.035431
0.721832 0.116272 0.035645
0.734070 0.116638 0.035828
0.746277 0.117004 0.036041
0.758453 0.117371 0.036255
0.770691 0.117767 0.036469
0.783203 0.118134 0.036682
0.027283 0.088470 0.018616
0.031311 0.088623 0.018677
0.035706 0.088806 0.018768
0.040436 0.088989 0.018829
0.045532 0.089203 0.018921
0.050995 0.089417 0.019012
0.056763 0.089661 0.019104
0.062927 0.089935 0.019226
0.069458 0.090179 0.019348
0.076324 0.090485 0.019470
0.083527 0.090790 0.019592
0.091095 0.091125 0.019745
0.099060 0.091492 0.019897
0.107391 0.091858 0.020081
0.116028 0.092224 0.020233
0.125000 0.092621 0.020386
0.134369 0.093048 0.020569
0.144104 0.093506 0.020782
0.154175 0.093994 0.020996
0.164673 0.094482 0.021210
0.175507 0.095001 0.021423
0.186707 0.095581 0.021667
0.198242 0.096130 0.021942
0.210144 0.096710 0.022186
0.222382 0.097321 0.022461
0.235077 0.097992 0.022766
0.248047 0.098663 0.023071
0.261505 0.099396 0.023376
0.275238 0.100098 0.023712
0.289337 0.100861 0.024048
0.303772 0.101624 0.024414
0.318634 0.102478 0.024811
0.333862 0.103333 0.025208
0.349396 0.104187 0.025604
0.365479 0.105164 0.026062
0.381866 0.106079 0.026520
0.398804 0.107117 0.027008
0.415985 0.108093 0.027496
0.433136 0.109161 0.028015
0.449982 0.110168 0.028534
0.466614 0.111206 0.029053
0.483002 0.112274 0.029572
0.499084 0.113281 0.030090
0.514954 0.114288 0.030609
0.530701 0.115326 0.031158
0.546082 0.116333 0.031677
0.561310 0.117340 0.032196
0.576324 0.118347 0.032745
0.591034 0.119324 0.033264
0.605591 0.120300 0.033813
0.619781 0.121124 0.034271
0.633148 0.121490 0.034454
0.646332 0.121857 0.034668
0.659363 0.122223 0.034851
0.672241 0.122589 0.035065
0.684967 0.122925 0.035278
0.697601 0.123322 0.035461
0.710052 0.123688 0.035675
0.722412 0.124023 0.035889
0.734680 0.124420 0.036072
0.746887 0.124786 0.036285
0.759033 0.125153 0.036499
0.771271 0.125519 0.036713
0.783813 0.125916 0.036926
0.028503 0.096771 0.018890
0.032501 0.096924 0.018951
0.036926 0.097137 0.019043
0.041656 0.097321 0.019104
0.046753 0.097504 0.019196
0.052216 0.097748 0.019318
0.058014 0.097992 0.019409
0.064209 0.098267 0.019531
0.070740 0.098541 0.019653
0.077606 0.098846 0.019775
0.084839 0.099152 0.019928
0.092438 0.099518 0.020081
0.100372 0.099854 0.020203
0.108734 0.100250 0.020386
0.117401 0.100647 0.020569
0.126373 0.101044 0.020721
0.135742 0.101471 0.020905
0.145508 0.101959 0.021118
0.155609 0.102417 0.021332
0.166107 0.102936 0.021576
0.176941 0.103485 0.021790
0.188171 0.104034 0.022034
0.199707 0.104614 0.022308
0.211609 0.105194 0.022552
0.223877 0.105835 0.022858
0.236572 0.106506 0.023132
0.249573 0.107178 0.023468
0.263031 0.107910 0.023804
0.276794 0.108673 0.024139
0.290894 0.109406 0.024475
0.305328 0.110199 0.024841
0.320221 0.111053 0.025238
0.335419 0.111938 0.025665
0.350983 0.112823 0.026062
0.367096 0.113770 0.026520
0.383453 0.114716 0.026978
0.400421 0.115753 0.027496
0.417603 0.116760 0.027985
0.434753 0.117828 0.028534
0.451599 0.118866 0.029053
0.468201 0.119934 0.029572
0.484619 0.120972 0.030121
0.500702 0.122009 0.030640
0.516541 0.123016 0.031158
0.532288 0.124084 0.031708
0.547668 0.125092 0.032257
0.562866 0.126099 0.032806
0.577881 0.127106 0.033356
