custom_nodes/comfyui-vrgamedevgirl/LUTS/Dark_High_Contrast_Vivid_Warm.cube
#Created by: Adobe Photoshop Export Color Lookup Plugin
#Copyright: (C) Copyright 2017 PremiumBeat.com
TITLE "PB_Shadow"
#LUT size
LUT_3D_SIZE 8
#data domain
DOMAIN_MIN 0.0 0.0 0.0
DOMAIN_MAX 1.0 1.0 1.0
#LUT data points
0.000000 0.000000 0.000000
0.000000 0.000000 0.000000
0.000000 0.000000 0.000000
0.221252 0.000000 0.000000
0.526794 0.000000 0.000000
0.783142 0.000000 0.000000
0.936127 0.000000 0.000000
1.000000 0.000000 0.000000
0.000000 0.000000 0.000000
0.000000 0.000000 0.000000
0.000000 0.000000 0.000000
0.221252 0.000000 0.000000
0.526794 0.000000 0.000000
0.783142 0.000000 0.000000
0.936127 0.000000 0.000000
1.000000 0.000000 0.000000
0.000000 0.000000 0.000000
0.000000 0.000000 0.000000
0.000000 0.000000 0.000000
0.221252 0.000000 0.000000
0.526794 0.000000 0.000000
0.783142 0.000000 0.000000
0.936127 0.000000 0.000000
1.000000 0.000000 0.000000
0.000000 0.245667 0.000000
0.000000 0.245667 0.000000
0.000000 0.245667 0.000000
0.221252 0.245667 0.000000
0.526794 0.245667 0.000000
0.783142 0.245667 0.000000
0.936127 0.245667 0.000000
1.000000 0.245667 0.000000
0.000000 0.509796 0.000000
0.000000 0.509796 0.000000
0.000000 0.509796 0.000000
0.221252 0.509796 0.000000
0.526794 0.509796 0.000000
0.783142 0.509796 0.000000
0.936127 0.509796 0.000000
1.000000 0.509796 0.000000
0.000000 0.738312 0.000000
0.000000 0.738312 0.000000
0.000000 0.738312 0.000000
0.221252 0.738312 0.000000
0.526794 0.738312 0.000000
0.783142 0.738312 0.000000
0.936127 0.738312 0.000000
1.000000 0.738312 0.000000
0.000000 0.914551 0.000000
0.000000 0.914551 0.000000
0.000000 0.914551 0.000000
0.221252 0.914551 0.000000
0.526794 0.914551 0.000000
0.783142 0.914551 0.000000
0.936127 0.914551 0.000000
1.000000 0.914551 0.000000
0.000000 0.999969 0.000000
0.000000 0.999969 0.000000
0.000000 0.999969 0.000000
0.221252 0.999969 0.000000
0.526794 0.999969 0.000000
0.783142 0.999969 0.000000
0.936127 0.999969 0.000000
1.000000 0.999969 0.000000
0.000000 0.000000 0.000000
0.000000 0.000000 0.000000
0.000000 0.000000 0.000000
0.221252 0.000000 0.000000
0.526794 0.000000 0.000000
0.783142 0.000000 0.000000
0.936127 0.000000 0.000000
1.000000 0.000000 0.000000
0.000000 0.000000 0.000000
0.000000 0.000000 0.000000
0.000000 0.000000 0.000000
0.221252 0.000000 0.000000
0.526794 0.000000 0.000000
0.783142 0.000000 0.000000
0.936127 0.000000 0.000000
1.000000 0.000000 0.000000
0.000000 0.000000 0.000000
0.000000 0.000000 0.000000
0.000000 0.000000 0.000000
0.221252 0.000000 0.000000
0.526794 0.000000 0.000000
0.783142 0.000000 0.000000
0.936127 0.000000 0.000000
1.000000 0.000000 0.000000
0.000000 0.245667 0.000000
0.000000 0.245667 0.000000
0.000000 0.245667 0.000000
0.221252 0.245667 0.000000
0.526794 0.245667 0.000000
0.783142 0.245667 0.000000
0.936127 0.245667 0.000000
1.000000 0.245667 0.000000
0.000000 0.509796 0.000000
0.000000 0.509796 0.000000
0.000000 0.509796 0.000000
0.221252 0.509796 0.000000
0.526794 0.509796 0.000000
0.783142 0.509796 0.000000
0.936127 0.509796 0.000000
1.000000 0.509796 0.000000
0.000000 0.738312 0.000000
0.000000 0.738312 0.000000
0.000000 0.738312 0.000000
0.221252 0.738312 0.000000
0.526794 0.738312 0.000000
0.783142 0.738312 0.000000
0.936127 0.738312 0.000000
1.000000 0.738312 0.000000
0.000000 0.914551 0.000000
0.000000 0.914551 0.000000
0.000000 0.914551 0.000000
0.221252 0.914551 0.000000
0.526794 0.914551 0.000000
0.783142 0.914551 0.000000
0.936127 0.914551 0.000000
1.000000 0.914551 0.000000
0.000000 0.999969 0.000000
0.000000 0.999969 0.000000
0.000000 0.999969 0.000000
0.221252 0.999969 0.000000
0.526794 0.999969 0.000000
0.783142 0.999969 0.000000
0.936127 0.999969 0.000000
1.000000 0.999969 0.000000
0.000000 0.000000 0.000000
0.000000 0.000000 0.000000
0.000000 0.000000 0.000000
0.221252 0.000000 0.000000
0.526794 0.000000 0.000000
0.783142 0.000000 0.000000
0.936127 0.000000 0.000000
1.000000 0.000000 0.000000
0.000000 0.000000 0.000000
0.000000 0.000000 0.000000
0.000000 0.000000 0.000000
0.221252 0.000000 0.000000
0.526794 0.000000 0.000000
0.783142 0.000000 0.000000
0.936127 0.000000 0.000000
1.000000 0.000000 0.000000
0.000000 0.000000 0.000000
0.000000 0.000000 0.000000
0.000000 0.000000 0.000000
0.221252 0.000000 0.000000
0.526794 0.000000 0.000000
0.783142 0.000000 0.000000
0.936127 0.000000 0.000000
1.000000 0.000000 0.000000
0.000000 0.245667 0.000000
0.000000 0.245667 0.000000
0.000000 0.245667 0.000000
0.221252 0.245667 0.000000
0.526794 0.245667 0.000000
0.783142 0.245667 0.000000
0.936127 0.245667 0.000000
1.000000 0.245667 0.000000
0.000000 0.509796 0.000000
0.000000 0.509796 0.000000
0.000000 0.509796 0.000000
0.221252 0.509796 0.000000
0.526794 0.509796 0.000000
0.783142 0.509796 0.000000
0.936127 0.509796 0.000000
1.000000 0.509796 0.000000
0.000000 0.738312 0.000000
0.000000 0.738312 0.000000
0.000000 0.738312 0.000000
0.221252 0.738312 0.000000
0.526794 0.738312 0.000000
0.783142 0.738312 0.000000
0.936127 0.738312 0.000000
1.000000 0.738312 0.000000
0.000000 0.914551 0.000000
0.000000 0.914551 0.000000
0.000000 0.914551 0.000000
0.221252 0.914551 0.000000
0.526794 0.914551 0.000000
0.783142 0.914551 0.000000
0.936127 0.914551 0.000000
1.000000 0.914551 0.000000
0.000000 0.999969 0.000000
0.000000 0.999969 0.000000
0.000000 0.999969 0.000000
0.221252 0.999969 0.000000
0.526794 0.999969 0.000000
0.783142 0.999969 0.000000
0.936127 0.999969 0.000000
1.000000 0.999969 0.000000
0.000000 0.000000 0.272400
0.000000 0.000000 0.272400
0.000000 0.000000 0.272400
0.221252 0.000000 0.272400
0.526794 0.000000 0.272400
0.783142 0.000000 0.272400
0.936127 0.000000 0.272400
1.000000 0.000000 0.272400
0.000000 0.000000 0.272400
0.000000 0.000000 0.272400
0.000000 0.000000 0.272400
0.221252 0.000000 0.272400
0.526794 0.000000 0.272400
0.783142 0.000000 0.272400
0.936127 0.000000 0.272400
1.000000 0.000000 0.272400
0.000000 0.000000 0.272400
0.000000 0.000000 0.272400
0.000000 0.000000 0.272400
0.221252 0.000000 0.272400
0.526794 0.000000 0.272400
0.783142 0.000000 0.272400
0.936127 0.000000 0.272400
1.000000 0.000000 0.272400
0.000000 0.245667 0.272400
0.000000 0.245667 0.272400
0.000000 0.245667 0.272400
0.221252 0.245667 0.272400
0.526794 0.245667 0.272400
0.783142 0.245667 0.272400
0.936127 0.245667 0.272400
1.000000 0.245667 0.272400
0.000000 0.509796 0.272400
0.000000 0.509796 0.272400
0.000000 0.509796 0.272400
0.221252 0.509796 0.272400
0.526794 0.509796 0.272400
0.783142 0.509796 0.272400
0.936127 0.509796 0.272400
1.000000 0.509796 0.272400
0.000000 0.738312 0.272400
0.000000 0.738312 0.272400
0.000000 0.738312 0.272400
0.221252 0.738312 0.272400
0.526794 0.738312 0.272400
0.783142 0.738312 0.272400
0.936127 0.738312 0.272400
1.000000 0.738312 0.272400
0.000000 0.914551 0.272400
0.000000 0.914551 0.272400
0.000000 0.914551 0.272400
0.221252 0.914551 0.272400
0.526794 0.914551 0.272400
0.783142 0.914551 0.272400
0.936127 0.914551 0.272400
1.000000 0.914551 0.272400
0.000000 0.999969 0.272400
0.000000 0.999969 0.272400
0.000000 0.999969 0.272400
0.221252 0.999969 0.272400
0.526794 0.999969 0.272400
0.783142 0.999969 0.272400
0.936127 0.999969 0.272400
1.000000 0.999969 0.272400
0.000000 0.000000 0.532440
0.000000 0.000000 0.532440
0.000000 0.000000 0.532440
0.221252 0.000000 0.532440
0.526794 0.000000 0.532440
0.783142 0.000000 0.532440
0.936127 0.000000 0.532440
1.000000 0.000000 0.532440
0.000000 0.000000 0.532440
0.000000 0.000000 0.532440
0.000000 0.000000 0.532440
0.221252 0.000000 0.532440
0.526794 0.000000 0.532440
0.783142 0.000000 0.532440
0.936127 0.000000 0.532440
1.000000 0.000000 0.532440
0.000000 0.000000 0.532440
0.000000 0.000000 0.532440
0.000000 0.000000 0.532440
0.221252 0.000000 0.532440
0.526794 0.000000 0.532440
0.783142 0.000000 0.532440
0.936127 0.000000 0.532440
1.000000 0.000000 0.532440
0.000000 0.245667 0.532440
0.000000 0.245667 0.532440
0.000000 0.245667 0.532440
0.221252 0.245667 0.532440
0.526794 0.245667 0.532440
0.783142 0.245667 0.532440
0.936127 0.245667 0.532440
1.000000 0.245667 0.532440
0.000000 0.509796 0.532440
0.000000 0.509796 0.532440
0.000000 0.509796 0.532440
0.221252 0.509796 0.532440
0.526794 0.509796 0.532440
0.783142 0.509796 0.532440
0.936127 0.509796 0.532440
1.000000 0.509796 0.532440
0.000000 0.738312 0.532440
0.000000 0.738312 0.532440
0.000000 0.738312 0.532440
0.221252 0.738312 0.532440
0.526794 0.738312 0.532440
0.783142 0.738312 0.532440
0.936127 0.738312 0.532440
1.000000 0.738312 0.532440
0.000000 0.914551 0.532440
0.000000 0.914551 0.532440
0.000000 0.914551 0.532440
0.221252 0.914551 0.532440
0.526794 0.914551 0.532440
0.783142 0.914551 0.532440
0.936127 0.914551 0.532440
1.000000 0.914551 0.532440
0.000000 0.999969 0.532440
0.000000 0.999969 0.532440
0.000000 0.999969 0.532440
0.221252 0.999969 0.532440
0.526794 0.999969 0.532440
0.783142 0.999969 0.532440
0.936127 0.999969 0.532440
1.000000 0.999969 0.532440
0.000000 0.000000 0.732788
0.000000 0.000000 0.732788
0.000000 0.000000 0.732788
0.221252 0.000000 0.732788
0.526794 0.000000 0.732788
0.783142 0.000000 0.732788
0.936127 0.000000 0.732788
1.000000 0.000000 0.732788
0.000000 0.000000 0.732788
0.000000 0.000000 0.732788
0.000000 0.000000 0.732788
0.221252 0.000000 0.732788
0.526794 0.000000 0.732788
0.783142 0.000000 0.732788
0.936127 0.000000 0.732788
1.000000 0.000000 0.732788
0.000000 0.000000 0.732788
0.000000 0.000000 0.732788
0.000000 0.000000 0.732788
0.221252 0.000000 0.732788
0.526794 0.000000 0.732788
0.783142 0.000000 0.732788
0.936127 0.000000 0.732788
1.000000 0.000000 0.732788
0.000000 0.245667 0.732788
0.000000 0.245667 0.732788
0.000000 0.245667 0.732788
0.221252 0.245667 0.732788
0.526794 0.245667 0.732788
0.783142 0.245667 0.732788
0.936127 0.245667 0.732788
1.000000 0.245667 0.732788
0.000000 0.509796 0.732788
0.000000 0.509796 0.732788
0.000000 0.509796 0.732788
0.221252 0.509796 0.732788
0.526794 0.509796 0.732788
0.783142 0.509796 0.732788
0.936127 0.509796 0.732788
1.000000 0.509796 0.732788
0.000000 0.738312 0.732788
0.000000 0.738312 0.732788
0.000000 0.738312 0.732788
0.221252 0.738312 0.732788
0.526794 0.738312 0.732788
0.783142 0.738312 0.732788
0.936127 0.738312 0.732788
1.000000 0.738312 0.732788
0.000000 0.914551 0.732788
0.000000 0.914551 0.732788
0.000000 0.914551 0.732788
0.221252 0.914551 0.732788
0.526794 0.914551 0.732788
0.783142 0.914551 0.732788
0.936127 0.914551 0.732788
1.000000 0.914551 0.732788
0.000000 0.999969 0.732788
0.000000 0.999969 0.732788
0.000000 0.999969 0.732788
0.221252 0.999969 0.732788
0.526794 0.999969 0.732788
0.783142 0.999969 0.732788
0.936127 0.999969 0.732788
1.000000 0.999969 0.732788
0.000000 0.000000 0.903961
0.000000 0.000000 0.903961
0.000000 0.000000 0.903961
0.221252 0.000000 0.903961
0.526794 0.000000 0.903961
0.783142 0.000000 0.903961
0.936127 0.000000 0.903961
1.000000 0.000000 0.903961
0.000000 0.000000 0.903961
0.000000 0.000000 0.903961
0.000000 0.000000 0.903961
0.221252 0.000000 0.903961
0.526794 0.000000 0.903961
0.783142 0.000000 0.903961
0.936127 0.000000 0.903961
1.000000 0.000000 0.903961
0.000000 0.000000 0.903961
0.000000 0.000000 0.903961
0.000000 0.000000 0.903961
0.221252 0.000000 0.903961
0.526794 0.000000 0.903961
0.783142 0.000000 0.903961
0.936127 0.000000 0.903961
1.000000 0.000000 0.903961
0.000000 0.245667 0.903961
0.000000 0.245667 0.903961
0.000000 0.245667 0.903961
0.221252 0.245667 0.903961
0.526794 0.245667 0.903961
0.783142 0.245667 0.903961
0.936127 0.245667 0.903961
1.000000 0.245667 0.903961
0.000000 0.509796 0.903961
0.000000 0.509796 0.903961
0.000000 0.509796 0.903961
0.221252 0.509796 0.903961
0.526794 0.509796 0.903961
0.783142 0.509796 0.903961
0.936127 0.509796 0.903961
1.000000 0.509796 0.903961
0.000000 0.738312 0.903961
0.000000 0.738312 0.903961
0.000000 0.738312 0.903961
0.221252 0.738312 0.903961
0.526794 0.738312 0.903961
0.783142 0.738312 0.903961
0.936127 0.738312 0.903961
1.000000 0.738312 0.903961
0.000000 0.914551 0.903961
0.000000 0.914551 0.903961
0.000000 0.914551 0.903961
0.221252 0.914551 0.903961
0.526794 0.914551 0.903961
0.783142 0.914551 0.903961
0.936127 0.914551 0.903961
1.000000 0.914551 0.903961
0.000000 0.999969 0.903961
0.000000 0.999969 0.903961
0.000000 0.999969 0.903961
0.221252 0.999969 0.903961
0.526794 0.999969 0.903961
0.783142 0.999969 0.903961
0.936127 0.999969 0.903961
1.000000 0.999969 0.903961
0.000000 0.000000 0.999969
0.000000 0.000000 0.999969
0.000000 0.000000 0.999969
0.221252 0.000000 0.999969
0.526794 0.000000 0.999969
0.783142 0.000000 0.999969
0.936127 0.000000 0.999969
1.000000 0.000000 0.999969
0.000000 0.000000 0.999969
0.000000 0.000000 0.999969
0.000000 0.000000 0.999969
0.221252 0.000000 0.999969
0.526794 0.000000 0.999969
0.783142 0.000000 0.999969
0.936127 0.000000 0.999969
1.000000 0.000000 0.999969
0.000000 0.000000 0.999969
0.000000 0.000000 0.999969
0.000000 0.000000 0.999969
0.221252 0.000000 0.999969
0.526794 0.000000 0.999969
0.783142 0.000000 0.999969
0.936127 0.000000 0.999969
1.000000 0.000000 0.999969
0.000000 0.245667 0.999969
0.000000 0.245667 0.999969
0.000000 0.245667 0.999969
0.221252 0.245667 0.999969
0.526794 0.245667 0.999969
0.783142 0.245667 0.999969
0.936127 0.245667 0.999969
1.000000 0.245667 0.999969
0.000000 0.509796 0.999969
0.000000 0.509796 0.999969
0.000000 0.509796 0.999969
0.221252 0.509796 0.999969
0.526794 0.509796 0.999969
0.783142 0.509796 0.999969
0.936127 0.509796 0.999969
1.000000 0.509796 0.999969
0.000000 0.738312 0.999969
0.000000 0.738312 0.999969
0.000000 0.738312 0.999969
0.221252 0.738312 0.999969
0.526794 0.738312 0.999969
0.783142 0.738312 0.999969
0.936127 0.738312 0.999969
1.000000 0.738312 0.999969
0.000000 0.914551 0.999969
0.000000 0.914551 0.999969
0.000000 0.914551 0.999969
0.221252 0.914551 0.999969
0.526794 0.914551 0.999969
0.783142 0.914551 0.999969
0.936127 0.914551 0.999969
1.000000 0.914551 0.999969
0.000000 0.999969 0.999969
0.000000 0.999969 0.999969
0.000000 0.999969 0.999969
0.221252 0.999969 0.999969
0.526794 0.999969 0.999969
0.783142 0.999969 0.999969
0.936127 0.999969 0.999969
1.000000 0.999969 0.999969
