custom_nodes/comfyui-vrgamedevgirl/LUTS/Dark_Soft_Vivid_Cinematic.cube
#Created by: Adobe Photoshop Export Color Lookup Plugin
#Copyright: (C) Copyright 2017 PremiumBeat.com
TITLE "Hopkins"
#LUT size
LUT_3D_SIZE 64
#data domain
DOMAIN_MIN 0.0 0.0 0.0
DOMAIN_MAX 1.0 1.0 1.0
#LUT data points
0.021667 0.017365 0.009125
0.021820 0.017395 0.009155
0.022339 0.017426 0.009186
0.023132 0.017517 0.009308
0.024353 0.017670 0.009460
0.025970 0.017822 0.009613
0.027985 0.018036 0.009827
0.030426 0.018311 0.010071
0.033478 0.018646 0.010406
0.036713 0.018921 0.010681
0.040680 0.019318 0.011108
0.045013 0.019745 0.011505
0.049866 0.020264 0.011993
0.055267 0.020874 0.012604
0.061340 0.021606 0.013306
0.067902 0.022369 0.014038
0.075195 0.023315 0.014862
0.083344 0.024414 0.015808
0.096191 0.026093 0.017242
0.110840 0.028015 0.019043
0.125031 0.030182 0.021271
0.139862 0.032013 0.023102
0.155243 0.033356 0.024261
0.171478 0.033722 0.024567
0.188629 0.032898 0.023621
0.206573 0.030701 0.021240
0.225586 0.026947 0.017334
0.245667 0.021942 0.012146
0.266754 0.016846 0.006744
0.288666 0.014221 0.003967
0.311218 0.015015 0.004700
0.334717 0.015991 0.005615
0.358856 0.016998 0.006622
0.383514 0.018250 0.007751
0.408691 0.019623 0.009003
0.434174 0.021088 0.010406
0.454437 0.022400 0.011627
0.472076 0.023499 0.012756
0.489532 0.024658 0.013855
0.506470 0.025879 0.014984
0.523041 0.027100 0.016113
0.539185 0.028320 0.017273
0.554779 0.029663 0.018402
0.569916 0.030823 0.019592
0.584503 0.032135 0.020752
0.598450 0.033447 0.021881
0.611694 0.034698 0.023010
0.624390 0.035736 0.024109
0.636292 0.037079 0.025146
0.647491 0.038147 0.026184
0.657867 0.039154 0.027161
0.667450 0.040192 0.028046
0.676331 0.041016 0.028931
0.684845 0.041809 0.029755
0.693390 0.042725 0.030609
0.702362 0.043549 0.031525
0.712219 0.044647 0.032562
0.723480 0.045746 0.033813
0.736877 0.047119 0.035278
0.753021 0.048889 0.037109
0.773010 0.050934 0.039429
0.797638 0.053375 0.042297
0.827240 0.056519 0.045715
0.862518 0.060425 0.049835
0.021667 0.017487 0.009125
0.021820 0.017517 0.009155
0.022308 0.017700 0.009216
0.023071 0.017914 0.009277
0.024292 0.018219 0.009399
0.025879 0.018463 0.009552
0.027893 0.018860 0.009735
0.030304 0.019287 0.009979
0.033264 0.019745 0.010284
0.036560 0.020203 0.010590
0.040466 0.020721 0.010925
0.044861 0.021332 0.011322
0.049713 0.022003 0.011841
0.055084 0.022797 0.012421
0.061157 0.023682 0.013062
0.067749 0.024628 0.013794
0.075012 0.025757 0.014648
0.083160 0.026978 0.015564
0.096008 0.028839 0.016937
0.110718 0.030914 0.018738
0.124908 0.033356 0.020935
0.139709 0.035400 0.022736
0.155151 0.036926 0.023895
0.171387 0.037506 0.024139
0.188507 0.036957 0.023193
0.206451 0.034973 0.020813
0.225494 0.031342 0.016846
0.245544 0.026611 0.011627
0.266663 0.021729 0.006226
0.288544 0.019318 0.003418
0.311188 0.020264 0.004120
0.334625 0.021515 0.005005
0.358765 0.022797 0.006012
0.383453 0.024261 0.007111
0.408600 0.025787 0.008331
0.434052 0.027435 0.009674
0.454315 0.028839 0.010895
0.472046 0.029999 0.012024
0.489441 0.031128 0.013153
0.506409 0.032410 0.014282
0.522980 0.033630 0.015411
0.539154 0.034973 0.016571
0.554718 0.036133 0.017731
0.569824 0.037384 0.018890
0.584381 0.038757 0.020020
0.598328 0.039886 0.021179
0.611664 0.041107 0.022308
0.624237 0.042206 0.023407
0.636200 0.043365 0.024445
0.647430 0.044342 0.025482
0.657806 0.045227 0.026459
0.667419 0.046173 0.027374
0.676300 0.047028 0.028229
0.684784 0.047821 0.029053
0.693298 0.048645 0.029907
0.702301 0.049500 0.030823
0.712189 0.050323 0.031860
0.723480 0.051392 0.033081
0.736755 0.052704 0.034546
0.752930 0.054260 0.036407
0.772980 0.056213 0.038727
0.797607 0.058716 0.041595
0.827209 0.061615 0.045044
0.862457 0.065125 0.049225
0.021606 0.017914 0.009094
0.021912 0.017975 0.009155
0.022278 0.018005 0.009186
0.023041 0.018280 0.009216
0.024231 0.018707 0.009338
0.025818 0.019196 0.009460
0.027802 0.019684 0.009674
0.030212 0.020264 0.009857
0.033142 0.020844 0.010193
0.036377 0.021515 0.010437
0.040314 0.022186 0.010773
0.044647 0.023010 0.011200
0.049500 0.023834 0.011627
0.054932 0.024780 0.012207
0.060974 0.025879 0.012848
0.067535 0.027008 0.013550
0.074829 0.028351 0.014374
0.082916 0.029724 0.015289
0.095856 0.031738 0.016663
0.110535 0.034149 0.018372
0.124756 0.036804 0.020569
0.139557 0.039032 0.022339
0.155029 0.040649 0.023499
0.171265 0.041443 0.023712
0.188385 0.041199 0.022736
0.206360 0.039429 0.020325
0.225372 0.036163 0.016327
0.245422 0.031647 0.011047
0.266510 0.027008 0.005646
0.288391 0.024780 0.002808
0.311066 0.026001 0.003510
0.334564 0.027374 0.004364
0.358673 0.028900 0.005341
0.383331 0.030548 0.006409
0.408508 0.032318 0.007599
0.433929 0.034363 0.008911
0.454254 0.035767 0.010101
0.471954 0.036926 0.011230
0.489349 0.038116 0.012390
0.506317 0.039368 0.013519
0.522888 0.040527 0.014679
0.539062 0.041748 0.015808
0.554626 0.042877 0.016968
0.569763 0.043945 0.018158
0.584290 0.045227 0.019287
0.598328 0.046326 0.020447
0.611572 0.047455 0.021576
0.624237 0.048492 0.022675
0.636139 0.049438 0.023743
0.647339 0.050415 0.024750
0.657715 0.051300 0.025696
0.667328 0.052063 0.026611
0.676239 0.052826 0.027466
0.684692 0.053497 0.028320
0.693237 0.054321 0.029175
0.702209 0.055054 0.030090
0.712128 0.055908 0.031097
0.723419 0.057037 0.032318
0.736755 0.058136 0.033813
0.752899 0.059723 0.035645
0.772980 0.061401 0.038025
0.797577 0.063721 0.040924
0.827179 0.066498 0.044373
0.862427 0.069916 0.048584
0.021545 0.018555 0.009033
0.022003 0.018616 0.009094
0.022491 0.018677 0.009155
0.023010 0.018707 0.009186
0.024170 0.019257 0.009277
0.025726 0.019867 0.009399
0.027710 0.020538 0.009552
0.030090 0.021240 0.009766
0.033020 0.022064 0.010040
0.036224 0.022797 0.010284
0.040161 0.023712 0.010590
0.044464 0.024628 0.011017
0.049316 0.025665 0.011444
0.054718 0.026764 0.012024
0.060791 0.028046 0.012634
0.067322 0.029419 0.013306
0.074677 0.030914 0.014130
0.082733 0.032532 0.014984
0.095642 0.034912 0.016327
0.110413 0.037506 0.018036
0.124634 0.040192 0.020203
0.139404 0.042542 0.021973
0.154877 0.044250 0.023071
0.171143 0.045258 0.023285
0.188232 0.045135 0.022278
0.206268 0.043762 0.019806
0.225281 0.041016 0.015808
0.245361 0.036713 0.010468
0.266449 0.032288 0.005066
0.288330 0.030304 0.002197
0.311005 0.031677 0.002869
0.334503 0.033417 0.003723
0.358582 0.035187 0.004669
0.383240 0.037201 0.005707
0.408386 0.039185 0.006866
0.433899 0.041290 0.008179
0.454163 0.042694 0.009308
0.471863 0.043762 0.010437
0.489227 0.044769 0.011597
0.506256 0.045929 0.012787
0.522827 0.047028 0.013916
0.538971 0.048126 0.015076
0.554565 0.049225 0.016235
0.569672 0.050293 0.017395
0.584290 0.051331 0.018555
0.598236 0.052338 0.019684
0.611511 0.053345 0.020813
0.624176 0.054230 0.021912
0.636017 0.055176 0.022980
0.647278 0.056091 0.023987
0.657684 0.056915 0.024963
0.667267 0.057617 0.025879
0.676178 0.058411 0.026733
0.684662 0.059113 0.027557
0.693207 0.059753 0.028442
0.702148 0.060608 0.029327
0.712067 0.061340 0.030365
0.723419 0.062225 0.031555
0.736694 0.063446 0.033020
0.752869 0.064758 0.034882
0.772888 0.066467 0.037231
0.797516 0.068604 0.040161
0.827118 0.071259 0.043671
0.862366 0.074371 0.047913
0.021423 0.019531 0.008911
0.022095 0.019623 0.009003
0.022736 0.019684 0.009064
0.023438 0.019745 0.009155
0.024109 0.019836 0.009216
0.025665 0.020569 0.009338
0.027618 0.021454 0.009460
0.029968 0.022339 0.009705
0.032898 0.023224 0.009888
0.036072 0.024170 0.010132
0.039978 0.025208 0.010437
0.044312 0.026337 0.010834
0.049133 0.027557 0.011261
0.054535 0.028809 0.011810
0.060547 0.030334 0.012390
0.067139 0.031860 0.013123
0.074463 0.033569 0.013855
0.082520 0.035522 0.014679
0.095428 0.038055 0.016022
0.110260 0.040771 0.017670
0.124451 0.043518 0.019836
0.139313 0.045929 0.021576
0.154785 0.047882 0.022644
0.170990 0.048981 0.022827
0.188141 0.049133 0.021790
0.206146 0.048035 0.019318
0.225159 0.045593 0.015289
0.245209 0.041931 0.009857
0.266296 0.037964 0.004486
0.288239 0.036102 0.001587
0.310852 0.037750 0.002228
0.334351 0.039703 0.003052
0.358490 0.041595 0.003967
0.383148 0.043457 0.005005
0.408295 0.045502 0.006165
0.433807 0.047729 0.007416
0.454041 0.049042 0.008545
0.471802 0.050049 0.009613
0.489136 0.050964 0.010803
0.506195 0.052032 0.011963
0.522766 0.052979 0.013153
0.538910 0.053955 0.014313
0.554504 0.054962 0.015472
0.569641 0.056000 0.016632
0.584198 0.056946 0.017792
0.598114 0.057922 0.018951
0.611420 0.058929 0.020050
0.624115 0.059875 0.021149
0.636017 0.060669 0.022217
0.647217 0.061462 0.023254
0.657593 0.062195 0.024200
0.667175 0.062927 0.025116
0.676086 0.063568 0.025970
0.684601 0.064178 0.026825
0.693085 0.064911 0.027649
0.702087 0.065582 0.028564
0.712036 0.066345 0.029602
0.723297 0.067291 0.030792
0.736603 0.068329 0.032257
0.752838 0.069550 0.034119
0.772888 0.071167 0.036469
0.797455 0.073212 0.039429
0.827087 0.075714 0.042969
0.862335 0.078644 0.047272
0.021301 0.020844 0.008759
0.022095 0.020935 0.008881
0.022949 0.021057 0.009003
0.023743 0.021118 0.009064
0.024658 0.021271 0.009155
0.025574 0.021362 0.009247
0.027527 0.022278 0.009430
0.029846 0.023346 0.009583
0.032745 0.024414 0.009766
0.035919 0.025543 0.010010
0.039795 0.026703 0.010254
0.044128 0.028046 0.010651
0.048920 0.029419 0.011047
0.054291 0.030945 0.011566
0.060364 0.032593 0.012146
0.066956 0.034393 0.012878
0.074280 0.036377 0.013550
0.082336 0.038483 0.014374
0.095245 0.041138 0.015717
0.110107 0.043976 0.017303
0.124268 0.046814 0.019440
0.139160 0.049316 0.021149
0.154633 0.051208 0.022217
0.170868 0.052551 0.022369
0.188019 0.052856 0.021301
0.206024 0.052094 0.018799
0.225037 0.050079 0.014740
0.245117 0.046783 0.009277
0.266205 0.043182 0.003906
0.288055 0.041779 0.000977
0.310791 0.043518 0.001587
0.334259 0.045471 0.002380
0.358368 0.047516 0.003265
0.383057 0.049561 0.004272
0.408203 0.051880 0.005371
0.433685 0.054016 0.006592
0.454010 0.055298 0.007721
0.471710 0.056122 0.008820
0.489075 0.057037 0.009918
0.506104 0.058075 0.011108
0.522705 0.059021 0.012329
0.538818 0.059937 0.013519
0.554443 0.060822 0.014679
0.569519 0.061829 0.015808
0.584076 0.062744 0.016968
0.598083 0.063568 0.018127
0.611328 0.064514 0.019226
0.624023 0.065216 0.020355
0.635925 0.066132 0.021393
0.647156 0.066864 0.022430
0.657501 0.067688 0.023376
0.667175 0.068237 0.024323
0.676025 0.068970 0.025146
0.684540 0.069611 0.026001
0.693085 0.070099 0.026855
0.702057 0.070831 0.027771
0.711945 0.071472 0.028778
0.723267 0.072327 0.029968
0.736542 0.073395 0.031403
0.752747 0.074615 0.033234
0.772766 0.076050 0.035614
0.797394 0.078003 0.038605
0.826996 0.080383 0.042175
0.862213 0.083252 0.046478
0.021301 0.022736 0.008850
0.022186 0.022705 0.008820
0.023102 0.022736 0.008850
0.024139 0.022858 0.008942
0.025269 0.022949 0.009094
0.026337 0.023102 0.009216
0.027435 0.023224 0.009308
0.029724 0.024384 0.009460
0.032623 0.025665 0.009613
0.035767 0.026947 0.009857
0.039612 0.028320 0.010132
0.043884 0.029785 0.010468
0.048737 0.031342 0.010864
0.054108 0.033112 0.011353
0.060181 0.034973 0.011902
0.066711 0.037018 0.012573
0.074005 0.039154 0.013275
0.082123 0.041412 0.014069
0.095032 0.044159 0.015411
0.109924 0.047150 0.016937
0.124115 0.050049 0.019043
0.139008 0.052551 0.020752
0.154449 0.054565 0.021790
0.170746 0.055908 0.021942
0.187927 0.056458 0.020844
0.205902 0.055939 0.018280
0.224884 0.054169 0.014221
0.244965 0.051361 0.008698
0.266052 0.048401 0.003296
0.287994 0.047455 0.000305
0.310638 0.049316 0.000885
0.334167 0.051453 0.001648
0.358276 0.053528 0.002502
0.382935 0.055786 0.003448
0.408081 0.058197 0.004517
0.433594 0.060730 0.005707
0.453857 0.061920 0.006805
0.471588 0.062805 0.007874
0.488953 0.063599 0.008972
0.505981 0.064453 0.010132
0.522583 0.065308 0.011353
0.538727 0.066223 0.012573
0.554291 0.067017 0.013733
0.569427 0.067932 0.014893
0.584015 0.068878 0.016052
0.597992 0.069672 0.017181
0.611267 0.070465 0.018311
0.623932 0.071259 0.019409
0.635864 0.071960 0.020477
0.647064 0.072632 0.021515
0.657471 0.073364 0.022461
0.667053 0.073944 0.023376
0.675934 0.074524 0.024231
0.684479 0.075104 0.025085
0.692993 0.075623 0.025940
0.701965 0.076233 0.026855
0.711914 0.076935 0.027863
0.723145 0.077698 0.029053
0.736542 0.078674 0.030487
0.752716 0.079895 0.032288
0.772766 0.081299 0.034668
0.797394 0.083191 0.037659
0.826904 0.085510 0.041290
0.862213 0.088226 0.045624
0.021423 0.025055 0.009003
0.022461 0.025024 0.008972
0.023468 0.024963 0.008911
0.024567 0.024933 0.008881
0.025757 0.025024 0.008942
0.027008 0.025177 0.009064
0.028290 0.025330 0.009186
0.029602 0.025482 0.009338
0.032440 0.026917 0.009491
0.035583 0.028381 0.009674
0.039429 0.029968 0.009949
0.043701 0.031586 0.010254
0.048553 0.033386 0.010620
0.053864 0.035278 0.011108
0.059967 0.037415 0.011658
0.066528 0.039642 0.012268
0.073792 0.041840 0.013000
0.081879 0.044098 0.013824
0.094849 0.047089 0.015106
0.109741 0.050110 0.016571
0.123962 0.052979 0.018646
0.138885 0.055634 0.020325
0.154297 0.057800 0.021362
0.170624 0.059418 0.021454
0.187714 0.060211 0.020325
0.205719 0.060028 0.017731
0.224762 0.058594 0.013611
0.244843 0.056274 0.008057
0.265930 0.053802 0.002594
0.287903 0.053040 0.000000
0.310516 0.055267 0.000122
0.333984 0.057587 0.000824
0.358154 0.059967 0.001617
0.382812 0.062378 0.002533
0.407990 0.064972 0.003540
0.433441 0.067474 0.004669
0.453735 0.068878 0.005768
0.471466 0.069611 0.006805
0.488861 0.070312 0.007935
0.505890 0.071136 0.009033
0.522491 0.071930 0.010223
0.538605 0.072693 0.011475
0.554230 0.073517 0.012695
0.569305 0.074280 0.013855
0.583862 0.075073 0.015015
0.597870 0.075836 0.016144
0.611176 0.076599 0.017273
0.623840 0.077362 0.018372
0.635742 0.078003 0.019440
0.646973 0.078644 0.020477
0.657440 0.079315 0.021423
0.666992 0.079987 0.022339
0.675873 0.080566 0.023193
0.684357 0.081024 0.024048
0.692902 0.081635 0.024872
0.701904 0.082153 0.025787
0.711792 0.082794 0.026825
0.723114 0.083618 0.028015
0.736481 0.084412 0.029449
0.752625 0.085510 0.031250
0.772675 0.086975 0.033569
0.797333 0.088715 0.036591
0.826904 0.090881 0.040283
0.862152 0.093506 0.044617
0.021606 0.027893 0.009155
0.022766 0.027863 0.009125
0.023956 0.027802 0.009064
0.025238 0.027740 0.009003
0.026428 0.027710 0.008972
0.027649 0.027679 0.008881
0.029144 0.027832 0.009064
0.030701 0.028015 0.009216
0.032288 0.028198 0.009338
0.035431 0.029816 0.009552
0.039276 0.031555 0.009796
0.043518 0.033447 0.010071
0.048309 0.035492 0.010406
0.053680 0.037628 0.010864
0.059784 0.039703 0.011383
0.066284 0.042023 0.012024
0.073608 0.044403 0.012726
0.081665 0.046967 0.013489
0.094604 0.050018 0.014771
0.109589 0.053101 0.016174
0.123840 0.056061 0.018250
0.138733 0.058929 0.019897
0.154175 0.061249 0.020874
0.170502 0.063019 0.020935
0.187592 0.063995 0.019775
0.205536 0.064056 0.017151
0.224609 0.063110 0.012970
0.244659 0.061401 0.007355
0.265808 0.059448 0.001831
0.287689 0.059143 0.000000
0.310394 0.061523 0.000000
0.333862 0.063843 0.000000
0.357971 0.066559 0.000641
0.382660 0.069153 0.001495
0.407867 0.071930 0.002441
0.433319 0.074677 0.003510
0.453613 0.075928 0.004578
0.471313 0.076630 0.005646
0.488739 0.077332 0.006744
0.505768 0.078033 0.007874
0.522339 0.078674 0.009033
0.538483 0.079498 0.010223
0.554108 0.080261 0.011444
0.569214 0.081085 0.012665
0.583801 0.081787 0.013824
0.597809 0.082458 0.014984
0.611115 0.083191 0.016113
0.623779 0.083832 0.017212
0.635681 0.084534 0.018280
0.646912 0.085114 0.019287
0.657318 0.085693 0.020264
0.666931 0.086304 0.021179
0.675812 0.086761 0.022034
0.684326 0.087280 0.022858
0.692810 0.087799 0.023712
0.701813 0.088409 0.024628
0.711761 0.088959 0.025665
0.723022 0.089661 0.026855
0.736420 0.090546 0.028290
0.752563 0.091614 0.030060
0.772614 0.092834 0.032379
0.797272 0.094513 0.035370
0.826843 0.096436 0.039124
0.862152 0.099091 0.043549
0.021759 0.031158 0.009308
0.023102 0.031097 0.009277
0.024414 0.031067 0.009216
0.025848 0.031006 0.009155
0.027222 0.030945 0.009125
0.028687 0.030914 0.009064
0.030121 0.030853 0.009033
0.031738 0.030914 0.009064
0.033630 0.031128 0.009247
0.035248 0.031281 0.009369
0.039093 0.033295 0.009583
0.043274 0.035370 0.009857
0.048096 0.037415 0.010223
0.053467 0.039703 0.010651
0.059540 0.042084 0.011169
0.066040 0.044495 0.011749
0.073364 0.047089 0.012451
0.081421 0.049805 0.013184
0.094391 0.053009 0.014374
0.109375 0.056244 0.015778
0.123657 0.059418 0.017792
0.138519 0.062286 0.019409
0.153961 0.064697 0.020355
0.170258 0.066742 0.020355
0.187439 0.068054 0.019135
0.205414 0.068451 0.016479
0.224426 0.067841 0.012207
0.244507 0.066559 0.006561
0.265625 0.065033 0.001007
0.287506 0.065277 0.000000
0.310211 0.067780 0.000000
0.333771 0.070557 0.000000
0.357849 0.073273 0.000000
0.382538 0.076141 0.000336
0.407654 0.079010 0.001221
0.433167 0.082153 0.002197
0.453430 0.083466 0.003235
0.471191 0.084137 0.004303
0.488586 0.084717 0.005402
0.505646 0.085449 0.006531
0.522217 0.086060 0.007690
0.538361 0.086792 0.008820
0.553955 0.087463 0.010040
0.569092 0.088104 0.011261
0.583679 0.088806 0.012512
0.597687 0.089447 0.013672
0.610992 0.090210 0.014771
0.623688 0.090790 0.015869
0.635590 0.091400 0.016937
0.646790 0.092041 0.017944
0.657227 0.092590 0.018921
0.666809 0.093079 0.019836
0.675751 0.093597 0.020691
0.684174 0.094055 0.021515
0.692719 0.094513 0.022369
0.701752 0.095032 0.023285
0.711609 0.095612 0.024292
0.722961 0.096252 0.025482
0.736298 0.097015 0.026947
0.752472 0.097931 0.028748
0.772522 0.099304 0.031006
0.797180 0.100800 0.033997
0.826782 0.102783 0.037781
0.862061 0.105042 0.042297
0.021912 0.034943 0.009460
0.023407 0.034882 0.009460
0.024963 0.034821 0.009399
0.026489 0.034760 0.009308
0.028076 0.034698 0.009247
0.029663 0.034668 0.009216
0.031342 0.034607 0.009125
0.033051 0.034546 0.009064
0.034729 0.034515 0.009033
0.036774 0.034760 0.009247
0.038910 0.035034 0.009430
0.043091 0.037140 0.009674
0.047852 0.039520 0.009979
0.053223 0.041931 0.010376
0.059296 0.044464 0.010864
0.065796 0.047180 0.011414
0.073120 0.049866 0.012115
0.081146 0.052673 0.012848
0.094116 0.056061 0.014008
0.109161 0.059509 0.015320
0.123474 0.062775 0.017303
0.138367 0.065765 0.018890
0.153839 0.068512 0.019775
0.170105 0.070648 0.019745
0.187256 0.072235 0.018463
0.205200 0.072876 0.015778
0.224274 0.072815 0.011383
0.244324 0.071960 0.005737
0.265472 0.071014 0.000061
0.287384 0.071533 0.000000
0.310028 0.074371 0.000000
0.333496 0.077179 0.000000
0.357697 0.080292 0.000000
0.382385 0.083435 0.000000
0.407501 0.086578 0.000000
0.432953 0.089905 0.000702
0.453308 0.091278 0.001740
0.471069 0.091919 0.002808
0.488434 0.092407 0.003937
0.505463 0.093018 0.005035
0.522034 0.093689 0.006165
0.538208 0.094299 0.007324
0.553864 0.094971 0.008484
0.568939 0.095581 0.009674
0.583557 0.096161 0.010925
0.597534 0.096832 0.012115
0.610901 0.097321 0.013306
0.623535 0.098083 0.014374
0.635437 0.098602 0.015442
0.646667 0.099121 0.016479
0.657135 0.099609 0.017456
0.666687 0.100067 0.018372
0.675629 0.100525 0.019226
0.684113 0.101013 0.020050
0.692627 0.101532 0.020874
0.701630 0.101959 0.021820
0.711548 0.102509 0.022827
0.722839 0.103088 0.024017
0.736237 0.103790 0.025482
0.752380 0.104767 0.027252
0.772461 0.106018 0.029510
0.797089 0.107483 0.032440
0.826752 0.109283 0.036255
0.862061 0.111603 0.040894
0.022064 0.039185 0.009705
0.023743 0.039124 0.009644
0.025452 0.039062 0.009583
0.027191 0.039032 0.009491
0.028931 0.038940 0.009460
0.030731 0.038879 0.009369
0.032654 0.038818 0.009308
0.034546 0.038757 0.009247
0.036346 0.038696 0.009186
0.038300 0.038635 0.009094
0.040558 0.038818 0.009277
0.042908 0.039093 0.009491
0.047638 0.041565 0.009766
0.053009 0.044159 0.010132
0.059052 0.046967 0.010590
0.065521 0.049805 0.011108
0.072876 0.052643 0.011780
0.080902 0.055695 0.012451
0.093842 0.059357 0.013580
0.108948 0.062958 0.014832
0.123230 0.066254 0.016785
0.138153 0.069458 0.018311
0.153625 0.072266 0.019165
0.169922 0.074707 0.019073
0.187012 0.076447 0.017761
0.205017 0.077576 0.014954
0.224030 0.077850 0.010468
0.244141 0.077515 0.004761
0.265259 0.077087 0.000000
0.287170 0.078094 0.000000
0.309875 0.081238 0.000000
0.333374 0.084351 0.000000
0.357452 0.087646 0.000000
0.382172 0.091034 0.000000
0.407318 0.094452 0.000000
0.432831 0.097992 0.000000
0.453064 0.099487 0.000031
0.470856 0.099945 0.001099
0.488220 0.100494 0.002228
0.505310 0.101044 0.003357
0.521881 0.101624 0.004486
0.538055 0.102203 0.005646
0.553711 0.102814 0.006805
0.568878 0.103302 0.007996
0.583405 0.103882 0.009155
0.597382 0.104553 0.010315
0.610718 0.105072 0.011536
0.623413 0.105682 0.012695
0.635376 0.106201 0.013763
0.646545 0.106659 0.014801
0.657043 0.107117 0.015778
0.666595 0.107635 0.016663
0.675507 0.108032 0.017548
0.683990 0.108459 0.018372
0.692566 0.108917 0.019226
0.701569 0.109253 0.020142
0.711456 0.109863 0.021149
0.722748 0.110413 0.022339
0.736115 0.111084 0.023804
0.752319 0.112000 0.025574
0.772339 0.113159 0.027832
0.796997 0.114441 0.030762
0.826630 0.116150 0.034546
0.861969 0.118286 0.039215
0.022278 0.043976 0.009918
0.024109 0.043915 0.009857
0.026001 0.043854 0.009796
0.027893 0.043793 0.009705
0.029816 0.043762 0.009644
0.031830 0.043671 0.009583
0.033936 0.043610 0.009491
0.035950 0.043549 0.009399
0.038055 0.043488 0.009308
0.040222 0.043396 0.009247
0.042358 0.043365 0.009155
0.044708 0.043518 0.009247
0.047424 0.043793 0.009491
0.052765 0.046600 0.009827
0.058746 0.049561 0.010284
0.065277 0.052429 0.010803
0.072540 0.055664 0.011353
0.080597 0.058899 0.012024
0.093567 0.062622 0.013153
0.108734 0.066498 0.014282
0.123016 0.069946 0.016205
0.137970 0.073273 0.017700
0.153381 0.076294 0.018494
0.169708 0.078949 0.018341
0.186798 0.081055 0.016968
0.204834 0.082520 0.014069
0.223846 0.083191 0.009430
0.243927 0.083374 0.003723
0.265045 0.083496 0.000000
0.286957 0.084900 0.000000
0.309631 0.088226 0.000000
0.333130 0.091614 0.000000
0.357269 0.095215 0.000000
0.381958 0.098785 0.000000
0.407104 0.102570 0.000000
0.432556 0.106506 0.000000
0.452881 0.107910 0.000000
0.470612 0.108368 0.000000
0.488068 0.108917 0.000305
0.505127 0.109375 0.001465
0.521729 0.109863 0.002625
0.537872 0.110443 0.003754
0.553558 0.110962 0.004944
0.568665 0.111481 0.006104
0.583252 0.112061 0.007263
0.597260 0.112640 0.008392
0.610596 0.113037 0.009552
0.623260 0.113586 0.010712
0.635193 0.114075 0.011841
0.646423 0.114502 0.012909
0.656860 0.115051 0.013885
0.666443 0.115417 0.014801
0.675415 0.115784 0.015686
0.683868 0.116150 0.016510
0.692383 0.116638 0.017334
0.701447 0.116943 0.018280
0.711304 0.117462 0.019287
0.722626 0.118073 0.020447
0.735992 0.118713 0.021912
0.752136 0.119446 0.023712
0.772247 0.120575 0.025970
0.796936 0.121765 0.028900
0.826599 0.123444 0.032593
0.861847 0.125488 0.037323
0.022461 0.049255 0.010193
0.024475 0.049194 0.010101
0.026550 0.049164 0.010010
0.028656 0.049072 0.009918
0.030731 0.049011 0.009857
0.033020 0.048981 0.009766
0.035339 0.048889 0.009674
0.037476 0.048859 0.009583
0.039825 0.048767 0.009491
0.042084 0.048676 0.009399
0.044525 0.048615 0.009308
0.046936 0.048523 0.009186
0.049530 0.048584 0.009247
0.052521 0.048981 0.009583
0.058472 0.052032 0.009949
0.064972 0.055328 0.010437
0.072235 0.058594 0.010925
0.080292 0.062134 0.011566
0.093262 0.066071 0.012695
0.108459 0.070099 0.013733
0.122742 0.073700 0.015594
0.137726 0.077118 0.017029
0.153137 0.080444 0.017761
0.169434 0.083374 0.017548
0.186523 0.085785 0.016083
0.204559 0.087708 0.013092
0.223602 0.088806 0.008392
0.243713 0.089447 0.002563
0.264832 0.090027 0.000000
0.286743 0.091888 0.000000
0.309418 0.095459 0.000000
0.332886 0.099152 0.000000
0.357025 0.103027 0.000000
0.381744 0.106903 0.000000
0.406860 0.111023 0.000000
0.432343 0.115173 0.000000
0.452637 0.116730 0.000000
0.470428 0.117065 0.000000
0.487854 0.117554 0.000000
0.504944 0.117950 0.000031
0.521515 0.118469 0.000519
0.537720 0.118896 0.001678
0.553314 0.119385 0.002838
0.568512 0.119873 0.004028
0.583099 0.120361 0.005188
0.597107 0.120850 0.006317
0.610413 0.121399 0.007446
0.623138 0.121826 0.008545
