custom_nodes/comfyui-vrgamedevgirl/LUTS/Dark_Soft_Vivid_Cool_2.cube
#Created by: Adobe Photoshop Export Color Lookup Plugin
#Copyright: (C) Copyright 2017 PremiumBeat
TITLE "Thames"
#LUT size
LUT_3D_SIZE 64
#data domain
DOMAIN_MIN 0.0 0.0 0.0
DOMAIN_MAX 1.0 1.0 1.0
#LUT data points
0.000000 0.000000 0.000000
0.000000 0.000000 0.000000
0.000000 0.000000 0.000000
0.000000 0.000000 0.000000
0.000000 0.000000 0.000000
0.000000 0.000000 0.000000
0.000000 0.000000 0.000000
0.007904 0.000000 0.000000
0.016907 0.000000 0.000000
0.025909 0.000000 0.000000
0.035004 0.000000 0.000000
0.043579 0.000000 0.000000
0.052094 0.000000 0.000000
0.060577 0.000000 0.000000
0.069000 0.000000 0.000000
0.077240 0.000000 0.000000
0.085724 0.000000 0.000000
0.094025 0.000000 0.000000
0.102325 0.000000 0.000000
0.110748 0.000000 0.000000
0.119019 0.000000 0.000000
0.127289 0.000000 0.000000
0.135498 0.000000 0.000000
0.143707 0.000000 0.000000
0.151764 0.000000 0.000000
0.159943 0.000000 0.000000
0.168121 0.000000 0.000000
0.176086 0.000000 0.000000
0.184235 0.000000 0.000000
0.192261 0.000000 0.000000
0.200165 0.000000 0.000000
0.208099 0.000000 0.000000
0.216064 0.000000 0.000000
0.224030 0.000000 0.000000
0.232269 0.000000 0.000000
0.240570 0.000000 0.000000
0.249023 0.000000 0.000000
0.257599 0.000000 0.000000
0.266296 0.000000 0.000000
0.275330 0.000000 0.000000
0.284454 0.000000 0.000000
0.293823 0.000000 0.000000
0.303345 0.000000 0.000000
0.313141 0.000000 0.000000
0.323151 0.000000 0.000000
0.333466 0.000000 0.000000
0.343964 0.000000 0.000000
0.354919 0.000000 0.000000
0.366089 0.000000 0.000000
0.377563 0.000000 0.000000
0.389862 0.000000 0.000000
0.402893 0.000000 0.000000
0.416840 0.000000 0.000000
0.431824 0.000000 0.000000
0.447876 0.000000 0.000000
0.464722 0.000000 0.000031
0.482971 0.000000 0.000031
0.503296 0.000000 0.000031
0.526428 0.000000 0.000031
0.553101 0.000000 0.000031
0.585144 0.000000 0.000031
0.625214 0.000000 0.000031
0.680115 0.000000 0.000031
0.772156 0.000000 0.000061
0.000000 0.000000 0.000000
0.000000 0.000000 0.000000
0.000000 0.000000 0.000000
0.000000 0.000000 0.000000
0.000000 0.000000 0.000000
0.000000 0.000000 0.000000
0.001038 0.000000 0.000000
0.010132 0.000000 0.000000
0.019165 0.000000 0.000000
0.028229 0.000000 0.000000
0.037445 0.000000 0.000000
0.045929 0.000000 0.000000
0.054413 0.000000 0.000000
0.063049 0.000000 0.000000
0.071442 0.000000 0.000000
0.079865 0.000000 0.000000
0.088257 0.000000 0.000000
0.096588 0.000000 0.000000
0.105103 0.000000 0.000000
0.113434 0.000000 0.000000
0.121796 0.000000 0.000000
0.130127 0.000000 0.000000
0.138275 0.000000 0.000000
0.146576 0.000000 0.000000
0.154755 0.000000 0.000000
0.162933 0.000000 0.000000
0.171021 0.000000 0.000000
0.179199 0.000000 0.000000
0.187195 0.000000 0.000000
0.195282 0.000000 0.000000
0.203247 0.000000 0.000000
0.211304 0.000000 0.000000
0.219177 0.000000 0.000000
0.227142 0.000000 0.000000
0.235382 0.000000 0.000000
0.243652 0.000000 0.000000
0.252136 0.000000 0.000000
0.260773 0.000000 0.000000
0.269623 0.000000 0.000000
0.278442 0.000000 0.000000
0.287567 0.000000 0.000000
0.296997 0.000000 0.000000
0.306458 0.000000 0.000000
0.316284 0.000000 0.000000
0.326294 0.000000 0.000000
0.336487 0.000000 0.000000
0.347046 0.000000 0.000000
0.357910 0.000000 0.000000
0.369049 0.000000 0.000000
0.380615 0.000000 0.000000
0.392761 0.000000 0.000000
0.405731 0.000000 0.000000
0.419617 0.000000 0.000000
0.434448 0.000000 0.000000
0.449829 0.000000 0.000000
0.466400 0.000000 0.000031
0.484619 0.000000 0.000031
0.504944 0.000000 0.000031
0.528046 0.000000 0.000031
0.554779 0.000000 0.000031
0.586761 0.000000 0.000031
0.626831 0.000000 0.000031
0.681732 0.000000 0.000031
0.773773 0.000000 0.000061
0.000000 0.000000 0.000000
0.000000 0.000000 0.000000
0.000000 0.000000 0.000000
0.000000 0.000000 0.000000
0.000000 0.000000 0.000000
0.000000 0.000000 0.000000
0.003326 0.000000 0.000000
0.012543 0.000000 0.000000
0.021606 0.000000 0.000000
0.030640 0.000000 0.000000
0.039734 0.000000 0.000000
0.048462 0.000000 0.000000
0.056946 0.000000 0.000000
0.065491 0.000000 0.000000
0.074066 0.000000 0.000000
0.082581 0.000000 0.000000
0.091003 0.000000 0.000000
0.099487 0.000000 0.000000
0.107910 0.000000 0.000000
0.116241 0.000000 0.000000
0.124603 0.000000 0.000000
0.132965 0.000000 0.000000
0.141235 0.000000 0.000000
0.149506 0.000000 0.000000
0.157776 0.000000 0.000000
0.165985 0.000000 0.000000
0.174072 0.000000 0.000000
0.182220 0.000000 0.000000
0.190277 0.000000 0.000000
0.198334 0.000000 0.000000
0.206360 0.000000 0.000000
0.214386 0.000000 0.000000
0.222260 0.000000 0.000000
0.230347 0.000000 0.000000
0.238464 0.000000 0.000000
0.246796 0.000000 0.000000
0.255310 0.000000 0.000000
0.263885 0.000000 0.000000
0.272705 0.000000 0.000000
0.281708 0.000000 0.000000
0.290833 0.000000 0.000000
0.300110 0.000000 0.000000
0.309692 0.000000 0.000000
0.319427 0.000000 0.000000
0.329376 0.000000 0.000000
0.339600 0.000000 0.000000
0.350067 0.000000 0.000000
0.360779 0.000000 0.000000
0.371887 0.000000 0.000000
0.383392 0.000000 0.000000
0.395477 0.000000 0.000000
0.408417 0.000000 0.000000
0.422211 0.000000 0.000000
0.436310 0.000000 0.000000
0.451477 0.000000 0.000000
0.468018 0.000000 0.000031
0.486267 0.000000 0.000031
0.506653 0.000000 0.000031
0.529663 0.000000 0.000031
0.556427 0.000000 0.000031
0.588318 0.000000 0.000031
0.628387 0.000000 0.000031
0.683411 0.000000 0.000031
0.775360 0.000000 0.000061
0.000000 0.000000 0.000000
0.000000 0.000000 0.000000
0.000000 0.000000 0.000000
0.000000 0.000000 0.000000
0.000000 0.000000 0.000000
0.000000 0.000000 0.000000
0.005737 0.000000 0.000000
0.014893 0.000000 0.000000
0.024109 0.000000 0.000000
0.033264 0.000000 0.000000
0.042267 0.000000 0.000000
0.050964 0.000000 0.000000
0.059570 0.000000 0.000000
0.068176 0.000000 0.000000
0.076721 0.000000 0.000000
0.085327 0.000000 0.000000
0.093719 0.000000 0.000000
0.102295 0.000000 0.000000
0.110718 0.000000 0.000000
0.119141 0.000000 0.000000
0.127533 0.000000 0.000000
0.135834 0.000000 0.000000
0.144287 0.000000 0.000000
0.152496 0.000000 0.000000
0.160797 0.000000 0.000000
0.169067 0.000000 0.000000
0.177155 0.000000 0.000000
0.185333 0.000000 0.000000
0.193481 0.000000 0.000000
0.201447 0.000000 0.000000
0.209473 0.000000 0.000000
0.217468 0.000000 0.000000
0.225403 0.000000 0.000000
0.233490 0.000000 0.000000
0.241577 0.000000 0.000000
0.249878 0.000000 0.000000
0.258362 0.000000 0.000000
0.266907 0.000000 0.000000
0.275787 0.000000 0.000000
0.284668 0.000000 0.000000
0.293732 0.000000 0.000000
0.303040 0.000000 0.000000
0.312561 0.000000 0.000000
0.322296 0.000000 0.000000
0.332245 0.000000 0.000000
0.342499 0.000000 0.000000
0.352875 0.000000 0.000000
0.363586 0.000000 0.000000
0.374634 0.000000 0.000000
0.386139 0.000000 0.000000
0.398132 0.000000 0.000000
0.410858 0.000000 0.000000
0.423889 0.000000 0.000000
0.437927 0.000000 0.000000
0.453064 0.000000 0.000000
0.469666 0.000000 0.000031
0.487915 0.000000 0.000031
0.508270 0.000000 0.000031
0.531281 0.000000 0.000031
0.557983 0.000000 0.000031
0.589966 0.000000 0.000031
0.630005 0.000000 0.000031
0.684998 0.000000 0.000031
0.776978 0.000000 0.000061
0.000000 0.000000 0.000000
0.000000 0.000000 0.000000
0.000000 0.000000 0.000000
0.000000 0.000000 0.000000
0.000000 0.000000 0.000000
0.000000 0.000000 0.000000
0.008209 0.000000 0.000000
0.017456 0.000000 0.000000
0.026733 0.000000 0.000000
0.036041 0.000000 0.000000
0.044861 0.000000 0.000000
0.053528 0.000000 0.000000
0.062286 0.000000 0.000000
0.070923 0.000000 0.000000
0.079498 0.000000 0.000000
0.088074 0.000000 0.000000
0.096558 0.000000 0.000000
0.105164 0.000000 0.000000
0.113586 0.000000 0.000000
0.122101 0.000000 0.000000
0.130585 0.000000 0.000000
0.138855 0.000000 0.000000
0.147247 0.000000 0.000000
0.155548 0.000000 0.000000
0.163818 0.000000 0.000000
0.172028 0.000000 0.000000
0.180115 0.000000 0.000000
0.188324 0.000000 0.000000
0.196350 0.000000 0.000000
0.204468 0.000000 0.000000
0.212433 0.000000 0.000000
0.220459 0.000000 0.000000
0.228363 0.000000 0.000000
0.236450 0.000000 0.000000
0.244507 0.000000 0.000000
0.252838 0.000000 0.000000
0.261292 0.000000 0.000000
0.269867 0.000000 0.000000
0.278656 0.000000 0.000000
0.287567 0.000000 0.000000
0.296661 0.000000 0.000000
0.305939 0.000000 0.000000
0.315460 0.000000 0.000000
0.325134 0.000000 0.000000
0.335052 0.000000 0.000000
0.345245 0.000000 0.000000
0.355652 0.000000 0.000000
0.366272 0.000000 0.000000
0.377319 0.000000 0.000000
0.388733 0.000000 0.000000
0.400299 0.000000 0.000000
0.412506 0.000000 0.000000
0.425537 0.000000 0.000000
0.439575 0.000000 0.000000
0.454742 0.000000 0.000000
0.471313 0.000000 0.000031
0.489502 0.000000 0.000031
0.509888 0.000000 0.000031
0.532867 0.000000 0.000031
0.559631 0.000000 0.000031
0.591583 0.000000 0.000031
0.631622 0.000000 0.000031
0.686584 0.000000 0.000031
0.778564 0.000000 0.000061
0.000000 0.000000 0.000000
0.000000 0.000000 0.000000
0.000000 0.000000 0.000000
0.000000 0.000000 0.000000
0.000000 0.000000 0.000000
0.001373 0.000000 0.000000
0.010834 0.000000 0.000000
0.020050 0.000000 0.000000
0.029358 0.000000 0.000000
0.038696 0.000000 0.000000
0.047668 0.000000 0.000000
0.056335 0.000000 0.000000
0.064880 0.000000 0.000000
0.073578 0.000275 0.000000
0.082184 0.000793 0.000000
0.090790 0.001282 0.000000
0.099304 0.001678 0.000000
0.107788 0.002075 0.000000
0.116302 0.002472 0.000000
0.124756 0.002747 0.000000
0.133179 0.003052 0.000000
0.141632 0.003204 0.000000
0.149994 0.003357 0.000000
0.158264 0.003418 0.000000
0.166595 0.003387 0.000000
0.174744 0.003143 0.000000
0.182983 0.003021 0.000000
0.191193 0.002899 0.000000
0.199249 0.002594 0.000000
0.207336 0.002289 0.000000
0.215332 0.001862 0.000000
0.223236 0.001404 0.000000
0.231262 0.000946 0.000000
0.239227 0.000336 0.000000
0.247437 0.000000 0.000000
0.255768 0.000000 0.000000
0.264191 0.000000 0.000000
0.272736 0.000000 0.000000
0.281586 0.000000 0.000000
0.290375 0.000000 0.000000
0.299469 0.000000 0.000000
0.308807 0.000000 0.000000
0.318176 0.000000 0.000000
0.327850 0.000000 0.000000
0.337799 0.000000 0.000000
0.347870 0.000000 0.000000
0.358215 0.000000 0.000000
0.368958 0.000000 0.000000
0.379730 0.000000 0.000000
0.390503 0.000000 0.000000
0.401917 0.000000 0.000000
0.414124 0.000000 0.000000
0.427185 0.000000 0.000000
0.441223 0.000000 0.000000
0.456329 0.000000 0.000000
0.472870 0.000000 0.000031
0.491119 0.000000 0.000031
0.511414 0.000000 0.000031
0.534454 0.000000 0.000031
0.561157 0.000000 0.000031
0.593109 0.000000 0.000031
0.633148 0.000000 0.000031
0.688080 0.000000 0.000031
0.780182 0.000000 0.000061
0.000000 0.000977 0.000000
0.000000 0.001678 0.000000
0.000000 0.002441 0.000000
0.000000 0.003143 0.000000
0.000000 0.003906 0.000000
0.003632 0.004486 0.000000
0.012939 0.005096 0.000000
0.022247 0.005707 0.000000
0.031525 0.006287 0.000000
0.040802 0.006958 0.000000
0.049713 0.007599 0.000000
0.058350 0.008118 0.000000
0.067078 0.008759 0.000000
0.075745 0.009277 0.000000
0.084564 0.009674 0.000000
0.093109 0.010162 0.000000
0.101807 0.010681 0.000000
0.110382 0.011078 0.000000
0.118835 0.011475 0.000000
0.127411 0.011780 0.000000
0.135803 0.012054 0.000000
0.144379 0.012329 0.000000
0.152618 0.012421 0.000000
0.161011 0.012512 0.000000
0.169312 0.012543 0.000000
0.177612 0.012482 0.000000
0.185852 0.012421 0.000000
0.193970 0.012146 0.000000
0.202118 0.011902 0.000000
0.210175 0.011505 0.000000
0.218201 0.011139 0.000000
0.226166 0.010681 0.000000
0.234070 0.010101 0.000000
0.242126 0.009521 0.000000
0.250336 0.008911 0.000000
0.258545 0.008209 0.000000
0.266937 0.007507 0.000000
0.275635 0.006836 0.000000
0.284332 0.006073 0.000000
0.293182 0.005249 0.000000
0.302246 0.004486 0.000000
0.311462 0.003662 0.000000
0.320923 0.002808 0.000000
0.330566 0.001862 0.000000
0.340424 0.000793 0.000000
0.350525 0.000000 0.000000
0.360840 0.000000 0.000000
0.371002 0.000000 0.000000
0.381378 0.000000 0.000000
0.392120 0.000000 0.000000
0.403534 0.000000 0.000000
0.415771 0.000000 0.000000
0.428772 0.000000 0.000000
0.442749 0.000000 0.000000
0.457947 0.000000 0.000000
0.474426 0.000000 0.000031
0.492706 0.000000 0.000031
0.512970 0.000000 0.000031
0.536041 0.000000 0.000031
0.562714 0.000000 0.000031
0.594696 0.000000 0.000031
0.634735 0.000000 0.000031
0.689667 0.000000 0.000031
0.781830 0.000000 0.000061
0.000000 0.009857 0.000000
0.000000 0.010712 0.000000
0.000000 0.011444 0.000000
0.000000 0.012085 0.000000
0.000000 0.012909 0.000000
0.005585 0.013397 0.000000
0.014893 0.013916 0.000000
0.024139 0.014526 0.000000
0.033539 0.015167 0.000000
0.042664 0.015869 0.000000
0.051544 0.016510 0.000000
0.060577 0.017151 0.000000
0.069427 0.017700 0.000000
0.078094 0.018311 0.000000
0.086853 0.018829 0.000000
0.095642 0.019348 0.000000
0.104248 0.019836 0.000000
0.112885 0.020233 0.000000
0.121521 0.020630 0.000000
0.130127 0.020935 0.000000
0.138550 0.021240 0.000000
0.147095 0.021423 0.000000
0.155457 0.021576 0.000000
0.163818 0.021667 0.000000
0.172150 0.021667 0.000000
0.180328 0.021606 0.000000
0.188660 0.021484 0.000000
0.196838 0.021332 0.000000
0.204926 0.021027 0.000000
0.213013 0.020721 0.000000
0.221039 0.020142 0.000000
0.229065 0.019745 0.000000
0.236938 0.019226 0.000000
0.244904 0.018616 0.000000
0.253113 0.018066 0.000000
0.261414 0.017395 0.000000
0.269806 0.016724 0.000000
0.278351 0.016113 0.000000
0.287079 0.015564 0.000000
0.295990 0.014954 0.000000
0.305023 0.014404 0.000000
0.314178 0.013641 0.000000
0.323456 0.012878 0.000000
0.333130 0.012085 0.000000
0.343018 0.011322 0.000000
0.352692 0.010101 0.000000
0.362457 0.008698 0.000000
0.372528 0.007172 0.000000
0.382935 0.005554 0.000000
0.393707 0.003784 0.000000
0.405121 0.001953 0.000000
0.417267 0.000000 0.000000
0.430328 0.000000 0.000000
0.444336 0.000000 0.000000
0.459473 0.000000 0.000000
0.476013 0.000000 0.000031
0.494202 0.000000 0.000031
0.514557 0.000000 0.000031
0.537567 0.000000 0.000031
0.564270 0.000000 0.000031
0.596161 0.000000 0.000031
0.636261 0.000000 0.000031
0.691193 0.000000 0.000031
0.783386 0.000000 0.000061
0.000000 0.018799 0.000000
0.000000 0.019531 0.000000
0.000000 0.020325 0.000000
0.000000 0.021149 0.000000
0.000000 0.021973 0.000000
0.007721 0.022430 0.000000
0.016937 0.022888 0.000000
0.026154 0.023438 0.000000
0.035614 0.024139 0.000000
0.044830 0.024841 0.000000
0.053741 0.025421 0.000000
0.062714 0.026123 0.000000
0.071716 0.026764 0.000000
0.080597 0.027313 0.000000
0.089447 0.027893 0.000000
0.098145 0.028412 0.000000
0.106934 0.028931 0.000000
0.115509 0.029327 0.000000
0.124115 0.029724 0.000000
0.132751 0.030029 0.000000
0.141266 0.030151 0.000000
0.149719 0.030334 0.000000
0.158203 0.030457 0.000000
0.166565 0.030609 0.000000
0.174927 0.030609 0.000000
0.183228 0.030579 0.000000
0.191376 0.030396 0.000000
0.199585 0.030212 0.000000
0.207794 0.030151 0.000000
0.215790 0.029877 0.000000
0.223907 0.029541 0.000000
0.231812 0.029175 0.000000
0.239685 0.028717 0.000000
0.247742 0.028381 0.000000
0.255829 0.027832 0.000000
0.264069 0.027374 0.000000
0.272522 0.026917 0.000000
0.281128 0.026550 0.000000
0.289734 0.026123 0.000000
0.298584 0.025757 0.000000
0.307587 0.025299 0.000000
0.316742 0.024719 0.000000
0.326050 0.024414 0.000000
0.335480 0.023590 0.000000
0.344727 0.022461 0.000000
0.354279 0.021423 0.000000
0.364044 0.020111 0.000000
0.374084 0.018738 0.000000
0.384460 0.017334 0.000000
0.395233 0.015869 0.000000
0.406677 0.014191 0.000000
0.418793 0.012177 0.000000
0.431885 0.010071 0.000000
0.445862 0.007690 0.000000
0.461060 0.005066 0.000000
0.477509 0.002136 0.000031
0.495728 0.000000 0.000031
0.516052 0.000000 0.000031
0.539093 0.000000 0.000031
0.565765 0.000000 0.000031
0.597656 0.000000 0.000031
0.637756 0.000000 0.000031
0.692780 0.000000 0.000031
0.784912 0.000000 0.000061
0.000000 0.027740 0.000000
0.000000 0.028503 0.000000
0.000000 0.029388 0.000000
0.000000 0.030182 0.000000
0.000549 0.030884 0.000000
0.009674 0.031433 0.000000
0.019073 0.031921 0.000000
0.028290 0.032440 0.000000
0.037598 0.033081 0.000000
0.046967 0.033844 0.000000
0.056091 0.034424 0.000000
0.065033 0.035004 0.000000
0.074097 0.035706 0.000000
0.083130 0.036377 0.000000
0.091949 0.036896 0.000000
0.100708 0.037415 0.000000
0.109619 0.038025 0.000000
0.118195 0.038452 0.000000
0.126862 0.038849 0.000000
0.135406 0.039337 0.000000
0.144073 0.039703 0.000000
0.152557 0.039948 0.000000
0.161041 0.040283 0.000000
0.169312 0.040314 0.000000
0.177643 0.040527 0.000000
0.185944 0.040527 0.000000
0.194275 0.040619 0.000000
0.202301 0.040588 0.000000
0.210541 0.040588 0.000000
0.218506 0.040436 0.000000
0.226593 0.040314 0.000000
0.234497 0.040070 0.000000
0.242462 0.039856 0.000000
0.250427 0.039581 0.000000
0.258606 0.039398 0.000000
0.266815 0.039032 0.000000
0.275177 0.038727 0.000000
0.283691 0.038574 0.000000
0.292267 0.038177 0.000000
0.301086 0.038086 0.000000
0.310028 0.037903 0.000000
0.319092 0.037628 0.000000
0.327942 0.036743 0.000000
0.336975 0.035797 0.000000
0.346283 0.034790 0.000000
0.355774 0.033844 0.000000
0.365540 0.032715 0.000000
0.375641 0.031677 0.000000
0.385986 0.030365 0.000000
0.396759 0.029053 0.000000
0.408203 0.027740 0.000000
0.420319 0.026215 0.000000
0.433380 0.024323 0.000000
0.447357 0.022278 0.000000
0.462494 0.019836 0.000000
0.479065 0.017365 0.000031
0.497223 0.014282 0.000031
0.517517 0.010559 0.000031
0.540527 0.006317 0.000031
0.567200 0.000916 0.000031
0.599182 0.000000 0.000031
0.639252 0.000000 0.000031
0.694244 0.000000 0.000031
0.786560 0.000000 0.000061
0.000000 0.036621 0.000000
0.000000 0.037445 0.000000
0.000000 0.038330 0.000000
0.000000 0.039185 0.000000
0.002686 0.039825 0.000000
0.011932 0.040375 0.000000
0.021271 0.040924 0.000000
0.030548 0.041412 0.000000
0.039795 0.041962 0.000000
0.049103 0.042725 0.000000
0.058350 0.043488 0.000000
0.067474 0.044067 0.000000
0.076477 0.044830 0.000000
0.085541 0.045502 0.000000
0.094452 0.046173 0.000000
0.103363 0.046814 0.000000
0.112122 0.047302 0.000000
0.120789 0.047852 0.000000
0.129486 0.048370 0.000000
0.138184 0.048950 0.000000
0.146759 0.049377 0.000000
0.155243 0.049774 0.000000
0.163696 0.050049 0.000000
0.172119 0.050323 0.000000
0.180359 0.050537 0.000000
0.188660 0.050781 0.000000
0.196930 0.050903 0.000000
0.205017 0.050964 0.000000
0.213165 0.051117 0.000000
0.221283 0.051117 0.000000
0.229248 0.051117 0.000000
0.237152 0.051086 0.000000
0.245087 0.051117 0.000000
0.253021 0.051025 0.000000
0.261139 0.050934 0.000000
0.269379 0.050842 0.000000
0.277710 0.050812 0.000000
0.286133 0.050812 0.000000
0.294800 0.050934 0.000000
0.303467 0.050751 0.000000
0.311890 0.050323 0.000000
0.320587 0.049927 0.000000
0.329407 0.049347 0.000000
0.338440 0.048737 0.000000
0.347717 0.048035 0.000000
0.357269 0.047302 0.000000
0.367035 0.046539 0.000000
0.377106 0.045624 0.000000
0.387482 0.044678 0.000000
0.398193 0.043640 0.000000
0.409607 0.042542 0.000000
0.421783 0.041412 0.000000
0.434814 0.039795 0.000000
0.448822 0.038208 0.000000
0.463959 0.036072 0.000000
0.480530 0.033844 0.000031
0.498688 0.031189 0.000031
0.518951 0.028076 0.000031
0.542023 0.024384 0.000031
0.568665 0.019684 0.000031
0.600677 0.013519 0.000031
0.640747 0.004822 0.000031
0.695770 0.000000 0.000031
0.788086 0.000000 0.000061
0.000000 0.045502 0.000000
0.000000 0.046265 0.000000
0.000000 0.047211 0.000000
0.000000 0.048126 0.000000
0.004791 0.048615 0.000000
0.014130 0.049255 0.000000
0.023468 0.049774 0.000000
0.032776 0.050415 0.000000
0.042084 0.051056 0.000000
0.051331 0.051666 0.000000
0.060638 0.052460 0.000000
0.069763 0.053162 0.000000
0.078949 0.053955 0.000000
0.088074 0.054657 0.000000
0.096924 0.055267 0.000000
0.105774 0.055969 0.000000
0.114624 0.056610 0.000000
0.123322 0.057159 0.000000
0.132080 0.057739 0.000000
0.140686 0.058350 0.000000
0.149384 0.058868 0.000000
0.157898 0.059357 0.000000
0.166351 0.059875 0.000000
0.174622 0.060181 0.000000
0.182953 0.060516 0.000000
0.191315 0.060822 0.000000
0.199524 0.061096 0.000000
0.207672 0.061188 0.000000
0.215759 0.061523 0.000000
0.223724 0.061615 0.000000
0.231812 0.061859 0.000000
0.239655 0.061859 0.000000
0.247589 0.062103 0.000000
0.255524 0.062164 0.000000
0.263580 0.062347 0.000000
0.271759 0.062439 0.000000
0.280090 0.062531 0.000000
0.288452 0.062622 0.000000
0.296600 0.062286 0.000000
0.304901 0.062012 0.000000
0.313385 0.061707 0.000000
0.322083 0.061432 0.000000
0.330841 0.061035 0.000000
0.339935 0.060730 0.000000
0.349182 0.060272 0.000000
0.358734 0.059814 0.000000
0.368500 0.059296 0.000000
0.378571 0.058777 0.000000
0.388947 0.058105 0.000000
0.399658 0.057434 0.000000
0.411102 0.056732 0.000000
0.423218 0.055847 0.000000
0.436310 0.054932 0.000000
0.450287 0.053741 0.000000
0.465424 0.052399 0.000000
0.481903 0.050964 0.000031
0.500122 0.049194 0.000031
0.520386 0.046783 0.000031
0.543427 0.043823 0.000031
0.570099 0.040100 0.000031
0.602112 0.034607 0.000031
0.642212 0.026978 0.000031
0.697296 0.014557 0.000031
0.789703 0.000000 0.000061
0.000000 0.054230 0.000000
0.000000 0.055115 0.000000
0.000000 0.055969 0.000000
0.000000 0.056824 0.000000
0.006897 0.057404 0.000000
0.016266 0.058044 0.000000
0.025604 0.058807 0.000000
0.034790 0.059448 0.000000
0.044281 0.060089 0.000000
0.053650 0.060852 0.000000
0.062775 0.061493 0.000000
0.072113 0.062225 0.000000
0.081390 0.063049 0.000000
0.090332 0.063782 0.000000
0.099457 0.064575 0.000000
0.108307 0.065247 0.000000
0.117157 0.065948 0.000000
0.125977 0.066559 0.000000
0.134613 0.067169 0.000000
0.143219 0.067841 0.000000
0.151825 0.068390 0.000000
0.160492 0.069061 0.000000
0.168793 0.069458 0.000000
0.177216 0.069916 0.000000
0.185547 0.070404 0.000000
0.193848 0.070831 0.000000
0.202057 0.071198 0.000000
0.210144 0.071472 0.000000
0.218323 0.071838 0.000000
0.226257 0.072021 0.000000
0.234283 0.072296 0.000000
0.242096 0.072540 0.000000
0.249939 0.072662 0.000000
0.257904 0.073029 0.000000
0.265961 0.073303 0.000000
0.273987 0.073364 0.000000
0.281860 0.073212 0.000000
0.289917 0.073151 0.000000
0.298035 0.072968 0.000000
0.306366 0.072845 0.000000
0.314789 0.072662 0.000000
0.323395 0.072540 0.000000
0.332306 0.072357 0.000000
0.341370 0.072113 0.000000
0.350586 0.071899 0.000000
0.360138 0.071716 0.000000
0.369904 0.071350 0.000000
0.380035 0.071075 0.000000
0.390350 0.070770 0.000000
0.401093 0.070251 0.000000
0.412537 0.069794 0.000000
0.424652 0.069366 0.000000
0.437714 0.068665 0.000000
0.451630 0.067871 0.000000
0.466797 0.067078 0.000000
0.483276 0.065979 0.000031
0.501556 0.064972 0.000031
0.521820 0.063416 0.000031
0.544861 0.061554 0.000031
0.571533 0.058990 0.000031
0.603546 0.055359 0.000031
0.643646 0.049927 0.000031
0.698761 0.039673 0.000031
0.791229 0.015717 0.000061
0.000000 0.063049 0.000000
0.000000 0.063904 0.000000
0.000000 0.064789 0.000000
0.000000 0.065552 0.000000
0.008759 0.066315 0.000000
0.018311 0.067047 0.000000
0.027649 0.067749 0.000000
0.036896 0.068481 0.000000
0.046509 0.069214 0.000000
0.055817 0.069824 0.000000
0.065186 0.070618 0.000000
0.074371 0.071320 0.000000
0.083679 0.072235 0.000000
0.092712 0.072906 0.000000
0.101837 0.073792 0.000000
0.110748 0.074493 0.000000
0.119537 0.075195 0.000000
0.128418 0.076019 0.000000
0.137146 0.076660 0.000000
0.145782 0.077271 0.000000
0.154327 0.077850 0.000000
0.162872 0.078430 0.000000
0.171326 0.079010 0.000000
0.179718 0.079559 0.000000
0.188080 0.080078 0.000000
0.196350 0.080658 0.000000
0.204468 0.080994 0.000000
0.212585 0.081451 0.000000
0.220734 0.081879 0.000000
0.228699 0.082214 0.000000
0.236542 0.082489 0.000000
0.244446 0.082916 0.000000
0.252289 0.083221 0.000000
0.260101 0.083466 0.000000
0.267639 0.083405 0.000000
0.275391 0.083374 0.000000
0.283234 0.083344 0.000000
0.291229 0.083252 0.000000
0.299438 0.083282 0.000000
0.307739 0.083313 0.000000
0.316223 0.083313 0.000000
0.324799 0.083252 0.000000
0.333710 0.083221 0.000000
0.342773 0.083099 0.000000
0.351990 0.083038 0.000000
0.361542 0.082947 0.000000
0.371277 0.082764 0.000000
0.381348 0.082642 0.000000
