custom_nodes/comfyui-vrgamedevgirl/LUTS/Dark_High_Contrast_Vivid_Cinematic.cube
#Created by: Adobe Photoshop Export Color Lookup Plugin
#Copyright: (C) Copyright 2017 PremiumBeat
TITLE "Everest"
#LUT size
LUT_3D_SIZE 8
#data domain
DOMAIN_MIN 0.0 0.0 0.0
DOMAIN_MAX 1.0 1.0 1.0
#LUT data points
0.000305 0.000458 0.000977
0.025818 0.001587 0.002289
0.085205 0.002563 0.004974
0.221954 0.001892 0.005524
0.483887 0.001404 0.008362
0.727020 0.000824 0.010193
0.846436 0.000275 0.009949
0.895294 0.000000 0.009674
0.001770 0.033112 0.005951
0.026855 0.033417 0.006653
0.085541 0.033051 0.006714
0.222290 0.032501 0.007660
0.484222 0.031982 0.010620
0.727325 0.031189 0.011536
0.846680 0.030396 0.010956
0.895538 0.030243 0.010651
0.001343 0.099030 0.007751
0.026367 0.099426 0.008698
0.086121 0.100433 0.010986
0.223053 0.100159 0.012573
0.485077 0.099518 0.014923
0.728088 0.098328 0.014282
0.847443 0.097626 0.013367
0.896332 0.097137 0.012970
0.000671 0.246063 0.014282
0.025391 0.246399 0.015167
0.085083 0.247528 0.017548
0.224670 0.249817 0.021942
0.486816 0.248413 0.021118
0.729858 0.246765 0.018982
0.849457 0.245850 0.017822
0.898499 0.245605 0.017426
0.000000 0.513947 0.022217
0.023743 0.514740 0.021545
0.083313 0.515564 0.022614
0.222778 0.517273 0.024811
0.490509 0.520508 0.028778
0.735718 0.519440 0.027679
0.856354 0.519073 0.027222
0.905731 0.518829 0.027008
0.000000 0.753784 0.025024
0.022949 0.755707 0.022858
0.082733 0.756592 0.024017
0.223145 0.758667 0.026733
0.492828 0.762512 0.031799
0.743835 0.765839 0.035461
0.865265 0.765350 0.034271
0.915100 0.765076 0.033630
0.000000 0.871460 0.025513
0.023438 0.872803 0.024200
0.083557 0.873840 0.025513
0.224457 0.875977 0.028290
0.494781 0.879700 0.032593
0.746857 0.883026 0.034943
0.871338 0.884735 0.035553
0.921417 0.884705 0.034790
0.000000 0.919769 0.025635
0.023926 0.920624 0.024841
0.084167 0.921631 0.026184
0.225159 0.923767 0.028900
0.495605 0.927399 0.032593
0.748352 0.930847 0.034363
0.872894 0.932465 0.034729
0.923920 0.933075 0.034851
0.000214 0.000336 0.042450
0.026489 0.002747 0.045624
0.085266 0.002686 0.046143
0.222046 0.002045 0.046631
0.483978 0.001556 0.049103
0.727142 0.000977 0.050507
0.846527 0.000427 0.050140
0.895355 0.000122 0.050110
0.001831 0.033203 0.046906
0.026428 0.033051 0.046875
0.085022 0.032623 0.046906
0.221802 0.032104 0.047852
0.483765 0.031647 0.050446
0.726868 0.030823 0.051147
0.846222 0.030182 0.050720
0.895142 0.029877 0.050293
0.001404 0.099182 0.048523
0.025970 0.099060 0.048676
0.085602 0.100006 0.050629
0.222504 0.099792 0.052094
0.484558 0.099182 0.054077
0.727570 0.097778 0.053406
0.846924 0.097076 0.052551
0.895752 0.096832 0.052155
0.000702 0.246246 0.054291
0.025116 0.246216 0.054626
0.084656 0.247101 0.056396
0.224152 0.249420 0.060425
0.486267 0.247925 0.059509
0.729340 0.246368 0.057556
0.848907 0.245605 0.056549
0.897980 0.245148 0.056122
0.000000 0.514160 0.061035
0.023590 0.514557 0.060303
0.082764 0.515076 0.060852
0.222229 0.516754 0.062805
0.490082 0.520050 0.066528
0.735291 0.519012 0.065613
0.855896 0.518433 0.065125
0.905334 0.518250 0.064911
0.000000 0.754089 0.063385
0.022827 0.755585 0.061401
0.082367 0.756134 0.062164
0.222778 0.758209 0.064697
0.492371 0.762054 0.069397
0.743439 0.765381 0.072754
0.864899 0.764862 0.071625
0.914703 0.764771 0.070984
0.000000 0.871857 0.063995
0.023468 0.872742 0.062683
0.083191 0.873352 0.063538
0.224121 0.875549 0.066162
0.494446 0.879303 0.070129
0.746490 0.882629 0.072174
0.870911 0.884277 0.072723
0.921082 0.884094 0.071991
0.000000 0.920105 0.064240
0.023834 0.920563 0.063416
0.083679 0.921143 0.064178
0.224731 0.923309 0.066650
0.495361 0.926971 0.070068
0.748230 0.930420 0.071625
0.872528 0.932007 0.071991
0.923645 0.932617 0.072083
0.000397 0.000885 0.121063
0.025665 0.002228 0.123291
0.085358 0.002930 0.124603
0.222198 0.002411 0.125275
0.484131 0.001953 0.127686
0.727295 0.001282 0.128601
0.846680 0.000702 0.128387
0.895538 0.000397 0.128021
0.001038 0.032288 0.123840
0.025482 0.032074 0.123840
0.085083 0.032898 0.125397
0.221954 0.032501 0.126404
0.483948 0.032043 0.128693
0.727020 0.031128 0.129120
0.846405 0.030426 0.128510
0.895233 0.030151 0.128326
0.001495 0.099487 0.126892
0.026031 0.099426 0.127075
0.084656 0.099213 0.127594
0.221466 0.098999 0.128967
0.483521 0.098389 0.130676
0.726501 0.096985 0.129822
0.845795 0.096222 0.128967
0.894684 0.095886 0.128632
0.000824 0.246674 0.132355
0.025238 0.246613 0.132599
0.083832 0.246490 0.133087
0.223114 0.248474 0.136414
0.485046 0.246948 0.135376
0.728180 0.245239 0.133545
0.847809 0.244568 0.132629
0.896820 0.244293 0.132294
0.000000 0.514618 0.138000
0.023682 0.514893 0.137512
0.082092 0.514404 0.136993
0.221161 0.515808 0.138458
0.489105 0.519073 0.141968
0.734344 0.518097 0.141144
0.854980 0.517639 0.140686
0.904388 0.517456 0.140472
0.000000 0.754669 0.139984
0.023041 0.755920 0.138702
0.081818 0.755554 0.138306
0.221802 0.757263 0.140289
0.491577 0.761139 0.144623
0.742493 0.764404 0.147675
0.864166 0.764038 0.146515
0.914062 0.763733 0.145935
0.000000 0.872559 0.140442
0.023743 0.873077 0.139954
0.082733 0.872803 0.139557
0.223267 0.874573 0.141663
0.493561 0.878296 0.145233
0.745728 0.881653 0.147064
0.870361 0.883331 0.147491
0.920410 0.883240 0.146759
0.000000 0.920807 0.140747
0.024200 0.920929 0.140472
0.083252 0.920593 0.140076
0.223907 0.922363 0.142059
0.494446 0.926025 0.145172
0.747437 0.929443 0.146454
0.872040 0.931030 0.146759
0.922760 0.931610 0.146820
0.000000 0.000977 0.276215
0.023590 0.000336 0.277893
0.083038 0.001068 0.279297
0.222412 0.003082 0.282959
0.484497 0.002747 0.285248
0.727661 0.001923 0.285645
0.846985 0.001251 0.285217
0.895813 0.000977 0.284912
0.000000 0.030884 0.277710
0.023376 0.030121 0.278595
0.082886 0.031006 0.280151
0.222168 0.033234 0.284027
0.484314 0.032928 0.286194
0.727386 0.031799 0.286163
0.846710 0.031067 0.285461
0.895569 0.030731 0.285248
0.000000 0.097656 0.281586
0.024017 0.097565 0.281891
0.082428 0.097412 0.282471
0.221649 0.099701 0.286407
0.483826 0.099091 0.287659
0.726807 0.097626 0.286591
0.846161 0.096832 0.285767
0.895050 0.096527 0.285461
0.000977 0.247467 0.289581
0.025421 0.247406 0.289825
0.084045 0.247223 0.290161
0.220856 0.246613 0.290222
0.482697 0.244995 0.289032
0.725800 0.243317 0.287323
0.845520 0.242523 0.286316
0.894653 0.242279 0.286102
0.000000 0.515564 0.293915
0.023926 0.515503 0.293701
0.082397 0.515045 0.293182
0.219208 0.513977 0.292084
0.486908 0.517029 0.295135
0.732269 0.516144 0.294434
0.852966 0.515686 0.294006
0.902435 0.515472 0.293793
0.000000 0.756012 0.295197
0.023590 0.756683 0.294891
0.082428 0.756287 0.294586
0.220306 0.755615 0.294067
0.489746 0.759125 0.297607
0.740784 0.762299 0.300232
0.862579 0.761932 0.298981
0.912598 0.761749 0.298340
0.000061 0.874023 0.296112
0.024414 0.873901 0.296204
0.083496 0.873596 0.295929
0.221710 0.872894 0.295197
0.491791 0.876190 0.297913
0.744476 0.879639 0.299316
0.868866 0.881256 0.299652
0.919006 0.881042 0.298981
0.000366 0.921844 0.296722
0.024902 0.921692 0.296600
0.084076 0.921387 0.296448
0.222443 0.920654 0.295471
0.493042 0.923981 0.297699
0.746216 0.927399 0.298737
0.870544 0.928894 0.298950
0.921265 0.929413 0.299011
0.000000 0.001617 0.533600
0.022308 0.000000 0.536438
0.080322 0.000000 0.539062
0.218048 0.000092 0.545044
0.484863 0.003998 0.551483
0.728180 0.003021 0.551300
0.847534 0.002319 0.550812
0.896393 0.002045 0.550446
0.000000 0.031250 0.535278
0.019745 0.026672 0.540619
0.078857 0.027679 0.542267
0.217804 0.030060 0.546051
0.484680 0.034058 0.552185
0.727936 0.032928 0.551636
0.847229 0.032166 0.550873
0.896179 0.031830 0.550659
0.000000 0.097015 0.539398
0.020355 0.094299 0.544037
0.078461 0.094147 0.544586
0.217438 0.096436 0.548126
0.484131 0.100067 0.553009
0.727356 0.098755 0.551910
0.846802 0.097931 0.551147
0.895752 0.097656 0.550812
0.000000 0.244141 0.548401
0.021820 0.243988 0.551178
0.080109 0.243683 0.551270
0.216553 0.242859 0.550812
0.482941 0.245789 0.553894
0.726715 0.244476 0.552429
0.846619 0.243774 0.551788
0.895782 0.243500 0.551514
0.000153 0.516785 0.558655
0.024353 0.516602 0.558441
0.082886 0.515991 0.557922
0.219910 0.515076 0.556915
0.483337 0.513550 0.555573
0.728821 0.512634 0.554840
0.849548 0.512085 0.554382
0.899048 0.511841 0.554047
0.000214 0.758179 0.559998
0.024658 0.758026 0.559998
0.083679 0.757690 0.559784
0.221771 0.757050 0.559235
0.486725 0.755707 0.557800
0.737915 0.758636 0.559479
0.860046 0.758331 0.558075
0.910004 0.758026 0.557373
0.001007 0.875458 0.561188
0.025726 0.875336 0.561188
0.084961 0.874969 0.560974
0.223419 0.874268 0.560150
0.489227 0.872772 0.557617
0.741943 0.875946 0.558258
0.866241 0.877411 0.558441
0.916260 0.877106 0.557739
0.001404 0.923279 0.561707
0.026245 0.923126 0.561584
0.085632 0.922760 0.561279
0.224182 0.921936 0.560303
0.490753 0.920563 0.557190
0.743591 0.923615 0.557587
0.867615 0.924866 0.557709
0.918152 0.925354 0.557739
0.000000 0.002380 0.754028
0.021515 0.000000 0.757690
0.079163 0.000000 0.760345
0.215240 0.000000 0.766418
0.480957 0.001068 0.774811
0.728271 0.003723 0.778076
0.848083 0.003265 0.777710
0.896942 0.002930 0.777222
0.000000 0.031891 0.755859
0.016479 0.023834 0.764801
0.075226 0.024841 0.766418
0.213989 0.027161 0.770081
0.480652 0.030884 0.775238
0.728210 0.033630 0.778198
0.847809 0.033142 0.777710
0.896759 0.032806 0.777496
0.000000 0.097443 0.759918
0.017151 0.091309 0.768188
0.074951 0.091339 0.768646
0.213562 0.093414 0.771820
0.480042 0.096710 0.775787
0.727570 0.099426 0.778473
0.847504 0.098969 0.777954
0.896484 0.098663 0.777618
0.000000 0.243225 0.768280
0.018616 0.240784 0.774475
0.076538 0.240356 0.774323
0.212677 0.239441 0.773651
0.478943 0.242371 0.776428
0.727325 0.245239 0.779053
0.847748 0.244965 0.778839
0.896942 0.244690 0.778656
0.000000 0.511932 0.777710
0.021179 0.512970 0.780853
0.079498 0.512665 0.780334
0.216522 0.511627 0.779480
0.480103 0.510315 0.778442
0.730011 0.513519 0.781525
0.851227 0.513275 0.781219
0.900696 0.513000 0.780823
0.000946 0.759277 0.786804
0.025604 0.759064 0.786713
0.084747 0.758789 0.786499
0.223053 0.758148 0.785950
0.488251 0.756714 0.784241
0.735779 0.755585 0.781525
0.857880 0.755035 0.779846
0.907837 0.754730 0.779144
0.001923 0.876709 0.788147
0.026917 0.876587 0.788025
0.086334 0.876251 0.787659
0.224945 0.875458 0.786652
0.491486 0.874023 0.783661
0.739838 0.872650 0.780029
0.863678 0.873871 0.780060
0.913452 0.873505 0.779358
0.002441 0.924530 0.788452
0.027496 0.924316 0.788361
0.086975 0.923981 0.787811
0.225800 0.923126 0.786560
0.493103 0.921753 0.783112
0.741211 0.920166 0.779297
0.864624 0.921143 0.779388
0.914978 0.921478 0.779419
0.000000 0.002747 0.858185
0.021088 0.000000 0.862213
0.078491 0.000000 0.864960
0.214355 0.000000 0.870941
0.479004 0.000000 0.879852
0.726440 0.002197 0.883240
0.847900 0.003387 0.884460
0.897217 0.003387 0.884521
0.000000 0.032318 0.860077
0.014984 0.022400 0.870667
0.073639 0.023468 0.872314
0.212250 0.025818 0.875854
0.478729 0.029358 0.880524
0.726196 0.032013 0.883362
0.847809 0.033264 0.884583
0.897095 0.033264 0.884583
0.000000 0.097595 0.864197
0.015625 0.089905 0.874023
0.073242 0.089783 0.874481
0.211700 0.091919 0.877350
0.478119 0.095154 0.881042
0.725708 0.097809 0.883606
0.847565 0.099121 0.884827
0.896851 0.099121 0.884888
0.000000 0.243042 0.872009
0.017090 0.239319 0.879883
0.074799 0.238892 0.879669
0.210815 0.237885 0.878906
0.477142 0.240692 0.881561
0.725525 0.243622 0.884247
0.847870 0.245148 0.885773
0.897552 0.245270 0.885956
0.000000 0.510559 0.881134
0.019684 0.511505 0.885956
0.077911 0.510864 0.885529
0.214874 0.510010 0.884705
0.478577 0.508728 0.883728
0.728485 0.511963 0.886719
0.851654 0.513489 0.888000
0.901550 0.513550 0.887939
0.000000 0.757751 0.891998
0.024323 0.757629 0.891907
0.083405 0.757263 0.891663
0.221619 0.756622 0.891113
0.486877 0.755066 0.889160
0.734680 0.753937 0.886292
0.858887 0.755432 0.886444
0.908966 0.755310 0.885925
0.002380 0.877228 0.895081
0.027435 0.877136 0.894989
0.086884 0.876648 0.894562
0.225586 0.875793 0.893463
0.492584 0.874542 0.890411
0.740906 0.873108 0.886749
0.862366 0.872131 0.884827
0.911957 0.871613 0.884125
0.002960 0.925110 0.895538
0.028137 0.924927 0.895447
0.087677 0.924530 0.894958
0.226685 0.923706 0.893555
0.494293 0.922363 0.889893
0.742157 0.920593 0.885986
0.863098 0.919281 0.884155
0.915100 0.919312 0.884125
0.000000 0.002899 0.900269
0.021027 0.000000 0.904449
0.078247 0.000000 0.907196
0.213959 0.000000 0.913086
0.477936 0.000000 0.921753
0.725616 0.001617 0.925659
0.847107 0.002777 0.926910
0.897003 0.003265 0.927368
0.000000 0.032410 0.902161
0.014404 0.021942 0.913422
0.072815 0.022919 0.915070
0.211426 0.025238 0.918518
0.477875 0.028717 0.923035
0.725342 0.031372 0.925781
0.847015 0.032623 0.927002
0.896820 0.033173 0.927460
0.000000 0.097778 0.906219
0.014984 0.089294 0.916718
0.072571 0.089203 0.917114
0.211121 0.091248 0.919891
0.477386 0.094452 0.923431
0.724823 0.097137 0.926025
0.846710 0.098480 0.927216
0.896637 0.099030 0.927734
0.000000 0.242889 0.913818
0.016449 0.238678 0.922363
0.074127 0.238190 0.922150
0.210083 0.237213 0.921387
0.476318 0.240051 0.924042
0.724823 0.242981 0.926697
0.847321 0.244537 0.928223
0.897400 0.245209 0.928894
0.000000 0.510254 0.922913
0.019104 0.510803 0.928375
0.077240 0.510315 0.927979
0.214264 0.509369 0.927155
0.477905 0.508148 0.926208
0.727875 0.511292 0.929169
0.851105 0.512878 0.930389
0.901581 0.513489 0.930817
0.000000 0.756683 0.933899
0.023834 0.756805 0.934387
0.082855 0.756622 0.934113
0.221100 0.755859 0.933563
0.486359 0.754456 0.931549
0.734253 0.753357 0.928619
0.858429 0.754730 0.928711
0.909332 0.755371 0.928802
0.001984 0.876465 0.937531
0.026917 0.876373 0.937347
0.086334 0.875977 0.937012
0.225067 0.875275 0.935852
0.492126 0.873901 0.932678
0.740417 0.872375 0.928955
0.861816 0.871368 0.927124
0.912201 0.871704 0.927094
0.003082 0.925293 0.938629
0.028259 0.925079 0.938416
0.087860 0.924591 0.937927
0.226959 0.923737 0.936523
0.494690 0.922516 0.932922
0.742462 0.920746 0.929077
0.864227 0.919342 0.927185
0.914246 0.918457 0.926361
