custom_nodes/comfyui-vrgamedevgirl/LUTS/Dark_Soft_Vivid_Cool.cube
#Created by: Adobe Photoshop Export Color Lookup Plugin
#Copyright: (C) Copyright 2017 PremiumBeat
TITLE "Boulder"
#LUT size
LUT_3D_SIZE 4
#data domain
DOMAIN_MIN 0.0 0.0 0.0
DOMAIN_MAX 1.0 1.0 1.0
#LUT data points
0.064911 0.054779 0.071594
0.158936 0.047607 0.064270
0.491882 0.019775 0.035675
0.790924 0.000000 0.000854
0.058319 0.150085 0.064392
0.160950 0.151031 0.064148
0.496368 0.126892 0.035461
0.799927 0.094116 0.001678
0.035370 0.477020 0.036255
0.146515 0.484100 0.035919
0.501190 0.487518 0.035309
0.800568 0.453156 0.001038
0.014496 0.818817 0.002167
0.134338 0.835754 0.001434
0.478180 0.847260 0.001434
0.800049 0.842865 0.015503
0.058716 0.048157 0.162567
0.160095 0.047546 0.163574
0.492889 0.019775 0.140564
0.791931 0.000000 0.110748
0.058594 0.149780 0.163116
0.156494 0.145294 0.158875
0.490021 0.120850 0.137451
0.791992 0.088501 0.116333
0.035431 0.478210 0.134613
0.142212 0.477600 0.133545
0.495270 0.480927 0.136597
0.792145 0.447083 0.110657
0.013123 0.825684 0.086975
0.131958 0.831268 0.089386
0.474792 0.842224 0.095551
0.789459 0.830505 0.150208
0.037109 0.023254 0.468384
0.144928 0.020966 0.505585
0.496521 0.019501 0.509949
0.794495 0.000000 0.476105
0.036255 0.120605 0.502167
0.141907 0.119293 0.502167
0.494812 0.120209 0.508240
0.791901 0.090393 0.482758
0.038971 0.474182 0.501587
0.146912 0.473633 0.501312
0.469696 0.450623 0.478851
0.763489 0.420105 0.449219
0.015717 0.820984 0.460236
0.132233 0.821869 0.460876
0.446655 0.799866 0.443695
0.760712 0.793854 0.503204
0.013916 0.000000 0.775513
0.130066 0.000000 0.843872
0.471985 0.000000 0.893921
0.799774 0.000000 0.898315
0.014435 0.080139 0.872833
0.131836 0.082184 0.879425
0.474945 0.087219 0.898865
0.791748 0.093933 0.893494
0.016815 0.431610 0.872009
0.132690 0.432434 0.873993
0.445526 0.416107 0.849701
0.763000 0.423615 0.846008
0.024170 0.813629 0.869781
0.143097 0.815338 0.872406
0.452423 0.794830 0.848572
0.733398 0.767303 0.835052
