custom_nodes/comfyui-vrgamedevgirl/LUTS/Dark_High_Contrast_Vivid_Magenta_Tint.cube
#Created by: Adobe Photoshop Export Color Lookup Plugin
#Copyright: (C) Copyright 2017 PremiumBeat
TITLE "Reykjavik"
#LUT size
LUT_3D_SIZE 4
#data domain
DOMAIN_MIN 0.0 0.0 0.0
DOMAIN_MAX 1.0 1.0 1.0
#LUT data points
0.007751 0.019318 0.022644
0.181885 0.019684 0.022919
0.599091 0.020935 0.023804
0.982483 0.022430 0.024902
0.009308 0.188782 0.023224
0.183777 0.189331 0.023621
0.601593 0.190887 0.024750
0.985352 0.192566 0.025940
0.014648 0.563904 0.025177
0.189545 0.564667 0.025757
0.608063 0.566589 0.027130
0.991974 0.568329 0.028412
0.022217 0.995331 0.027985
0.197144 0.996094 0.028534
0.615295 0.997833 0.029785
0.998291 0.999146 0.030731
0.007996 0.019440 0.196136
0.182190 0.019836 0.196411
0.599548 0.021179 0.197388
0.983002 0.022705 0.198486
0.009674 0.188965 0.196747
0.184204 0.189545 0.197174
0.602142 0.191162 0.198334
0.985901 0.192841 0.199554
0.015198 0.564178 0.198792
0.190125 0.564972 0.199341
0.608643 0.566895 0.200745
0.992523 0.568634 0.201996
0.022766 0.995605 0.201599
0.197693 0.996368 0.202148
0.615753 0.998077 0.203369
0.998657 0.999329 0.204285
0.008698 0.019806 0.611145
0.183044 0.020294 0.611481
0.600677 0.021759 0.612549
0.984314 0.023376 0.613739
0.010651 0.189453 0.611877
0.185303 0.190094 0.612335
0.603424 0.191803 0.613556
0.987274 0.193542 0.614838
0.016541 0.564880 0.614044
0.191498 0.565674 0.614624
0.610016 0.567596 0.616028
0.993805 0.569275 0.617249
0.024109 0.996277 0.616852
0.198944 0.997040 0.617371
0.616821 0.998596 0.618530
0.999420 0.999695 0.619324
0.009460 0.020172 0.991882
0.183929 0.020721 0.992279
0.601807 0.022308 0.993439
0.985535 0.023987 0.994659
0.011627 0.189972 0.992706
0.186371 0.190643 0.993195
0.604645 0.192444 0.994507
0.988556 0.194214 0.995758
0.017792 0.565491 0.994965
0.192749 0.566315 0.995544
0.611267 0.568237 0.996948
0.994934 0.569855 0.998138
0.025269 0.996887 0.997742
0.200073 0.997589 0.998260
0.617676 0.999054 0.999329
1.000000 1.000000 1.000000
