custom_nodes/comfyui-vrgamedevgirl/LUTS/Dark_High_Contrast_Vivid_Cinematic_2.cube
#Created by: Adobe Photoshop Export Color Lookup Plugin
#Copyright: (C) Copyright 2017 PremiumBeat.com
TITLE "Phoenix"
#LUT size
LUT_3D_SIZE 8
#data domain
DOMAIN_MIN 0.0 0.0 0.0
DOMAIN_MAX 1.0 1.0 1.0
#LUT data points
0.002167 0.002167 0.002167
0.065460 0.015289 0.013306
0.127594 0.016632 0.014374
0.180634 0.018127 0.015289
0.231689 0.019806 0.016205
0.461426 0.029968 0.020660
0.789856 0.049042 0.027802
0.882935 0.054901 0.029999
0.017303 0.071838 0.014343
0.068573 0.073242 0.015228
0.131805 0.075378 0.016388
0.185730 0.077454 0.017365
0.237518 0.079651 0.018372
0.469788 0.091553 0.023102
0.799774 0.111755 0.030609
0.892731 0.117584 0.032867
0.023468 0.152283 0.017120
0.075867 0.154480 0.018127
0.140289 0.157410 0.019348
0.195129 0.160095 0.020477
0.247742 0.162872 0.021545
0.482544 0.176575 0.026672
0.813049 0.197266 0.034607
0.905640 0.202911 0.036987
0.035522 0.257141 0.021057
0.088928 0.260040 0.022156
0.154449 0.263702 0.023560
0.210114 0.266998 0.024780
0.263306 0.270172 0.025940
0.499573 0.285004 0.031494
0.828461 0.304840 0.039886
0.919830 0.309723 0.042389
0.054596 0.389008 0.026459
0.108673 0.392365 0.027679
0.174774 0.396484 0.029236
0.230804 0.400055 0.030579
0.284180 0.403412 0.031860
0.519653 0.417877 0.037842
0.844727 0.435852 0.047791
0.937897 0.442963 0.053131
0.080780 0.556305 0.033997
0.134766 0.559631 0.035370
0.200500 0.563599 0.037079
0.255951 0.566833 0.038513
0.308685 0.569824 0.039948
0.540283 0.582214 0.047028
0.867828 0.605530 0.067017
0.958344 0.611267 0.073151
0.104401 0.726624 0.042511
0.157135 0.729187 0.043976
0.221466 0.732330 0.045929
0.277832 0.736786 0.049011
0.331268 0.740845 0.052063
0.564331 0.756989 0.066681
0.884247 0.776337 0.088776
0.973694 0.781677 0.095276
0.131165 0.923615 0.060638
0.184235 0.927155 0.064026
0.248871 0.931366 0.068329
0.303314 0.934784 0.071991
0.355103 0.937988 0.075562
0.582794 0.951355 0.091461
0.897888 0.970245 0.117096
0.985413 0.975006 0.124573
0.047455 0.032227 0.059204
0.065887 0.015686 0.068909
0.128235 0.017181 0.069977
0.181458 0.018799 0.070923
0.232666 0.020599 0.071838
0.462891 0.031097 0.076355
0.791718 0.050446 0.083557
0.884735 0.056274 0.085754
0.017914 0.072388 0.069946
0.069397 0.073914 0.070831
0.132782 0.076141 0.071991
0.186890 0.078339 0.073029
0.238770 0.080597 0.074005
0.471497 0.092834 0.078827
0.801575 0.113129 0.086365
0.894592 0.118988 0.088654
0.024597 0.153168 0.072754
0.077087 0.155396 0.073761
0.141693 0.158478 0.075043
0.196625 0.161255 0.076141
0.249329 0.164062 0.077240
0.484314 0.177917 0.082397
0.814850 0.198639 0.090393
0.907288 0.204193 0.092773
0.037079 0.258331 0.076721
0.090515 0.261230 0.077850
0.156158 0.265015 0.079285
0.211823 0.268311 0.080505
0.265106 0.271545 0.081696
0.501373 0.286377 0.087250
0.829987 0.306061 0.095734
0.921112 0.310791 0.098206
0.056427 0.390381 0.082184
0.110474 0.393707 0.083435
0.176666 0.397919 0.084991
0.232635 0.401428 0.086334
0.286041 0.404816 0.087646
0.521240 0.419098 0.093658
0.846710 0.437592 0.104279
0.939575 0.444550 0.109650
0.082611 0.557678 0.089813
0.136444 0.560974 0.091156
0.202179 0.564911 0.092896
0.257538 0.568085 0.094360
0.310211 0.571045 0.095764
0.542236 0.583923 0.103485
0.869141 0.606934 0.123718
0.959503 0.612549 0.129852
0.105713 0.727661 0.098328
0.158356 0.730194 0.099823
0.223480 0.734100 0.102356
0.279755 0.738495 0.105499
0.333008 0.742462 0.108582
0.565643 0.758392 0.123383
0.885223 0.777588 0.145538
0.974640 0.782959 0.152161
0.132599 0.925049 0.117218
0.185638 0.928589 0.120697
0.250122 0.932709 0.125000
0.304504 0.936127 0.128723
0.356201 0.939240 0.132263
0.583771 0.952576 0.148193
0.898468 0.971405 0.174133
0.985870 0.976044 0.181519
0.015839 0.015259 0.143921
0.066589 0.016327 0.144775
0.129211 0.018005 0.145874
0.182678 0.019775 0.146820
0.234039 0.021698 0.147766
0.465027 0.032715 0.152374
0.794189 0.052307 0.159668
0.887268 0.058197 0.161896
0.018921 0.073212 0.145844
0.070587 0.074921 0.146759
0.134247 0.077301 0.147949
0.188477 0.079590 0.148987
0.240570 0.082001 0.149994
0.473755 0.094543 0.154846
0.804108 0.115051 0.162506
0.897064 0.120880 0.164825
0.026154 0.154388 0.148712
0.078827 0.156769 0.149719
0.143585 0.159912 0.151031
0.198730 0.162842 0.152161
0.251465 0.165710 0.153259
0.486847 0.179810 0.158508
0.817169 0.200439 0.166565
0.909515 0.205933 0.168976
0.039185 0.259918 0.152740
0.092773 0.262939 0.153900
0.158478 0.266754 0.155304
0.214264 0.270142 0.156555
0.267548 0.273376 0.157745
0.503876 0.288269 0.163391
0.832001 0.307648 0.171936
0.922882 0.312225 0.174438
0.058868 0.392212 0.158264
0.113007 0.395630 0.159546
0.179138 0.399780 0.161102
0.235138 0.403351 0.162476
0.288483 0.406677 0.163788
0.523438 0.420837 0.169830
0.849304 0.439941 0.181427
0.941864 0.446716 0.186890
0.084961 0.559509 0.165955
0.138794 0.562775 0.167358
0.204376 0.566620 0.169067
0.259674 0.569763 0.170563
0.312164 0.572601 0.171967
0.544891 0.586304 0.180573
0.870880 0.608795 0.201111
0.961060 0.614349 0.207275
0.107422 0.729095 0.174561
0.159912 0.731537 0.176056
0.226196 0.736481 0.179443
0.282196 0.740723 0.182617
0.335358 0.744659 0.185791
0.567322 0.760223 0.200714
0.886536 0.779236 0.222931
0.975922 0.784790 0.229858
0.134552 0.927063 0.194580
0.187439 0.930511 0.198059
0.251801 0.934570 0.202393
0.306061 0.937897 0.206116
0.357697 0.941010 0.209717
0.585144 0.954376 0.225800
0.899170 0.972931 0.251923
0.986542 0.977509 0.259308
0.016602 0.015961 0.240082
0.067688 0.017242 0.240967
0.130646 0.019196 0.242096
0.184357 0.021118 0.243073
0.235992 0.023224 0.244049
0.467712 0.034760 0.248718
0.797424 0.054718 0.256134
0.890472 0.060638 0.258392
0.020355 0.074371 0.242065
0.072266 0.076233 0.243011
0.136230 0.078857 0.244202
0.190704 0.081299 0.245270
0.242981 0.083832 0.246307
0.476776 0.096832 0.251251
0.807281 0.117462 0.259033
0.900055 0.123199 0.261353
0.028290 0.156036 0.244995
0.081177 0.158569 0.246033
0.146179 0.161896 0.247345
0.201385 0.164856 0.248505
0.254333 0.167877 0.249634
0.489960 0.182159 0.254944
0.820129 0.202728 0.263092
0.912292 0.208099 0.265533
0.041962 0.262024 0.249115
0.095703 0.265137 0.250275
0.161530 0.269043 0.251740
0.217346 0.272430 0.252991
0.270721 0.275757 0.254211
0.507019 0.290680 0.259918
0.834351 0.309570 0.268524
0.924927 0.313965 0.271057
0.062073 0.394623 0.254730
0.116211 0.398041 0.256012
0.182343 0.402222 0.257599
0.238251 0.405731 0.258972
0.291595 0.409058 0.260284
0.526093 0.422943 0.266418
0.852386 0.442749 0.279144
0.944611 0.449371 0.284790
0.087982 0.561829 0.262512
0.141693 0.565033 0.263916
0.207123 0.568787 0.265625
0.262207 0.571808 0.267120
0.314575 0.574554 0.268555
0.548065 0.589203 0.278351
0.872925 0.611084 0.299164
0.962952 0.616577 0.305420
0.109497 0.730835 0.271179
0.163055 0.734253 0.273438
0.229462 0.739441 0.277191
0.285217 0.743561 0.280457
0.338165 0.747345 0.283691
0.569427 0.762543 0.298828
0.888275 0.781494 0.321259
0.977356 0.786987 0.328339
0.136902 0.929504 0.292603
0.189606 0.932831 0.296082
0.253845 0.936859 0.300507
0.307983 0.940125 0.304260
0.359528 0.943207 0.307861
0.586792 0.956665 0.324280
0.900055 0.974854 0.350525
0.987305 0.979218 0.357758
0.017822 0.017059 0.358276
0.069275 0.018585 0.359192
0.132660 0.020813 0.360352
0.186676 0.022949 0.361359
0.238586 0.025238 0.362366
0.471222 0.037384 0.367126
0.801331 0.057709 0.374695
0.894348 0.063568 0.377014
0.022308 0.075958 0.360321
0.074554 0.078033 0.361298
0.138885 0.080902 0.362549
0.193604 0.083527 0.363617
0.246094 0.086212 0.364685
0.480530 0.099670 0.369751
0.811127 0.120392 0.377625
0.903748 0.126038 0.379974
0.031128 0.158234 0.363342
0.084259 0.160919 0.364410
0.149475 0.164398 0.365784
0.204895 0.167511 0.366943
0.257935 0.170593 0.368103
0.493896 0.185120 0.373474
0.823669 0.205475 0.381775
0.915497 0.210693 0.384216
0.045532 0.264709 0.367554
0.099396 0.267914 0.368744
0.165314 0.271912 0.370239
0.221222 0.275360 0.371490
0.274628 0.278717 0.372742
0.510834 0.293579 0.378540
0.837128 0.311859 0.387238
0.928101 0.316711 0.390289
0.065979 0.397583 0.373291
0.120148 0.401031 0.374573
0.186249 0.405182 0.376190
0.242096 0.408661 0.377563
0.295380 0.411957 0.378937
0.529144 0.425385 0.385101
0.855988 0.446136 0.399414
0.947784 0.452545 0.405182
0.091553 0.564606 0.381165
0.145142 0.567719 0.382568
0.210327 0.571350 0.384308
0.265198 0.574219 0.385803
0.317352 0.576843 0.387268
0.551697 0.592560 0.398529
0.875366 0.613861 0.419739
0.965210 0.619263 0.426025
0.112854 0.733734 0.390533
0.167175 0.737946 0.393494
0.233246 0.742920 0.397369
0.288727 0.746918 0.400726
0.341431 0.750580 0.404053
0.571899 0.765350 0.419403
0.890320 0.784302 0.442261
0.979034 0.789703 0.449493
0.139618 0.932434 0.413116
0.192169 0.935699 0.416656
0.256256 0.939636 0.421112
0.310272 0.942841 0.424866
0.361725 0.945862 0.428467
0.588654 0.959442 0.445343
0.901093 0.977142 0.471680
0.988251 0.981293 0.478790
0.019836 0.018738 0.506744
0.071686 0.020538 0.507690
0.135529 0.023071 0.508881
0.189972 0.025513 0.509949
0.242126 0.027985 0.510956
0.475800 0.040863 0.515900
0.806274 0.061462 0.523621
0.899078 0.067200 0.525940
0.025208 0.078247 0.508850
0.077820 0.080597 0.509857
0.142487 0.083679 0.511139
0.197479 0.086487 0.512268
0.250214 0.089355 0.513367
0.485352 0.103271 0.518555
0.815826 0.123993 0.526581
0.908264 0.129547 0.528992
0.034943 0.161133 0.511963
0.088318 0.164001 0.513092
0.153778 0.167664 0.514465
0.209442 0.170929 0.515686
0.262604 0.174103 0.516846
0.498840 0.188873 0.522369
0.827911 0.208832 0.530792
0.919281 0.213715 0.533264
0.050110 0.268188 0.516296
0.104095 0.271454 0.517517
0.170197 0.275604 0.519043
0.226135 0.279083 0.520355
0.279572 0.282471 0.521637
0.515442 0.297150 0.527496
0.840332 0.314545 0.536316
0.933319 0.321320 0.541016
0.070892 0.401306 0.522156
0.125000 0.404724 0.523468
0.191040 0.408844 0.525116
0.246857 0.412323 0.526550
0.299988 0.415527 0.527924
0.532806 0.428375 0.534149
0.860229 0.450256 0.550507
0.951508 0.456360 0.556366
0.095856 0.567963 0.530151
0.149200 0.570953 0.531586
0.214081 0.574371 0.533356
0.268707 0.577118 0.534882
0.320496 0.579468 0.536316
0.556000 0.596741 0.549622
0.878296 0.617310 0.571198
0.967896 0.622559 0.577454
0.118011 0.738342 0.541260
0.172058 0.742401 0.544403
0.237640 0.747101 0.548370
0.292816 0.750916 0.551819
0.345245 0.754425 0.555206
0.574860 0.768799 0.570862
0.892578 0.787750 0.594269
0.980927 0.793060 0.601685
0.142822 0.936005 0.564453
0.195251 0.939209 0.568085
0.259094 0.942993 0.572510
0.312988 0.946167 0.576263
0.364349 0.949158 0.579895
0.590729 0.962830 0.597412
0.902283 0.979797 0.623688
0.989410 0.983734 0.630615
0.022369 0.020782 0.659576
0.074646 0.022858 0.660553
0.138916 0.025696 0.661774
0.193634 0.028320 0.662872
0.246124 0.031036 0.663940
0.480652 0.044525 0.669006
0.811188 0.065216 0.676880
0.903870 0.070892 0.679260
0.028595 0.080872 0.661774
0.081451 0.083374 0.662811
0.146515 0.086761 0.664124
0.201782 0.089752 0.665283
0.254730 0.092743 0.666412
0.490387 0.107086 0.671722
0.820526 0.127625 0.679901
0.912598 0.132965 0.682312
0.039185 0.164368 0.664978
0.092773 0.167358 0.666138
0.158478 0.171204 0.667542
0.214203 0.174530 0.668793
0.267548 0.177826 0.669983
0.503876 0.192719 0.675629
0.831940 0.212067 0.684143
0.922882 0.216675 0.686676
0.055023 0.271881 0.669434
0.109100 0.275238 0.670685
0.175201 0.279358 0.672211
0.231232 0.282928 0.673553
0.284607 0.286285 0.674866
0.520020 0.300720 0.680847
0.845245 0.318848 0.690979
0.938293 0.325867 0.696320
0.075928 0.405121 0.675415
0.130005 0.408539 0.676758
0.195892 0.412567 0.678406
0.251587 0.415955 0.679871
0.304474 0.419037 0.681244
0.536163 0.431183 0.687592
0.864258 0.454315 0.706116
0.955109 0.460175 0.712097
0.100037 0.571289 0.683533
0.153137 0.574127 0.684998
0.217651 0.577301 0.686768
0.271912 0.579834 0.688324
0.325439 0.583801 0.691040
0.560120 0.600830 0.705200
0.881134 0.620728 0.727020
0.970612 0.625946 0.733307
0.122955 0.742889 0.696564
0.176636 0.746765 0.699829
0.241852 0.751251 0.703918
0.296722 0.754913 0.707458
0.348907 0.758301 0.710907
0.577698 0.772217 0.726685
0.894623 0.791229 0.750854
0.982635 0.796356 0.758331
0.145966 0.939606 0.720276
0.198212 0.942719 0.723938
0.261932 0.946442 0.728394
0.315735 0.949554 0.732147
0.367035 0.952515 0.735718
0.592651 0.966248 0.754028
0.903503 0.982422 0.779999
0.990631 0.986053 0.786682
0.025818 0.023499 0.833649
0.078461 0.025818 0.834656
0.143219 0.028992 0.835938
0.198273 0.031860 0.837067
0.251038 0.034760 0.838165
0.486298 0.048767 0.843384
0.816742 0.069458 0.851440
0.909058 0.074951 0.853821
0.032837 0.084137 0.835907
0.086090 0.086914 0.837006
0.151428 0.090454 0.838379
0.206970 0.093658 0.839569
0.260071 0.096771 0.840729
0.496185 0.111481 0.846191
0.825623 0.131622 0.854492
0.917267 0.136688 0.856964
0.044312 0.168243 0.839264
0.098053 0.171356 0.840424
0.164032 0.175385 0.841888
0.219879 0.178802 0.843170
0.273285 0.182159 0.844421
0.509491 0.196991 0.850159
0.836212 0.215546 0.858826
0.926575 0.219818 0.861420
0.060730 0.276184 0.843842
0.114807 0.279541 0.845093
0.181000 0.283752 0.846680
0.236938 0.287292 0.848053
0.290314 0.290619 0.849365
0.524963 0.304596 0.855469
0.851105 0.324127 0.867706
0.943420 0.330780 0.873260
0.081604 0.409485 0.849945
0.135498 0.412750 0.851288
0.201263 0.416718 0.852997
0.256653 0.419922 0.854462
0.309387 0.422913 0.855865
0.541138 0.435486 0.863220
0.868439 0.458710 0.883331
0.958862 0.464355 0.889465
0.104462 0.574890 0.858215
0.157166 0.577454 0.859650
0.221558 0.580627 0.861633
0.277893 0.585052 0.864716
0.331329 0.589142 0.867798
0.564362 0.605255 0.882385
0.884277 0.624603 0.904510
0.973694 0.629883 0.910950
0.128082 0.747772 0.873505
0.181396 0.751434 0.876892
0.246216 0.755737 0.881104
0.300842 0.759277 0.884766
0.352722 0.762512 0.888245
0.580841 0.776093 0.904175
0.896698 0.795074 0.929230
0.984375 0.799957 0.936646
0.149292 0.943542 0.897705
0.201416 0.946594 0.901398
0.264984 0.950256 0.905823
0.318817 0.953461 0.909698
0.370087 0.956635 0.913696
0.594574 0.970001 0.932434
0.904877 0.985168 0.957825
1.000000 1.000000 1.000000
