custom_nodes/comfyui-vrgamedevgirl/LUTS/Dark_Muted_Cool_Cinematic.cube
#Created by: Adobe Photoshop Export Color Lookup Plugin
TITLE "ComfyUI_00055_.png"
#LUT size
LUT_3D_SIZE 65
#data domain
DOMAIN_MIN 0.0 0.0 0.0
DOMAIN_MAX 1.0 1.0 1.0
#LUT data points
0.000000 0.000000 0.000000
0.000000 0.000000 0.000000
0.000000 0.000000 0.000000
0.000000 0.000000 0.000000
0.000000 0.000000 0.000000
0.000000 0.000000 0.000000
0.000000 0.000000 0.000000
0.000000 0.000000 0.000000
0.000000 0.000000 0.000000
0.000000 0.000000 0.000000
0.024048 0.000000 0.000000
0.064575 0.000000 0.000000
0.088531 0.000000 0.000000
0.108398 0.000000 0.000000
0.126282 0.000000 0.000000
0.143036 0.000000 0.000000
0.159180 0.000000 0.000000
0.174957 0.000000 0.000000
0.190338 0.000000 0.000000
0.205597 0.000000 0.000000
0.220795 0.000000 0.000000
0.235962 0.000000 0.000000
0.251251 0.000000 0.000000
0.266541 0.000000 0.000000
0.282013 0.000000 0.000000
0.297577 0.000000 0.000000
0.313354 0.000000 0.000000
0.329285 0.000000 0.000000
0.345459 0.000000 0.000000
0.361816 0.000000 0.000000
0.378326 0.000000 0.000000
0.394989 0.000000 0.000000
0.411743 0.000000 0.000000
0.424377 0.000000 0.000000
0.441223 0.000000 0.000000
0.458038 0.000000 0.000000
0.474823 0.000000 0.000000
0.491425 0.000000 0.000000
0.507690 0.000000 0.000000
0.523712 0.000000 0.000000
0.539459 0.000000 0.000000
0.554962 0.000000 0.000000
0.570129 0.000000 0.000000
0.585022 0.000000 0.000000
0.599640 0.000000 0.000000
0.614014 0.000000 0.000000
0.628235 0.000000 0.000000
0.642242 0.000000 0.000000
0.656036 0.000000 0.000000
0.669708 0.000000 0.000000
0.683258 0.000000 0.000000
0.696655 0.000000 0.000000
0.710083 0.000000 0.000000
0.723389 0.000000 0.000000
0.736694 0.000000 0.000000
0.750000 0.000000 0.000000
0.763397 0.000000 0.000000
0.776886 0.000000 0.000000
0.790619 0.000000 0.000000
0.804535 0.000000 0.000000
0.818848 0.000000 0.000000
0.833771 0.000000 0.000000
0.849426 0.000000 0.000000
0.866394 0.000000 0.000000
0.885345 0.000000 0.000000
0.000000 0.000000 0.000000
0.000000 0.000000 0.000000
0.000000 0.000000 0.000000
0.000000 0.000000 0.000000
0.000000 0.000000 0.000000
0.000000 0.000000 0.000000
0.000000 0.000000 0.000000
0.000000 0.000000 0.000000
0.000000 0.000000 0.000000
0.000000 0.000000 0.000000
0.026001 0.000000 0.000000
0.065399 0.000000 0.000000
0.089203 0.000000 0.000000
0.108978 0.000000 0.000000
0.126831 0.000000 0.000000
0.143555 0.000000 0.000000
0.159698 0.000000 0.000000
0.175354 0.000000 0.000000
0.190765 0.000000 0.000000
0.206055 0.000000 0.000000
0.221222 0.000000 0.000000
0.236481 0.000000 0.000000
0.251709 0.000000 0.000000
0.267029 0.000000 0.000000
0.282501 0.000000 0.000000
0.298096 0.000000 0.000000
0.313843 0.000000 0.000000
0.329773 0.000000 0.000000
0.345947 0.000000 0.000000
0.362305 0.000000 0.000000
0.378845 0.000000 0.000000
0.395477 0.000000 0.000000
0.412292 0.000000 0.000000
0.424896 0.000000 0.000000
0.441772 0.000000 0.000000
0.458527 0.000000 0.000000
0.475342 0.000000 0.000000
0.491913 0.000000 0.000000
0.508240 0.000000 0.000000
0.524292 0.000000 0.000000
0.539978 0.000000 0.000000
0.555450 0.000000 0.000000
0.570648 0.000000 0.000000
0.585510 0.000000 0.000000
0.600159 0.000000 0.000000
0.614532 0.000000 0.000000
0.628693 0.000000 0.000000
0.642700 0.000000 0.000000
0.656525 0.000000 0.000000
0.670166 0.000000 0.000000
0.683716 0.000000 0.000000
0.697144 0.000000 0.000000
0.710510 0.000000 0.000000
0.723846 0.000000 0.000000
0.737122 0.000000 0.000000
0.750427 0.000000 0.000000
0.763824 0.000000 0.000000
0.777313 0.000000 0.000000
0.791016 0.000000 0.000000
0.804932 0.000000 0.000000
0.819244 0.000000 0.000000
0.834167 0.000000 0.000000
0.849823 0.000000 0.000000
0.866760 0.000000 0.000000
0.885742 0.000000 0.000000
0.000000 0.000000 0.000000
0.000000 0.000000 0.000000
0.000000 0.000000 0.000000
0.000000 0.000000 0.000000
0.000000 0.000000 0.000000
0.000000 0.000000 0.000000
0.000000 0.000000 0.000000
0.000000 0.000000 0.000000
0.000000 0.000000 0.000000
0.000000 0.000000 0.000000
0.027924 0.000000 0.000000
0.066223 0.000000 0.000000
0.089783 0.000000 0.000000
0.109528 0.000000 0.000000
0.127380 0.000000 0.000000
0.144073 0.000000 0.000000
0.160187 0.000000 0.000000
0.175812 0.000000 0.000000
0.191284 0.000000 0.000000
0.206482 0.000000 0.000000
0.221741 0.000000 0.000000
0.236969 0.000000 0.000000
0.252167 0.000000 0.000000
0.267548 0.000000 0.000000
0.282959 0.000000 0.000000
0.298584 0.000000 0.000000
0.314331 0.000000 0.000000
0.330322 0.000000 0.000000
0.346466 0.000000 0.000000
0.362885 0.000000 0.000000
0.379333 0.000000 0.000000
0.396057 0.000000 0.000000
0.412781 0.000000 0.000000
0.425446 0.000000 0.000000
0.442322 0.000000 0.000000
0.459106 0.000000 0.000000
0.475891 0.000000 0.000000
0.492493 0.000000 0.000000
0.508759 0.000000 0.000000
0.524811 0.000000 0.000000
0.540558 0.000000 0.000000
0.556000 0.000000 0.000000
0.571136 0.000000 0.000000
0.586060 0.000000 0.000000
0.600647 0.000000 0.000000
0.615021 0.000000 0.000000
0.629181 0.000000 0.000000
0.643188 0.000000 0.000000
0.656982 0.000000 0.000000
0.670624 0.000000 0.000000
0.684174 0.000000 0.000000
0.697571 0.000000 0.000000
0.710968 0.000000 0.000000
0.724304 0.000000 0.000000
0.737549 0.000000 0.000000
0.750854 0.000000 0.000000
0.764252 0.000000 0.000000
0.777740 0.000000 0.000000
0.791412 0.000000 0.000000
0.805328 0.000000 0.000000
0.819672 0.000000 0.000000
0.834503 0.000000 0.000000
0.850220 0.000000 0.000000
0.867126 0.000000 0.000000
0.886078 0.000000 0.000000
0.000000 0.000000 0.000000
0.000000 0.000000 0.000000
0.000000 0.000000 0.000000
0.000000 0.000000 0.000000
0.000000 0.000000 0.000000
0.000000 0.000000 0.000000
0.000000 0.000000 0.000000
0.000000 0.000000 0.000000
0.000000 0.000000 0.000000
0.000000 0.000000 0.000000
0.030121 0.000000 0.000000
0.067047 0.000000 0.000000
0.090515 0.000000 0.000000
0.110168 0.000000 0.000000
0.127869 0.000000 0.000000
0.144562 0.000000 0.000000
0.160645 0.000000 0.000000
0.176331 0.000000 0.000000
0.191742 0.000000 0.000000
0.206970 0.000000 0.000000
0.222229 0.000000 0.000000
0.237427 0.000000 0.000000
0.252686 0.000000 0.000000
0.268005 0.000000 0.000000
0.283478 0.000000 0.000000
0.299133 0.000000 0.000000
0.314850 0.000000 0.000000
0.330841 0.000000 0.000000
0.347046 0.000000 0.000000
0.363373 0.000000 0.000000
0.379883 0.000000 0.000000
0.396606 0.000000 0.000000
0.413361 0.000000 0.000000
0.426025 0.000000 0.000000
0.442841 0.000000 0.000000
0.459717 0.000000 0.000000
0.476440 0.000000 0.000000
0.492981 0.000000 0.000000
0.509277 0.000000 0.000000
0.525360 0.000000 0.000000
0.541107 0.000000 0.000000
0.556519 0.000000 0.000000
0.571686 0.000000 0.000000
0.586487 0.000000 0.000000
0.601135 0.000000 0.000000
0.615509 0.000000 0.000000
0.629669 0.000000 0.000000
0.643677 0.000000 0.000000
0.657471 0.000000 0.000000
0.671112 0.000000 0.000000
0.684662 0.000000 0.000000
0.698059 0.000000 0.000000
0.711395 0.000000 0.000000
0.724731 0.000000 0.000000
0.738007 0.000000 0.000000
0.751282 0.000000 0.000000
0.764648 0.000000 0.000000
0.778168 0.000000 0.000000
0.791840 0.000000 0.000000
0.805756 0.000000 0.000000
0.820068 0.000000 0.000000
0.834900 0.000000 0.000000
0.850616 0.000000 0.000000
0.867523 0.000000 0.000000
0.886444 0.000000 0.000000
0.000000 0.000000 0.000000
0.000000 0.000000 0.000000
0.000000 0.000000 0.000000
0.000000 0.000000 0.000000
0.000000 0.000000 0.000000
0.000000 0.000000 0.000000
0.000000 0.000000 0.000000
0.000000 0.000000 0.000000
0.000000 0.000000 0.000000
0.000000 0.000000 0.000000
0.032349 0.000000 0.000000
0.067963 0.000000 0.000000
0.091156 0.000000 0.000000
0.110748 0.000000 0.000000
0.128448 0.000000 0.000000
0.145111 0.000000 0.000000
0.161163 0.000000 0.000000
0.176849 0.000000 0.000000
0.192230 0.000000 0.000000
0.207520 0.000000 0.000000
0.222717 0.000000 0.000000
0.237946 0.000000 0.000000
0.253174 0.000000 0.000000
0.268524 0.000000 0.000000
0.283966 0.000000 0.000000
0.299591 0.000000 0.000000
0.315399 0.000000 0.000000
0.331329 0.000000 0.000000
0.347504 0.000000 0.000000
0.363953 0.000000 0.000000
0.380463 0.000000 0.000000
0.397156 0.000000 0.000000
0.413910 0.000000 0.000000
0.426575 0.000000 0.000000
0.443420 0.000000 0.000000
0.460236 0.000000 0.000000
0.477020 0.000000 0.000000
0.493561 0.000000 0.000000
0.509827 0.000000 0.000000
0.525879 0.000000 0.000000
0.541595 0.000000 0.000000
0.557037 0.000000 0.000000
0.572174 0.000000 0.000000
0.587006 0.000000 0.000000
0.601654 0.000000 0.000000
0.615997 0.000000 0.000000
0.630157 0.000000 0.000000
0.644165 0.000000 0.000000
0.657928 0.000000 0.000000
0.671600 0.000000 0.000000
0.685120 0.000000 0.000000
0.698486 0.000000 0.000000
0.711884 0.000000 0.000000
0.725189 0.000000 0.000000
0.738434 0.000000 0.000000
0.751740 0.000000 0.000000
0.765045 0.000000 0.000000
0.778595 0.000000 0.000000
0.792236 0.000000 0.000000
0.806152 0.000000 0.000000
0.820435 0.000000 0.000000
0.835297 0.000000 0.000000
0.850983 0.000000 0.000000
0.867889 0.000000 0.000000
0.886841 0.000000 0.000000
0.000000 0.000000 0.000000
0.000000 0.000000 0.000000
0.000000 0.000000 0.000000
0.000000 0.000000 0.000000
0.000000 0.000000 0.000000
0.000000 0.000000 0.000000
0.000000 0.000000 0.000000
0.000000 0.000000 0.000000
0.000000 0.000000 0.000000
0.000000 0.000000 0.000000
0.033966 0.000000 0.000000
0.068756 0.000000 0.000000
0.091858 0.000000 0.000000
0.111359 0.000000 0.000000
0.128998 0.000000 0.000000
0.145660 0.000000 0.000000
0.161682 0.000000 0.000000
0.177399 0.000000 0.000000
0.192810 0.000000 0.000000
0.208038 0.000000 0.000000
0.223267 0.000000 0.000000
0.238434 0.000000 0.000000
0.253723 0.000000 0.000000
0.269043 0.000000 0.000000
0.284515 0.000000 0.000000
0.300140 0.000000 0.000000
0.315918 0.000000 0.000000
0.331909 0.000000 0.000000
0.348114 0.000000 0.000000
0.364471 0.000000 0.000000
0.381042 0.000000 0.000000
0.397736 0.000000 0.000000
0.414551 0.000000 0.000000
0.427155 0.000000 0.000000
0.443970 0.000000 0.000000
0.460785 0.000000 0.000000
0.477600 0.000000 0.000000
0.494141 0.000000 0.000000
0.510406 0.000000 0.000000
0.526459 0.000000 0.000000
0.542175 0.000000 0.000000
0.557617 0.000000 0.000000
0.572723 0.000000 0.000000
0.587555 0.000000 0.000000
0.602203 0.000000 0.000000
0.616516 0.000000 0.000000
0.630646 0.000000 0.000000
0.644653 0.000000 0.000000
0.658447 0.000000 0.000000
0.672058 0.000000 0.000000
0.685577 0.000000 0.000000
0.698975 0.000000 0.000000
0.712341 0.000000 0.000000
0.725616 0.000000 0.000000
0.738892 0.000000 0.000000
0.752197 0.000000 0.000000
0.765533 0.000000 0.000000
0.779022 0.000000 0.000000
0.792633 0.000000 0.000000
0.806549 0.000000 0.000000
0.820831 0.000000 0.000000
0.835693 0.000000 0.000000
0.851379 0.000000 0.000000
0.868286 0.000000 0.000000
0.887207 0.000000 0.000000
0.000000 0.000000 0.000000
0.000000 0.000000 0.000000
0.000000 0.000000 0.000000
0.000000 0.000000 0.000000
0.000000 0.000000 0.000000
0.000000 0.000000 0.000000
0.000000 0.000000 0.000000
0.000000 0.000000 0.000000
0.000000 0.000000 0.000000
0.000000 0.000000 0.000000
0.035736 0.000000 0.000000
0.069672 0.000000 0.000000
0.092560 0.000000 0.000000
0.111938 0.000000 0.000000
0.129547 0.000000 0.000000
0.146240 0.000000 0.000000
0.162262 0.000000 0.000000
0.177917 0.000000 0.000000
0.193329 0.000000 0.000000
0.208527 0.000000 0.000000
0.223755 0.000000 0.000000
0.238953 0.000000 0.000000
0.254242 0.000000 0.000000
0.269562 0.000000 0.000000
0.285034 0.000000 0.000000
0.300629 0.000000 0.000000
0.316467 0.000000 0.000000
0.332489 0.000000 0.000000
0.348694 0.000000 0.000000
0.365082 0.000000 0.000000
0.381561 0.000000 0.000000
0.398254 0.000000 0.000000
0.415039 0.000000 0.000000
0.427765 0.000000 0.000000
0.444611 0.000000 0.000000
0.461365 0.000000 0.000000
0.478180 0.000000 0.000000
0.494720 0.000000 0.000000
0.511017 0.000000 0.000000
0.527008 0.000000 0.000000
0.542694 0.000000 0.000000
0.558167 0.000000 0.000000
0.573242 0.000000 0.000000
0.588104 0.000000 0.000000
0.602661 0.000000 0.000000
0.617065 0.000000 0.000000
0.631165 0.000000 0.000000
0.645142 0.000000 0.000000
0.658905 0.000000 0.000000
0.672577 0.000000 0.000000
0.686066 0.000000 0.000000
0.699432 0.000000 0.000000
0.712799 0.000000 0.000000
0.726074 0.000000 0.000000
0.739349 0.000000 0.000000
0.752625 0.000000 0.000000
0.765930 0.000000 0.000000
0.779419 0.000000 0.000000
0.793091 0.000000 0.000000
0.806946 0.000000 0.000000
0.821228 0.000000 0.000000
0.836090 0.000000 0.000000
0.851746 0.002502 0.000000
0.868683 0.011841 0.000000
0.887604 0.022797 0.000000
0.000000 0.000000 0.000000
0.000000 0.000000 0.000000
0.000000 0.000000 0.000000
0.000000 0.000000 0.000000
0.000000 0.000000 0.000000
0.000000 0.000000 0.000000
0.000000 0.000000 0.000000
0.000000 0.000000 0.000000
0.000000 0.000000 0.000000
0.000000 0.000000 0.000000
0.037506 0.000000 0.000000
0.070526 0.000000 0.000000
0.093262 0.000000 0.000000
0.112610 0.000000 0.000000
0.130249 0.000000 0.000000
0.146820 0.000000 0.000000
0.162811 0.000000 0.000000
0.178436 0.000000 0.000000
0.193848 0.000000 0.000000
0.209045 0.000000 0.000000
0.224274 0.000000 0.000000
0.239502 0.000000 0.000000
0.254761 0.000000 0.000000
0.270081 0.000000 0.000000
0.285583 0.000000 0.000000
0.301208 0.000000 0.000000
0.317017 0.000000 0.000000
0.333008 0.000000 0.000000
0.349243 0.000000 0.000000
0.365601 0.000000 0.000000
0.382172 0.000000 0.000000
0.398895 0.000000 0.000000
0.415710 0.004547 0.000000
0.428284 0.008698 0.000000
0.445160 0.014404 0.000000
0.461975 0.019653 0.000000
0.478729 0.023865 0.000000
0.495270 0.026001 0.000000
0.511597 0.028168 0.000000
0.527618 0.030304 0.000000
0.543274 0.032166 0.000000
0.558716 0.033813 0.000000
0.573822 0.035431 0.000000
0.588623 0.036926 0.000000
0.603210 0.038544 0.000000
0.617584 0.039917 0.000000
0.631683 0.041290 0.000000
0.645660 0.042664 0.000000
0.659454 0.044006 0.000000
0.673035 0.045227 0.000000
0.686584 0.046448 0.000000
0.699951 0.047760 0.000000
0.713257 0.048920 0.000000
0.726532 0.050140 0.000000
0.739807 0.051331 0.000000
0.753082 0.052551 0.000000
0.766418 0.053772 0.000000
0.779846 0.054871 0.000000
0.793518 0.056183 0.000000
0.807404 0.057404 0.000000
0.821655 0.058624 0.000000
0.836517 0.060028 0.000000
0.852173 0.061340 0.000000
0.869080 0.062805 0.000000
0.888000 0.064484 0.000000
0.000000 0.031860 0.000000
0.000000 0.032928 0.000000
0.000000 0.033966 0.000000
0.000000 0.034973 0.000000
0.000000 0.036041 0.000000
0.000000 0.037079 0.000000
0.000000 0.038147 0.000000
0.000000 0.039032 0.000000
0.000000 0.040039 0.000000
0.000000 0.041046 0.000000
0.039154 0.042053 0.000000
0.071472 0.042908 0.000000
0.094025 0.043884 0.000000
0.113251 0.044891 0.000000
0.130798 0.045746 0.000000
0.147400 0.046753 0.000000
0.163361 0.047668 0.000000
0.179016 0.048645 0.000000
0.194397 0.049408 0.000000
0.209625 0.050323 0.000000
0.224854 0.051239 0.000000
0.240051 0.052124 0.000000
0.255310 0.053009 0.000000
0.270630 0.053955 0.000000
0.286163 0.054779 0.000000
0.301788 0.055695 0.000000
0.317627 0.056610 0.000000
0.333649 0.057495 0.000000
0.349823 0.058258 0.000000
0.366211 0.059235 0.000000
0.382751 0.060089 0.000000
0.399475 0.060913 0.000000
0.416260 0.061829 0.000000
0.428894 0.062408 0.000000
0.445740 0.063324 0.000000
0.462555 0.064148 0.000000
0.479370 0.064941 0.000000
0.495880 0.065826 0.000000
0.512115 0.066620 0.000000
0.528168 0.067505 0.000000
0.543884 0.068329 0.000000
0.559296 0.069092 0.000000
0.574341 0.069885 0.000000
0.589172 0.070618 0.000000
0.603729 0.071411 0.000000
0.618134 0.072235 0.000000
0.632233 0.072968 0.000000
0.646179 0.073761 0.000000
0.659943 0.074524 0.000000
0.673553 0.075256 0.000000
0.687042 0.076080 0.000000
0.700409 0.076904 0.000000
0.713776 0.077667 0.000000
0.726990 0.078461 0.000000
0.740234 0.079163 0.000000
0.753540 0.080017 0.000000
0.766846 0.080811 0.000000
0.780273 0.081665 0.000000
0.793976 0.082550 0.000000
0.807831 0.083435 0.000000
0.822083 0.084290 0.000000
0.836945 0.085297 0.000000
0.852570 0.086273 0.000000
0.869476 0.087372 0.000000
0.888397 0.088654 0.000000
0.000000 0.068115 0.000000
0.000000 0.068634 0.000000
0.000000 0.069092 0.000000
0.000000 0.069580 0.000000
0.000000 0.070129 0.000000
0.000000 0.070679 0.000000
0.000000 0.071289 0.000000
0.000000 0.071777 0.000000
0.000000 0.072357 0.000000
0.000000 0.072845 0.000000
0.040802 0.073395 0.000000
0.072418 0.073944 0.000000
0.094757 0.074524 0.000000
0.113953 0.075134 0.000000
0.131470 0.075684 0.000000
0.147980 0.076294 0.000000
0.163910 0.076843 0.000000
0.179565 0.077454 0.000000
0.194977 0.078033 0.000000
0.210144 0.078644 0.000000
0.225372 0.079224 0.000000
0.240631 0.079834 0.000000
0.255890 0.080444 0.000000
0.271179 0.080994 0.000000
0.286713 0.081726 0.000000
0.302338 0.082275 0.000000
0.318207 0.082916 0.000000
0.334229 0.083557 0.000000
0.350372 0.084167 0.000000
0.366852 0.084808 0.000000
0.383362 0.085480 0.000000
0.400085 0.086090 0.000000
0.416870 0.086731 0.000000
0.429504 0.087189 0.000000
0.446381 0.087860 0.000000
0.463165 0.088531 0.000000
0.479919 0.089111 0.000000
0.496490 0.089783 0.000000
0.512756 0.090515 0.000000
0.528748 0.091125 0.000000
0.544434 0.091736 0.000000
0.559845 0.092377 0.000000
0.574951 0.092987 0.000000
0.589752 0.093597 0.000000
0.604309 0.094238 0.000000
0.618683 0.094879 0.000000
0.632782 0.095520 0.000000
0.646698 0.096100 0.000000
0.660492 0.096741 0.000000
0.674042 0.097382 0.000000
0.687531 0.097961 0.000000
0.700928 0.098633 0.000000
0.714233 0.099304 0.000000
0.727478 0.099945 0.000000
0.740753 0.100647 0.000000
0.753967 0.101288 0.000000
0.767303 0.101959 0.000000
0.780731 0.102661 0.000000
0.794373 0.103424 0.000000
0.808228 0.104156 0.000000
0.822479 0.104980 0.000000
0.837372 0.105774 0.000000
0.852966 0.106628 0.000000
0.869873 0.107574 0.000000
0.888763 0.108643 0.000000
0.000000 0.091492 0.000000
0.000000 0.091858 0.000000
0.000000 0.092316 0.000000
0.000000 0.092743 0.000000
0.000000 0.093140 0.000000
0.000000 0.093536 0.000000
0.000000 0.094025 0.000000
0.000000 0.094452 0.000000
0.000000 0.094879 0.000000
0.000000 0.095306 0.000000
0.042419 0.095825 0.000000
0.073395 0.096283 0.000000
0.095520 0.096741 0.000000
0.114624 0.097168 0.000000
0.132050 0.097687 0.000000
0.148560 0.098145 0.000000
0.164551 0.098633 0.000000
0.180115 0.099152 0.000000
0.195496 0.099640 0.000000
0.210724 0.100128 0.000000
0.225952 0.100647 0.000000
0.241150 0.101166 0.000000
0.256439 0.101685 0.000000
0.271790 0.102203 0.000000
0.287292 0.102753 0.000000
0.302917 0.103271 0.000000
0.318817 0.103790 0.000000
0.334747 0.104340 0.000000
0.351013 0.104828 0.000000
0.367401 0.105377 0.000000
0.383972 0.105988 0.000000
0.400665 0.106506 0.000000
0.417450 0.107086 0.000000
0.430176 0.107513 0.000000
0.446960 0.108093 0.000000
0.463776 0.108612 0.000000
0.480560 0.109192 0.000000
0.497101 0.109802 0.000000
0.513306 0.110321 0.000000
0.529327 0.110870 0.000000
0.545013 0.111450 0.000000
0.560394 0.111938 0.000000
0.575500 0.112518 0.000000
0.590302 0.113098 0.000000
0.604889 0.113647 0.000000
0.619202 0.114197 0.000000
0.633331 0.114807 0.000000
0.647217 0.115326 0.000000
0.660980 0.115875 0.000000
0.674561 0.116455 0.000000
0.688049 0.117004 0.000000
0.701416 0.117584 0.000000
0.714722 0.118195 0.000000
0.727936 0.118774 0.000000
0.741211 0.119385 0.000000
0.754456 0.119965 0.000000
0.767761 0.120575 0.000000
0.781189 0.121246 0.000000
0.794800 0.121857 0.000000
0.808685 0.122559 0.000000
0.822937 0.123291 0.000000
0.837769 0.124023 0.000000
0.853394 0.124817 0.000000
0.870270 0.125702 0.000000
0.889191 0.126709 0.000000
0.000000 0.111084 0.000000
0.000000 0.111511 0.000000
0.000000 0.111847 0.000000
0.000000 0.112213 0.000000
0.000000 0.112610 0.000000
0.000000 0.113007 0.000000
0.000000 0.113342 0.000000
0.000000 0.113800 0.000000
0.000000 0.114197 0.000000
0.000000 0.114624 0.000000
0.044098 0.115021 0.000000
0.074219 0.115417 0.000000
0.096283 0.115845 0.000000
0.115265 0.116272 0.000000
0.132690 0.116730 0.000000
0.149170 0.117157 0.000000
0.165100 0.117584 0.000000
0.180725 0.118042 0.000000
0.196075 0.118469 0.000000
0.211273 0.118927 0.000000
0.226562 0.119415 0.000000
0.241730 0.119843 0.000000
0.257050 0.120361 0.000000
0.272369 0.120819 0.000000
0.287872 0.121277 0.000000
0.303558 0.121765 0.000000
0.319366 0.122284 0.000000
0.335388 0.122772 0.000000
0.351624 0.123230 0.000000
0.368073 0.123779 0.000000
0.384613 0.124268 0.000000
0.401337 0.124817 0.000000
0.418121 0.125275 0.000000
0.430725 0.125671 0.000000
0.447632 0.126160 0.000000
0.464386 0.126709 0.000000
0.481171 0.127228 0.000000
0.497681 0.127777 0.000000
0.513947 0.128265 0.000000
0.529968 0.128754 0.000000
0.545624 0.129333 0.000000
0.561035 0.129822 0.000000
0.576080 0.130341 0.000000
0.590851 0.130829 0.000000
0.605438 0.131348 0.000000
0.619751 0.131866 0.000000
0.633850 0.132446 0.000000
0.647736 0.132904 0.000000
0.661499 0.133484 0.000000
0.675079 0.133972 0.000000
0.688599 0.134491 0.000000
0.701935 0.135040 0.000000
0.715179 0.135559 0.000000
0.728424 0.136139 0.000000
0.741669 0.136688 0.000000
0.754913 0.137299 0.000000
0.768250 0.137848 0.000000
0.781647 0.138428 0.000000
0.795258 0.139008 0.000000
0.809113 0.139709 0.000000
0.823364 0.140350 0.000000
0.838196 0.141083 0.000000
0.853821 0.141785 0.000000
0.870667 0.142670 0.000000
0.889587 0.143555 0.000000
0.000000 0.128998 0.000000
0.000000 0.129333 0.000000
0.000000 0.129730 0.000000
0.000000 0.130035 0.000000
0.000000 0.130371 0.000000
0.000000 0.130737 0.000000
0.000000 0.131134 0.000000
0.000000 0.131531 0.000000
0.000000 0.131866 0.000000
0.000000 0.132263 0.000000
0.045532 0.132629 0.000000
0.075195 0.133057 0.000000
0.097076 0.133453 0.000000
0.115936 0.133850 0.000000
0.133331 0.134277 0.000000
0.149811 0.134613 0.000000
0.165741 0.135101 0.000000
0.181335 0.135529 0.000000
0.196655 0.135864 0.000000
0.211945 0.136353 0.000000
0.227081 0.136780 0.000000
0.242310 0.137238 0.000000
0.257599 0.137665 0.000000
0.272980 0.138092 0.000000
0.288483 0.138580 0.000000
0.304108 0.139008 0.000000
0.319946 0.139465 0.000000
0.335999 0.139923 0.000000
0.352234 0.140442 0.000000
0.368713 0.140900 0.000000
0.385254 0.141418 0.000000
0.401886 0.141846 0.000000
0.418762 0.142334 0.000000
0.431366 0.142731 0.000000
0.448242 0.143219 0.000000
0.465027 0.143738 0.000000
0.481842 0.144196 0.000000
0.498322 0.144653 0.000000
0.514557 0.145142 0.000000
0.530579 0.145660 0.000000
0.546234 0.146149 0.000000
0.561584 0.146637 0.000000
0.576630 0.147156 0.000000
0.591400 0.147644 0.000000
0.605988 0.148102 0.000000
0.620270 0.148590 0.000000
0.634399 0.149109 0.000000
0.648315 0.149628 0.000000
0.662048 0.150116 0.000000
0.675598 0.150604 0.000000
0.689087 0.151154 0.000000
0.702393 0.151642 0.000000
0.715668 0.152100 0.000000
0.728943 0.152679 0.000000
0.742157 0.153198 0.000000
0.755402 0.153717 0.000000
0.768707 0.154327 0.000000
0.782104 0.154907 0.000000
0.795685 0.155457 0.000000
0.809601 0.156067 0.000000
0.823822 0.156738 0.000000
0.838623 0.157379 0.000000
0.854218 0.158142 0.000000
0.871124 0.158905 0.000000
0.889954 0.159821 0.000000
0.000000 0.145874 0.000000
0.000000 0.146179 0.000000
0.000000 0.146484 0.000000
0.000000 0.146851 0.000000
0.000000 0.147217 0.000000
0.000000 0.147614 0.000000
0.000000 0.147888 0.000000
0.000000 0.148224 0.000000
0.000000 0.148651 0.000000
0.000000 0.149017 0.000000
0.047089 0.149414 0.000000
0.076141 0.149750 0.000000
0.097809 0.150177 0.000000
0.116699 0.150543 0.000000
0.134003 0.150909 0.000000
0.150452 0.151306 0.000000
0.166321 0.151733 0.000000
0.181915 0.152130 0.000000
0.197296 0.152557 0.000000
0.212494 0.152954 0.000000
0.227692 0.153381 0.000000
0.242950 0.153809 0.000000
0.258179 0.154175 0.000000
0.273560 0.154663 0.000000
0.289062 0.155060 0.000000
0.304749 0.155548 0.000000
0.320587 0.156006 0.000000
0.336639 0.156433 0.000000
0.352844 0.156860 0.000000
0.369293 0.157318 0.000000
0.385834 0.157776 0.000000
0.402557 0.158264 0.000000
0.419342 0.158722 0.000000
0.432037 0.159088 0.000000
0.448853 0.159576 0.000000
0.465698 0.160065 0.000000
0.482422 0.160492 0.000000
