custom_nodes/comfyui-vrgamedevgirl/LUTS/Dark_Muted_Cool_Cinematic.cube
#Created by: Adobe Photoshop Export Color Lookup Plugin
TITLE "ComfyUI_00055_.png"
#LUT size
LUT_3D_SIZE 9
#data domain
DOMAIN_MIN 0.0 0.0 0.0
DOMAIN_MAX 1.0 1.0 1.0
#LUT data points
0.000000 0.000000 0.000000
0.000000 0.000000 0.000000
0.159180 0.000000 0.000000
0.282013 0.000000 0.000000
0.411743 0.000000 0.000000
0.539459 0.000000 0.000000
0.656036 0.000000 0.000000
0.763397 0.000000 0.000000
0.885345 0.000000 0.000000
0.000000 0.031860 0.000000
0.000000 0.040039 0.000000
0.163361 0.047668 0.000000
0.286163 0.054779 0.000000
0.416260 0.061829 0.000000
0.543884 0.068329 0.000000
0.659943 0.074524 0.000000
0.766846 0.080811 0.000000
0.888397 0.088654 0.000000
0.000000 0.193481 0.000000
0.000000 0.196136 0.000000
0.168274 0.199066 0.000000
0.290955 0.202301 0.000000
0.421356 0.205780 0.000000
0.548676 0.209259 0.000000
0.664215 0.212891 0.000000
0.770569 0.216797 0.000000
0.891602 0.221863 0.000000
0.000000 0.318512 0.000000
0.000000 0.321381 0.000000
0.173798 0.324432 0.000000
0.296326 0.327759 0.000000
0.426910 0.331329 0.000000
0.553894 0.334930 0.000000
0.668701 0.338593 0.000000
0.774445 0.342438 0.000000
0.894867 0.347443 0.000000
0.000000 0.453278 0.000000
0.000000 0.456329 0.000000
0.179779 0.459534 0.000000
0.302063 0.462952 0.000000
0.432892 0.466522 0.000000
0.559326 0.470062 0.000000
0.673340 0.473602 0.000000
0.778381 0.477295 0.000000
0.898346 0.482300 0.000000
0.000000 0.581512 0.000000
0.000000 0.584229 0.000000
0.185760 0.587128 0.000000
0.307831 0.590179 0.000000
0.438660 0.593262 0.000000
0.564545 0.596252 0.000000
0.677856 0.599396 0.000000
0.782440 0.602814 0.000000
0.902039 0.607513 0.000000
0.000000 0.695923 0.000000
0.034698 0.698242 0.000000
0.191803 0.700623 0.000000
0.313599 0.703125 0.000000
0.444550 0.705811 0.000000
0.569977 0.708527 0.000000
0.682739 0.711395 0.000000
0.786743 0.714478 0.000000
0.905853 0.718658 0.000000
0.000000 0.800903 0.000000
0.052460 0.802887 0.000000
0.197998 0.804962 0.000000
0.319916 0.807251 0.000000
0.451080 0.809753 0.000000
0.576050 0.812225 0.000000
0.688080 0.814789 0.000000
0.791412 0.817505 0.000000
0.909973 0.821075 0.010254
0.000000 0.921509 0.000000
0.069794 0.923370 0.000000
0.206787 0.925385 0.000000
0.328766 0.927490 0.000000
0.460052 0.929749 0.000000
0.584167 0.931915 0.000000
0.695099 0.934204 0.023682
0.797455 0.936554 0.039673
0.915039 0.939514 0.053009
0.000000 0.000000 0.094879
0.000000 0.000000 0.097534
0.159912 0.000000 0.100769
0.282715 0.000000 0.104370
0.412537 0.000000 0.108459
0.540283 0.000000 0.112579
0.656769 0.000000 0.116882
0.764038 0.000000 0.121490
0.885925 0.000000 0.127502
0.000000 0.034973 0.100464
0.000000 0.042786 0.103668
0.164185 0.050049 0.107269
0.286987 0.057037 0.111176
0.417145 0.063843 0.115356
0.544708 0.070251 0.119629
0.660675 0.076385 0.123901
0.767487 0.082550 0.128479
0.888977 0.090271 0.134460
0.000000 0.194458 0.107361
0.000000 0.197144 0.110840
0.169189 0.200104 0.114624
0.291840 0.203369 0.118561
0.422241 0.206848 0.122864
0.549561 0.210358 0.127045
0.664948 0.213989 0.131348
0.771210 0.217896 0.135773
0.892181 0.222961 0.141571
0.000000 0.319550 0.115143
0.000000 0.322418 0.118683
0.174713 0.325500 0.122498
0.297211 0.328888 0.126526
0.427826 0.332428 0.130707
0.554749 0.336060 0.134827
0.669434 0.339691 0.138977
0.775116 0.343536 0.143311
0.895447 0.348511 0.148682
0.000000 0.454437 0.123505
0.000000 0.457458 0.127014
0.180725 0.460632 0.130798
0.302979 0.464050 0.134735
0.433777 0.467621 0.138733
0.560181 0.471161 0.142731
0.674072 0.474670 0.146637
0.779022 0.478363 0.150665
0.898956 0.483429 0.156158
0.000000 0.582581 0.131683
0.000000 0.585266 0.135193
0.186737 0.588135 0.138824
0.308807 0.591095 0.142578
0.439575 0.594208 0.146393
0.565369 0.597198 0.150177
0.678619 0.600372 0.154022
0.783081 0.603821 0.158203
0.902618 0.608490 0.163849
0.000000 0.696716 0.139862
0.037811 0.699036 0.143219
0.192688 0.701447 0.146637
0.314484 0.703949 0.150177
0.445465 0.706665 0.153961
0.570862 0.709412 0.157806
0.683533 0.712311 0.161865
0.787445 0.715454 0.166138
0.906464 0.719543 0.171783
0.000000 0.801636 0.148102
0.054474 0.803558 0.151245
0.198914 0.805695 0.154663
0.320862 0.808014 0.158386
0.452057 0.810516 0.162292
0.576935 0.813019 0.166260
0.688843 0.815552 0.170258
0.792084 0.818268 0.174469
0.910522 0.821838 0.179993
0.000000 0.922180 0.158844
0.071472 0.924042 0.162201
0.207764 0.926056 0.165741
0.329742 0.928192 0.169464
0.461060 0.930450 0.173370
0.585052 0.932648 0.177277
0.695831 0.934875 0.181122
0.798065 0.937225 0.185028
0.915558 0.940063 0.190002
0.000000 0.000000 0.220612
0.000000 0.000000 0.222626
0.160736 0.000000 0.225098
0.283508 0.000000 0.227844
0.413452 0.000000 0.230988
0.541138 0.000000 0.234314
0.657532 0.000000 0.237671
0.764709 0.000000 0.241486
0.886505 0.000000 0.246552
0.000000 0.038269 0.224854
0.000000 0.045532 0.227295
0.165070 0.052551 0.230072
0.287842 0.059387 0.233154
0.418060 0.065979 0.236511
0.545593 0.072296 0.239960
0.661469 0.078247 0.243530
0.768219 0.084351 0.247375
0.889557 0.092041 0.252441
0.000000 0.195465 0.230133
0.000000 0.198212 0.232910
0.170105 0.201202 0.235901
0.292725 0.204498 0.239136
0.423248 0.208008 0.242615
0.550446 0.211548 0.246124
0.665741 0.215179 0.249786
0.771881 0.219055 0.253632
0.892731 0.224060 0.258636
0.000000 0.320618 0.236298
0.000000 0.323547 0.239197
0.175690 0.326691 0.242279
0.298157 0.330017 0.245667
0.428833 0.333649 0.249237
0.555664 0.337250 0.252747
0.670227 0.340881 0.256378
0.775757 0.344696 0.260101
0.895996 0.349640 0.264954
0.000000 0.455627 0.243134
0.000000 0.458588 0.246094
0.181732 0.461823 0.249298
0.303986 0.465240 0.252655
0.434753 0.468811 0.256195
0.561096 0.472290 0.259613
0.674835 0.475800 0.263092
0.779633 0.479492 0.266754
0.899567 0.484619 0.271790
0.000000 0.583588 0.250092
0.004028 0.586334 0.253082
0.187714 0.589172 0.256226
0.309753 0.592163 0.259521
0.440491 0.595184 0.262878
0.566193 0.598236 0.266266
0.679382 0.601410 0.269806
0.783783 0.604919 0.273682
0.903229 0.609558 0.278961
0.000000 0.697632 0.257141
0.040924 0.699951 0.260071
0.193634 0.702332 0.263092
0.315430 0.704834 0.266266
0.446472 0.707550 0.269775
0.571747 0.710327 0.273315
0.684326 0.713226 0.277039
0.788147 0.716370 0.281067
0.907135 0.720459 0.286407
0.000000 0.802338 0.264374
0.056702 0.804321 0.267273
0.199951 0.806488 0.270416
0.321869 0.808838 0.273804
0.453094 0.811340 0.277466
0.577911 0.813812 0.281158
0.689697 0.816376 0.284912
0.792816 0.819092 0.288971
0.911194 0.822632 0.294159
0.000000 0.922913 0.274292
0.073334 0.924774 0.277374
0.208801 0.926758 0.280670
0.330750 0.928925 0.284241
0.462097 0.931183 0.287903
0.585999 0.933380 0.291565
0.696625 0.935608 0.295258
0.798737 0.937897 0.299042
0.916107 0.940704 0.303741
0.000000 0.000000 0.340454
0.000000 0.000000 0.342621
0.161621 0.000000 0.345215
0.284454 0.000000 0.348114
0.414429 0.000000 0.351349
0.542053 0.000000 0.354767
0.658325 0.000000 0.358276
0.765411 0.000000 0.362183
0.887146 0.000000 0.367371
0.000000 0.041290 0.344971
0.000000 0.048309 0.347504
0.166046 0.055054 0.350372
0.288788 0.061737 0.353577
0.419098 0.068176 0.357056
0.546539 0.074280 0.360626
0.662323 0.080261 0.364258
0.768921 0.086212 0.368225
0.890198 0.093781 0.373474
0.000000 0.196564 0.350494
0.000000 0.199371 0.353333
0.171112 0.202393 0.356384
0.293762 0.205719 0.359741
0.424286 0.209229 0.363373
0.551483 0.212799 0.367004
0.666595 0.216461 0.370728
0.772614 0.220276 0.374634
0.893372 0.225281 0.379822
0.000000 0.321838 0.356842
0.000000 0.324738 0.359833
0.176758 0.327911 0.363037
0.299225 0.331299 0.366516
0.429901 0.334900 0.370117
0.556610 0.338440 0.373779
0.671082 0.342102 0.377502
0.776459 0.345917 0.381348
0.896606 0.350861 0.386261
0.000000 0.456818 0.363892
0.000000 0.459869 0.366943
0.182800 0.463104 0.370239
0.305023 0.466492 0.373718
0.435791 0.470001 0.377289
0.561981 0.473511 0.380798
0.675598 0.476990 0.384338
0.780365 0.480713 0.388153
0.900208 0.485870 0.393402
0.000000 0.584717 0.371033
0.017029 0.587433 0.374115
0.188751 0.590271 0.377319
0.310730 0.593231 0.380737
0.441528 0.596222 0.384155
0.567200 0.599304 0.387665
0.680237 0.602509 0.391357
0.784546 0.606049 0.395416
0.903900 0.610748 0.400848
0.000000 0.698578 0.378296
0.043884 0.700867 0.381226
0.194611 0.703247 0.384338
0.316437 0.705780 0.387665
0.447510 0.708527 0.391357
0.572754 0.711304 0.395020
0.685211 0.714264 0.398895
0.788940 0.717346 0.403015
0.907776 0.721436 0.408478
0.000000 0.803131 0.385742
0.058899 0.805176 0.388702
0.201019 0.807343 0.392029
0.322998 0.809692 0.395569
0.454193 0.812195 0.399353
0.578888 0.814697 0.403107
0.690552 0.817230 0.407013
0.793579 0.819977 0.411133
0.911804 0.823456 0.416412
0.000000 0.923676 0.396057
0.075195 0.925568 0.399231
0.209930 0.927551 0.402618
0.331909 0.929718 0.406250
0.463196 0.931915 0.410065
0.586945 0.934143 0.413788
0.697479 0.936371 0.417511
0.799408 0.938568 0.421356
0.916656 0.941376 0.426025
0.000000 0.000000 0.469452
0.000000 0.000000 0.471710
0.162537 0.000000 0.474335
0.285309 0.000000 0.477295
0.415405 0.000000 0.480530
0.543030 0.000000 0.483917
0.659210 0.000000 0.487427
0.766205 0.000000 0.491302
0.887817 0.000000 0.496338
0.000000 0.044434 0.474091
0.000000 0.051147 0.476715
0.167114 0.057770 0.479584
0.289825 0.064148 0.482819
0.420135 0.070526 0.486206
0.547546 0.076508 0.489685
0.663208 0.082336 0.493286
0.769684 0.088257 0.497131
0.890869 0.095612 0.502228
0.000000 0.197754 0.479675
0.000000 0.200592 0.482544
0.172211 0.203674 0.485535
0.294800 0.206970 0.488831
0.425354 0.210510 0.492401
0.552460 0.214081 0.495941
0.667480 0.217712 0.499573
0.773407 0.221588 0.503357
0.894012 0.226562 0.508301
0.000000 0.323120 0.485992
0.000000 0.326019 0.488953
0.177887 0.329224 0.492096
0.300262 0.332611 0.495514
0.431030 0.336212 0.499023
0.557678 0.339783 0.502563
0.671906 0.343353 0.506042
0.777161 0.347137 0.509735
0.897308 0.352142 0.514526
0.000000 0.458130 0.492920
0.000000 0.461182 0.495941
0.183929 0.464386 0.499115
0.306091 0.467773 0.502411
0.436890 0.471313 0.505920
0.562988 0.474762 0.509277
0.676453 0.478180 0.512634
0.781128 0.481995 0.516357
0.900879 0.487213 0.521362
0.000000 0.585907 0.499878
0.026367 0.588593 0.502869
0.189850 0.591400 0.505951
0.311768 0.594299 0.509125
0.442596 0.597382 0.512451
0.568237 0.600433 0.515869
0.681122 0.603699 0.519379
0.785339 0.607178 0.523254
0.904633 0.611908 0.528412
0.000000 0.699615 0.506836
0.046875 0.701874 0.509705
0.195679 0.704193 0.512634
0.317535 0.706757 0.515900
0.448639 0.709534 0.519348
0.573792 0.712372 0.522949
0.686096 0.715271 0.526550
0.789734 0.718384 0.530518
0.908508 0.722473 0.535614
0.000000 0.804016 0.514008
0.061188 0.806061 0.516876
0.202148 0.808228 0.520050
0.324127 0.810638 0.523438
0.455383 0.813110 0.527008
0.579956 0.815613 0.530640
0.691467 0.818207 0.534241
0.794373 0.820831 0.538116
0.912476 0.824310 0.542999
0.000000 0.924469 0.523895
0.077179 0.926392 0.526917
0.211060 0.928375 0.530151
0.333069 0.930542 0.533539
0.464386 0.932739 0.537109
0.588013 0.934906 0.540558
0.698334 0.937103 0.543976
0.800110 0.939331 0.547485
0.917236 0.942017 0.551727
0.000000 0.000000 0.590607
0.000000 0.000000 0.592651
0.163544 0.000000 0.595093
0.286285 0.000000 0.597778
0.416412 0.000000 0.600708
0.544037 0.000000 0.603699
0.660065 0.000000 0.606873
0.766968 0.000000 0.610229
0.888519 0.000000 0.614685
0.000000 0.047455 0.594879
0.000000 0.053864 0.597198
0.168152 0.060272 0.599854
0.290802 0.066498 0.602661
0.421234 0.072693 0.605743
0.548523 0.078583 0.608856
0.664124 0.084351 0.612061
0.770447 0.090118 0.615448
0.891510 0.097412 0.619873
0.000000 0.199005 0.599915
0.000000 0.201843 0.602448
0.173340 0.204956 0.605194
0.295837 0.208282 0.608124
0.426483 0.211823 0.611267
0.553467 0.215393 0.614410
0.668365 0.219025 0.617554
0.774109 0.222839 0.620850
0.894653 0.227814 0.625122
0.000000 0.324371 0.605530
0.000000 0.327332 0.608215
0.179016 0.330536 0.611023
0.301331 0.333923 0.613953
0.432129 0.337494 0.617096
0.558655 0.341095 0.620148
0.672791 0.344696 0.623199
0.777924 0.348419 0.626404
0.897919 0.353424 0.630615
0.000000 0.459442 0.611694
0.000000 0.462494 0.614380
0.184998 0.465698 0.617126
0.307159 0.469086 0.620056
0.437988 0.472595 0.623077
0.563904 0.475952 0.625977
0.677307 0.479492 0.629028
0.781921 0.483307 0.632233
0.901581 0.488556 0.636688
0.000000 0.587036 0.617798
0.031311 0.589752 0.620392
0.190918 0.592560 0.623108
0.312805 0.595459 0.625916
0.443665 0.598480 0.628784
0.569183 0.601593 0.631805
0.682007 0.604889 0.634949
0.786102 0.608429 0.638306
0.905334 0.613159 0.642853
0.000000 0.700592 0.623901
0.049530 0.702820 0.626373
0.196808 0.705200 0.629028
0.318634 0.707764 0.631866
0.449768 0.710571 0.634918
0.574890 0.713409 0.638031
0.687012 0.716339 0.641205
0.790527 0.719421 0.644653
0.909180 0.723480 0.649078
0.000000 0.804871 0.630127
0.063477 0.806946 0.632721
0.203278 0.809204 0.635468
0.325287 0.811493 0.638458
0.456543 0.814026 0.641602
0.580994 0.816559 0.644714
0.692383 0.819092 0.647919
0.795135 0.821777 0.651215
0.913147 0.825165 0.655426
0.000000 0.925323 0.638824
0.079041 0.927185 0.641510
0.212219 0.929230 0.644348
0.334259 0.931335 0.647278
0.465546 0.933563 0.650360
0.588959 0.935730 0.653351
0.699188 0.937866 0.656311
0.800812 0.940033 0.659271
0.917725 0.942627 0.662811
0.000000 0.000000 0.698944
0.000000 0.000000 0.700836
0.164551 0.000000 0.702972
0.287292 0.000000 0.705322
0.417450 0.000000 0.707947
0.545013 0.000000 0.710602
0.660980 0.000000 0.713318
0.767731 0.000000 0.716278
0.889160 0.000000 0.720184
0.000000 0.050323 0.702789
0.000000 0.056610 0.704865
0.169189 0.062744 0.707184
0.291870 0.068878 0.709686
0.422272 0.075012 0.712372
0.549591 0.080750 0.715088
0.664978 0.086334 0.717865
0.771271 0.092102 0.720856
0.892212 0.099213 0.724701
0.000000 0.200256 0.707245
0.000000 0.203125 0.709473
0.174469 0.206238 0.711914
0.296967 0.209595 0.714417
0.427612 0.213165 0.717163
0.554535 0.216766 0.719910
0.669250 0.220367 0.722687
0.774902 0.224152 0.725525
0.895294 0.229034 0.729218
0.000000 0.325653 0.712189
0.000000 0.328644 0.714478
0.180145 0.331848 0.716949
0.302399 0.335266 0.719543
0.433258 0.338837 0.722260
0.559662 0.342407 0.724915
0.673645 0.346008 0.727600
0.778656 0.349670 0.730316
0.898590 0.354797 0.734070
0.000000 0.460785 0.717560
0.000000 0.463837 0.719879
0.186127 0.467041 0.722290
0.308258 0.470367 0.724823
0.439056 0.473877 0.727417
0.564911 0.477234 0.729950
0.678162 0.480774 0.732605
0.782715 0.484680 0.735474
0.902313 0.489960 0.739380
0.000000 0.588287 0.722870
0.035583 0.590912 0.725159
0.192047 0.593719 0.727448
0.313843 0.596588 0.729858
0.444763 0.599640 0.732452
0.570251 0.602783 0.735077
0.682922 0.606110 0.737885
0.786926 0.609650 0.740814
0.906036 0.614410 0.744781
0.000000 0.701569 0.728149
0.052124 0.703827 0.730286
0.197876 0.706177 0.732635
0.319794 0.708801 0.735107
0.450958 0.711639 0.737854
0.575958 0.714478 0.740570
0.687988 0.717407 0.743347
0.791321 0.720520 0.746338
0.909882 0.724579 0.750183
0.000000 0.805786 0.733643
0.065613 0.807861 0.735901
0.204468 0.810059 0.738342
0.326447 0.812469 0.740936
0.457733 0.814972 0.743683
0.582092 0.817444 0.746399
0.693298 0.820007 0.749146
0.795929 0.822662 0.752075
0.913788 0.826050 0.755676
0.000000 0.926178 0.741272
0.080994 0.928040 0.743622
0.213440 0.930084 0.746094
0.335419 0.932159 0.748627
0.466705 0.934387 0.751312
0.590027 0.936523 0.753906
0.699982 0.938629 0.756439
0.801483 0.940765 0.758972
0.918274 0.943237 0.761932
0.000000 0.000000 0.799286
0.000000 0.000000 0.800995
0.165619 0.000000 0.802917
0.288391 0.000000 0.805023
0.418579 0.000000 0.807281
0.546082 0.000000 0.809662
0.661957 0.000000 0.812073
0.768616 0.000000 0.814667
0.889923 0.000000 0.818085
0.000000 0.053284 0.802704
0.000000 0.059387 0.804626
0.170380 0.065338 0.806671
0.292999 0.071350 0.808838
0.423492 0.077301 0.811218
0.550690 0.082977 0.813599
0.665924 0.088531 0.816040
0.772095 0.094116 0.818604
0.892914 0.101074 0.821991
0.000000 0.201599 0.806702
0.000000 0.204498 0.808655
0.175659 0.207672 0.810760
0.298126 0.211029 0.813049
0.428772 0.214600 0.815399
0.555634 0.218170 0.817810
0.670166 0.221741 0.820221
0.775726 0.225525 0.822723
0.895966 0.230377 0.825928
0.000000 0.327087 0.811096
0.000000 0.330078 0.813080
0.181366 0.333313 0.815216
0.303680 0.336700 0.817505
0.434448 0.340240 0.819855
0.560760 0.343842 0.822174
0.674561 0.347351 0.824493
0.779419 0.351074 0.826904
0.899353 0.356262 0.830231
0.000000 0.462189 0.815765
0.000000 0.465240 0.817780
0.187378 0.468475 0.819916
0.309418 0.471771 0.822083
0.440247 0.475220 0.824402
0.565979 0.478577 0.826599
0.679138 0.482208 0.828949
0.783539 0.486115 0.831512
0.903046 0.491425 0.834930
0.000000 0.589478 0.820404
0.039551 0.592163 0.822357
0.193176 0.594910 0.824402
0.315002 0.597778 0.826508
0.445984 0.600891 0.828857
0.571350 0.604095 0.831177
0.683929 0.607391 0.833588
0.787811 0.610931 0.836243
0.906830 0.615692 0.839722
0.000000 0.702606 0.824982
0.054779 0.704834 0.826874
0.199066 0.707306 0.828949
0.320984 0.709930 0.831207
0.452209 0.712769 0.833588
0.577087 0.715607 0.835999
0.688934 0.718536 0.838470
0.792175 0.721619 0.841064
0.910614 0.725677 0.844513
0.000000 0.806793 0.829865
0.067963 0.808838 0.831879
0.205719 0.811096 0.834015
0.327698 0.813477 0.836365
0.458984 0.815979 0.838745
0.583221 0.818451 0.841156
0.694275 0.820984 0.843567
0.796722 0.823608 0.846100
0.914490 0.826904 0.849274
0.000000 0.927032 0.836639
0.082977 0.928925 0.838715
0.214661 0.930969 0.840881
0.336700 0.933044 0.843109
0.467957 0.935242 0.845459
0.591095 0.937347 0.847748
0.700867 0.939453 0.849915
0.802216 0.941498 0.852112
0.918793 0.943878 0.854584
0.000000 0.000000 0.915100
0.000000 0.000000 0.916687
0.167114 0.000000 0.918396
0.289795 0.000000 0.920288
0.420135 0.000000 0.922363
0.547546 0.000000 0.924469
0.663208 0.000000 0.926605
0.769684 0.000000 0.928925
0.890869 0.000000 0.931976
0.000000 0.057129 0.918243
0.000000 0.062897 0.919922
0.171936 0.068695 0.921783
0.294495 0.074524 0.923767
0.425079 0.080383 0.925873
0.552185 0.085846 0.927979
0.667206 0.091217 0.930176
0.773163 0.096680 0.932465
0.893860 0.103577 0.935425
0.000000 0.203400 0.921814
0.000000 0.206329 0.923584
0.177277 0.209534 0.925476
0.299622 0.212891 0.927490
0.430389 0.216492 0.929657
0.557068 0.220032 0.931732
0.671448 0.223602 0.933899
0.776764 0.227295 0.936096
0.896881 0.232178 0.938995
0.000000 0.328918 0.925751
0.000000 0.331970 0.927521
0.182953 0.335205 0.929474
0.305206 0.338593 0.931458
0.435974 0.342133 0.933594
0.562134 0.345642 0.935638
0.675751 0.349121 0.937683
0.780487 0.352966 0.939880
0.900299 0.358185 0.942963
0.000000 0.464081 0.929932
0.019653 0.467133 0.931732
0.188965 0.470306 0.933624
0.310913 0.473602 0.935577
0.441711 0.476990 0.937561
0.567413 0.480438 0.939606
0.680420 0.484070 0.941772
0.784698 0.488068 0.944061
0.904083 0.493378 0.947266
0.000000 0.591187 0.934082
0.044098 0.593781 0.935791
0.194672 0.596497 0.937592
0.316498 0.599396 0.939545
0.447540 0.602570 0.941650
0.572815 0.605774 0.943787
0.685242 0.609100 0.945984
0.788940 0.612671 0.948395
0.907806 0.617371 0.951538
0.000000 0.703979 0.938110
0.058258 0.706268 0.939880
0.200745 0.708771 0.941803
0.322632 0.711395 0.943817
0.453888 0.714294 0.945984
0.578583 0.717133 0.948181
0.690308 0.720062 0.950439
0.793335 0.723145 0.952789
0.911621 0.727081 0.955872
0.000000 0.808044 0.942596
0.070892 0.810150 0.944397
0.207397 0.812378 0.946381
0.329376 0.814789 0.948486
0.460724 0.817261 0.950653
0.584717 0.819794 0.952850
0.695557 0.822266 0.955048
0.797821 0.824860 0.957306
0.915375 0.828094 0.960175
0.000000 0.928192 0.948730
0.085541 0.930115 0.950623
0.216339 0.932098 0.952606
0.338379 0.934204 0.954590
0.469543 0.936371 0.956726
0.592438 0.938446 0.958740
0.702057 0.940430 0.960693
0.803131 0.942413 0.962646
0.919434 0.944580 0.964722
