custom_nodes/comfyui-vrgamedevgirl/LUTS/Dark_Vivid_Magenta_Tint_Cinematic.cube
#Created by: Adobe Photoshop Export Color Lookup Plugin
#Copyright: (C) Copyright 2017 PremiumBeat
TITLE "Tahoe"
#LUT size
LUT_3D_SIZE 64
#data domain
DOMAIN_MIN 0.0 0.0 0.0
DOMAIN_MAX 1.0 1.0 1.0
#LUT data points
0.000000 0.000000 0.000000
0.000000 0.000000 0.000000
0.000000 0.000000 0.000000
0.004791 0.000000 0.000000
0.012238 0.000000 0.000000
0.019989 0.000000 0.000000
0.028137 0.000000 0.000000
0.036865 0.000000 0.000000
0.045502 0.000000 0.000000
0.054474 0.000000 0.000000
0.063873 0.000000 0.000000
0.073608 0.000000 0.000000
0.083771 0.000000 0.000000
0.094299 0.000000 0.000000
0.105225 0.000000 0.000000
0.116577 0.000000 0.000000
0.128326 0.000000 0.000000
0.140472 0.000000 0.000000
0.153076 0.000000 0.000000
0.166168 0.000000 0.000000
0.179657 0.000000 0.000000
0.193695 0.000000 0.000000
0.208130 0.000000 0.000000
0.223022 0.000000 0.000000
0.238403 0.000000 0.000000
0.254333 0.000000 0.000000
0.270782 0.000000 0.000000
0.287781 0.000000 0.000000
0.305328 0.000000 0.000000
0.323395 0.000000 0.000000
0.342010 0.000000 0.000000
0.361084 0.000000 0.000000
0.380737 0.000000 0.000000
0.401031 0.000000 0.000000
0.421783 0.000000 0.000000
0.443054 0.000000 0.000000
0.464722 0.000000 0.000031
0.486908 0.000000 0.000031
0.508850 0.000000 0.000031
0.530426 0.000000 0.000031
0.551605 0.000000 0.000031
0.572418 0.000000 0.000031
0.592896 0.000000 0.000031
0.612976 0.000000 0.000031
0.632782 0.000000 0.000031
0.652161 0.000000 0.000031
0.671173 0.000000 0.000031
0.689941 0.000000 0.000031
0.708282 0.000000 0.000031
0.726379 0.000000 0.000031
0.744141 0.000000 0.000031
0.761627 0.000000 0.000031
0.778839 0.000000 0.000061
0.795715 0.000000 0.000061
0.812378 0.000000 0.000061
0.828766 0.000000 0.000061
0.844879 0.000000 0.000061
0.860779 0.000000 0.000061
0.876404 0.000000 0.000061
0.891815 0.000000 0.000061
0.907013 0.000000 0.000061
0.922028 0.000000 0.000061
0.936798 0.000000 0.000061
0.951355 0.000000 0.000061
0.000000 0.000000 0.000000
0.000000 0.000000 0.000000
0.000000 0.000000 0.000000
0.004791 0.000000 0.000000
0.012238 0.000000 0.000000
0.019989 0.000000 0.000000
0.028137 0.000000 0.000000
0.036865 0.000000 0.000000
0.045502 0.000000 0.000000
0.054474 0.000000 0.000000
0.063873 0.000000 0.000000
0.073608 0.000000 0.000000
0.083771 0.000000 0.000000
0.094299 0.000000 0.000000
0.105225 0.000000 0.000000
0.116577 0.000000 0.000000
0.128326 0.000000 0.000000
0.140472 0.000000 0.000000
0.153076 0.000000 0.000000
0.166168 0.000000 0.000000
0.179657 0.000000 0.000000
0.193695 0.000000 0.000000
0.208130 0.000000 0.000000
0.223022 0.000000 0.000000
0.238403 0.000000 0.000000
0.254333 0.000000 0.000000
0.270782 0.000000 0.000000
0.287781 0.000000 0.000000
0.305328 0.000000 0.000000
0.323395 0.000000 0.000000
0.342010 0.000000 0.000000
0.361084 0.000000 0.000000
0.380737 0.000000 0.000000
0.401031 0.000000 0.000000
0.421783 0.000000 0.000000
0.443054 0.000000 0.000000
0.464722 0.000000 0.000031
0.486908 0.000000 0.000031
0.508850 0.000000 0.000031
0.530426 0.000000 0.000031
0.551605 0.000000 0.000031
0.572418 0.000000 0.000031
0.592896 0.000000 0.000031
0.612976 0.000000 0.000031
0.632782 0.000000 0.000031
0.652161 0.000000 0.000031
0.671173 0.000000 0.000031
0.689941 0.000000 0.000031
0.708282 0.000000 0.000031
0.726379 0.000000 0.000031
0.744141 0.000000 0.000031
0.761627 0.000000 0.000031
0.778839 0.000000 0.000061
0.795715 0.000000 0.000061
0.812378 0.000000 0.000061
0.828766 0.000000 0.000061
0.844879 0.000000 0.000061
0.860779 0.000000 0.000061
0.876404 0.000000 0.000061
0.891815 0.000000 0.000061
0.907013 0.000000 0.000061
0.922028 0.000000 0.000061
0.936798 0.000000 0.000061
0.951355 0.000000 0.000061
0.000000 0.000000 0.000000
0.000000 0.000000 0.000000
0.000000 0.000000 0.000000
0.004791 0.000000 0.000000
0.012238 0.000000 0.000000
0.019989 0.000000 0.000000
0.028137 0.000000 0.000000
0.036865 0.000000 0.000000
0.045502 0.000000 0.000000
0.054474 0.000000 0.000000
0.063873 0.000000 0.000000
0.073608 0.000000 0.000000
0.083771 0.000000 0.000000
0.094299 0.000000 0.000000
0.105225 0.000000 0.000000
0.116577 0.000000 0.000000
0.128326 0.000000 0.000000
0.140472 0.000000 0.000000
0.153076 0.000000 0.000000
0.166168 0.000000 0.000000
0.179657 0.000000 0.000000
0.193695 0.000000 0.000000
0.208130 0.000000 0.000000
0.223022 0.000000 0.000000
0.238403 0.000000 0.000000
0.254333 0.000000 0.000000
0.270782 0.000000 0.000000
0.287781 0.000000 0.000000
0.305328 0.000000 0.000000
0.323395 0.000000 0.000000
0.342010 0.000000 0.000000
0.361084 0.000000 0.000000
0.380737 0.000000 0.000000
0.401031 0.000000 0.000000
0.421783 0.000000 0.000000
0.443054 0.000000 0.000000
0.464722 0.000000 0.000031
0.486908 0.000000 0.000031
0.508850 0.000000 0.000031
0.530426 0.000000 0.000031
0.551605 0.000000 0.000031
0.572418 0.000000 0.000031
0.592896 0.000000 0.000031
0.612976 0.000000 0.000031
0.632782 0.000000 0.000031
0.652161 0.000000 0.000031
0.671173 0.000000 0.000031
0.689941 0.000000 0.000031
0.708282 0.000000 0.000031
0.726379 0.000000 0.000031
0.744141 0.000000 0.000031
0.761627 0.000000 0.000031
0.778839 0.000000 0.000061
0.795715 0.000000 0.000061
0.812378 0.000000 0.000061
0.828766 0.000000 0.000061
0.844879 0.000000 0.000061
0.860779 0.000000 0.000061
0.876404 0.000000 0.000061
0.891815 0.000000 0.000061
0.907013 0.000000 0.000061
0.922028 0.000000 0.000061
0.936798 0.000000 0.000061
0.951355 0.000000 0.000061
0.000000 0.000000 0.000000
0.000000 0.000000 0.000000
0.000000 0.000000 0.000000
0.004791 0.000000 0.000000
0.012238 0.000000 0.000000
0.019989 0.000000 0.000000
0.028137 0.000000 0.000000
0.036865 0.000000 0.000000
0.045502 0.000000 0.000000
0.054474 0.000000 0.000000
0.063873 0.000000 0.000000
0.073608 0.000000 0.000000
0.083771 0.000000 0.000000
0.094299 0.000000 0.000000
0.105225 0.000000 0.000000
0.116577 0.000000 0.000000
0.128326 0.000000 0.000000
0.140472 0.000000 0.000000
0.153076 0.000000 0.000000
0.166168 0.000000 0.000000
0.179657 0.000000 0.000000
0.193695 0.000000 0.000000
0.208130 0.000000 0.000000
0.223022 0.000000 0.000000
0.238403 0.000000 0.000000
0.254333 0.000000 0.000000
0.270782 0.000000 0.000000
0.287781 0.000000 0.000000
0.305328 0.000000 0.000000
0.323395 0.000000 0.000000
0.342010 0.000000 0.000000
0.361084 0.000000 0.000000
0.380737 0.000000 0.000000
0.401031 0.000000 0.000000
0.421783 0.000000 0.000000
0.443054 0.000000 0.000000
0.464722 0.000000 0.000031
0.486908 0.000000 0.000031
0.508850 0.000000 0.000031
0.530426 0.000000 0.000031
0.551605 0.000000 0.000031
0.572418 0.000000 0.000031
0.592896 0.000000 0.000031
0.612976 0.000000 0.000031
0.632782 0.000000 0.000031
0.652161 0.000000 0.000031
0.671173 0.000000 0.000031
0.689941 0.000000 0.000031
0.708282 0.000000 0.000031
0.726379 0.000000 0.000031
0.744141 0.000000 0.000031
0.761627 0.000000 0.000031
0.778839 0.000000 0.000061
0.795715 0.000000 0.000061
0.812378 0.000000 0.000061
0.828766 0.000000 0.000061
0.844879 0.000000 0.000061
0.860779 0.000000 0.000061
0.876404 0.000000 0.000061
0.891815 0.000000 0.000061
0.907013 0.000000 0.000061
0.922028 0.000000 0.000061
0.936798 0.000000 0.000061
0.951355 0.000000 0.000061
0.000000 0.000000 0.000000
0.000000 0.000000 0.000000
0.000000 0.000000 0.000000
0.004791 0.000000 0.000000
0.012238 0.000000 0.000000
0.019989 0.000000 0.000000
0.028137 0.000000 0.000000
0.036865 0.000000 0.000000
0.045502 0.000000 0.000000
0.054474 0.000000 0.000000
0.063873 0.000000 0.000000
0.073608 0.000000 0.000000
0.083771 0.000000 0.000000
0.094299 0.000000 0.000000
0.105225 0.000000 0.000000
0.116577 0.000000 0.000000
0.128326 0.000000 0.000000
0.140472 0.000000 0.000000
0.153076 0.000000 0.000000
0.166168 0.000000 0.000000
0.179657 0.000000 0.000000
0.193695 0.000000 0.000000
0.208130 0.000000 0.000000
0.223022 0.000000 0.000000
0.238403 0.000000 0.000000
0.254333 0.000000 0.000000
0.270782 0.000000 0.000000
0.287781 0.000000 0.000000
0.305328 0.000000 0.000000
0.323395 0.000000 0.000000
0.342010 0.000000 0.000000
0.361084 0.000000 0.000000
0.380737 0.000000 0.000000
0.401031 0.000000 0.000000
0.421783 0.000000 0.000000
0.443054 0.000000 0.000000
0.464722 0.000000 0.000031
0.486908 0.000000 0.000031
0.508850 0.000000 0.000031
0.530426 0.000000 0.000031
0.551605 0.000000 0.000031
0.572418 0.000000 0.000031
0.592896 0.000000 0.000031
0.612976 0.000000 0.000031
0.632782 0.000000 0.000031
0.652161 0.000000 0.000031
0.671173 0.000000 0.000031
0.689941 0.000000 0.000031
0.708282 0.000000 0.000031
0.726379 0.000000 0.000031
0.744141 0.000000 0.000031
0.761627 0.000000 0.000031
0.778839 0.000000 0.000061
0.795715 0.000000 0.000061
0.812378 0.000000 0.000061
0.828766 0.000000 0.000061
0.844879 0.000000 0.000061
0.860779 0.000000 0.000061
0.876404 0.000000 0.000061
0.891815 0.000000 0.000061
0.907013 0.000000 0.000061
0.922028 0.000000 0.000061
0.936798 0.000000 0.000061
0.951355 0.000000 0.000061
0.000000 0.004486 0.000000
0.000000 0.004486 0.000000
0.000000 0.004486 0.000000
0.004486 0.004364 0.000000
0.011902 0.004150 0.000000
0.019684 0.003967 0.000000
0.027832 0.003754 0.000000
0.036560 0.003510 0.000000
0.045227 0.003265 0.000000
0.054230 0.002991 0.000000
0.063629 0.002655 0.000000
0.073425 0.002289 0.000000
0.083588 0.001831 0.000000
0.094116 0.001343 0.000000
0.105072 0.000763 0.000000
0.116455 0.000092 0.000000
0.128204 0.000000 0.000000
0.140381 0.000000 0.000000
0.152985 0.000000 0.000000
0.166077 0.000000 0.000000
0.179565 0.000000 0.000000
0.193604 0.000000 0.000000
0.208069 0.000000 0.000000
0.222961 0.000000 0.000000
0.238342 0.000000 0.000000
0.254272 0.000000 0.000000
0.270721 0.000000 0.000000
0.287720 0.000000 0.000000
0.305267 0.000000 0.000000
0.323334 0.000000 0.000000
0.341949 0.000000 0.000000
0.361053 0.000000 0.000000
0.380707 0.000000 0.000000
0.401001 0.000000 0.000000
0.421753 0.000000 0.000000
0.443024 0.000000 0.000000
0.464691 0.000000 0.000031
0.486877 0.000000 0.000031
0.508820 0.000000 0.000031
0.530396 0.000000 0.000031
0.551575 0.000000 0.000031
0.572388 0.000000 0.000031
0.592865 0.000000 0.000031
0.612976 0.000000 0.000031
0.632751 0.000000 0.000031
0.652130 0.000000 0.000031
0.671173 0.000000 0.000031
0.689911 0.000000 0.000031
0.708252 0.000000 0.000031
0.726379 0.000000 0.000031
0.744110 0.000000 0.000031
0.761597 0.000000 0.000031
0.778809 0.000000 0.000061
0.795715 0.000000 0.000061
0.812347 0.000000 0.000061
0.828766 0.000000 0.000061
0.844879 0.000000 0.000061
0.860748 0.000000 0.000061
0.876404 0.000000 0.000061
0.891785 0.000000 0.000061
0.906982 0.000000 0.000061
0.922028 0.000000 0.000061
0.936798 0.000000 0.000061
0.951324 0.000000 0.000061
0.000000 0.012451 0.000000
0.000000 0.012451 0.000000
0.000000 0.012451 0.000000
0.003967 0.012299 0.000000
0.011322 0.012085 0.000000
0.019135 0.011871 0.000000
0.027283 0.011658 0.000000
0.036011 0.011414 0.000000
0.044708 0.011139 0.000000
0.053772 0.010864 0.000000
0.063263 0.010498 0.000000
0.073059 0.010101 0.000000
0.083282 0.009644 0.000000
0.093842 0.009094 0.000000
0.104828 0.008514 0.000000
0.116211 0.007843 0.000000
0.127991 0.007111 0.000000
0.140167 0.006226 0.000000
0.152802 0.005249 0.000000
0.165894 0.004150 0.000000
0.179443 0.002930 0.000000
0.193451 0.001526 0.000000
0.207947 0.000000 0.000000
0.222839 0.000000 0.000000
0.238220 0.000000 0.000000
0.254181 0.000000 0.000000
0.270630 0.000000 0.000000
0.287628 0.000000 0.000000
0.305206 0.000000 0.000000
0.323273 0.000000 0.000000
0.341888 0.000000 0.000000
0.360962 0.000000 0.000000
0.380646 0.000000 0.000000
0.400940 0.000000 0.000000
0.421692 0.000000 0.000000
0.442963 0.000000 0.000000
0.464661 0.000000 0.000031
0.486816 0.000000 0.000031
0.508789 0.000000 0.000031
0.530365 0.000000 0.000031
0.551544 0.000000 0.000031
0.572357 0.000000 0.000031
0.592834 0.000000 0.000031
0.612915 0.000000 0.000031
0.632721 0.000000 0.000031
0.652100 0.000000 0.000031
0.671143 0.000000 0.000031
0.689880 0.000000 0.000031
0.708221 0.000000 0.000031
0.726349 0.000000 0.000031
0.744110 0.000000 0.000031
0.761597 0.000000 0.000031
0.778778 0.000000 0.000061
0.795685 0.000000 0.000061
0.812347 0.000000 0.000061
0.828735 0.000000 0.000061
0.844849 0.000000 0.000061
0.860748 0.000000 0.000061
0.876373 0.000000 0.000061
0.891754 0.000000 0.000061
0.906982 0.000000 0.000061
0.921997 0.000000 0.000061
0.936768 0.000000 0.000061
0.951324 0.000000 0.000061
0.000000 0.020813 0.000000
0.000000 0.020813 0.000000
0.000000 0.020813 0.000000
0.003387 0.020691 0.000000
0.010712 0.020477 0.000000
0.018555 0.020264 0.000000
0.026703 0.020050 0.000000
0.035400 0.019836 0.000000
0.044159 0.019592 0.000000
0.053284 0.019318 0.000000
0.062836 0.018982 0.000000
0.072693 0.018616 0.000000
0.082947 0.018158 0.000000
0.093506 0.017670 0.000000
0.104523 0.017059 0.000000
0.115967 0.016418 0.000000
0.127747 0.015656 0.000000
0.139954 0.014771 0.000000
0.152588 0.013794 0.000000
0.165741 0.012695 0.000000
0.179260 0.011383 0.000000
0.193298 0.009918 0.000000
0.207794 0.008331 0.000000
0.222687 0.006592 0.000000
0.238098 0.004639 0.000000
0.254059 0.002472 0.000000
0.270538 0.000092 0.000000
0.287537 0.000000 0.000000
0.305115 0.000000 0.000000
0.323181 0.000000 0.000000
0.341797 0.000000 0.000000
0.360901 0.000000 0.000000
0.380585 0.000000 0.000000
0.400879 0.000000 0.000000
0.421631 0.000000 0.000000
0.442932 0.000000 0.000000
0.464600 0.000000 0.000031
0.486755 0.000000 0.000031
0.508728 0.000000 0.000031
0.530304 0.000000 0.000031
0.551483 0.000000 0.000031
0.572327 0.000000 0.000031
0.592804 0.000000 0.000031
0.612885 0.000000 0.000031
0.632690 0.000000 0.000031
0.652069 0.000000 0.000031
0.671112 0.000000 0.000031
0.689850 0.000000 0.000031
0.708191 0.000000 0.000031
0.726318 0.000000 0.000031
0.744080 0.000000 0.000031
0.761566 0.000000 0.000031
0.778778 0.000000 0.000061
0.795654 0.000000 0.000061
0.812317 0.000000 0.000061
0.828705 0.000000 0.000061
0.844818 0.000000 0.000061
0.860718 0.000000 0.000061
0.876343 0.000000 0.000061
0.891754 0.000000 0.000061
0.906952 0.000000 0.000061
0.921997 0.000000 0.000061
0.936737 0.000000 0.000061
0.951294 0.000000 0.000061
0.000000 0.029572 0.000000
0.000000 0.029572 0.000000
0.000000 0.029572 0.000000
0.002777 0.029449 0.000000
0.010071 0.029236 0.000000
0.017975 0.029053 0.000000
0.026093 0.028809 0.000000
0.034760 0.028595 0.000000
0.043610 0.028351 0.000000
0.052795 0.028076 0.000000
0.062378 0.027740 0.000000
0.072296 0.027374 0.000000
0.082581 0.026917 0.000000
0.093201 0.026428 0.000000
0.104248 0.025818 0.000000
0.115692 0.025177 0.000000
0.127502 0.024414 0.000000
0.139709 0.023529 0.000000
0.152405 0.022583 0.000000
0.165558 0.021454 0.000000
0.179108 0.020233 0.000000
0.193146 0.018829 0.000000
0.207642 0.017273 0.000000
0.222565 0.015533 0.000000
0.237976 0.013611 0.000000
0.253937 0.011353 0.000000
0.270416 0.008850 0.000000
0.287445 0.006165 0.000000
0.305023 0.003235 0.000000
0.323090 0.000000 0.000000
0.341736 0.000000 0.000000
0.360809 0.000000 0.000000
0.380493 0.000000 0.000000
0.400818 0.000000 0.000000
0.421570 0.000000 0.000000
0.442871 0.000000 0.000000
0.464539 0.000000 0.000031
0.486725 0.000000 0.000031
0.508698 0.000000 0.000031
0.530273 0.000000 0.000031
0.551453 0.000000 0.000031
0.572266 0.000000 0.000031
0.592773 0.000000 0.000031
0.612854 0.000000 0.000031
0.632660 0.000000 0.000031
0.652039 0.000000 0.000031
0.671051 0.000000 0.000031
0.689819 0.000000 0.000031
0.708160 0.000000 0.000031
0.726288 0.000000 0.000031
0.744049 0.000000 0.000031
0.761536 0.000000 0.000031
0.778748 0.000000 0.000061
0.795624 0.000000 0.000061
0.812286 0.000000 0.000061
0.828674 0.000000 0.000061
0.844788 0.000000 0.000061
0.860687 0.000000 0.000061
0.876312 0.000000 0.000061
0.891724 0.000000 0.000061
0.906921 0.000000 0.000061
0.921967 0.000000 0.000061
0.936737 0.000000 0.000061
0.951263 0.000000 0.000061
0.000000 0.038727 0.000000
0.000000 0.038727 0.000000
0.000000 0.038727 0.000000
0.002167 0.038605 0.000000
0.009399 0.038422 0.000000
0.017334 0.038208 0.000000
0.025482 0.037994 0.000000
0.034149 0.037750 0.000000
0.043030 0.037506 0.000000
0.052277 0.037201 0.000000
0.061920 0.036865 0.000000
0.071869 0.036469 0.000000
0.082214 0.036011 0.000000
0.092865 0.035492 0.000000
0.103943 0.034912 0.000000
0.115417 0.034210 0.000000
0.127258 0.033417 0.000000
0.139496 0.032532 0.000000
0.152191 0.031525 0.000000
0.165344 0.030426 0.000000
0.178925 0.029205 0.000000
0.192993 0.027802 0.000000
0.207520 0.026245 0.000000
0.222412 0.024506 0.000000
0.237854 0.022552 0.000000
0.253815 0.020416 0.000000
0.270294 0.018005 0.000000
0.287323 0.015350 0.000000
0.304901 0.012360 0.000000
0.322998 0.008942 0.000000
0.341644 0.005341 0.000000
0.360748 0.001404 0.000000
0.380432 0.000000 0.000000
0.400757 0.000000 0.000000
0.421509 0.000000 0.000000
0.442810 0.000000 0.000000
0.464478 0.000000 0.000031
0.486664 0.000000 0.000031
0.508636 0.000000 0.000031
0.530212 0.000000 0.000031
0.551392 0.000000 0.000031
0.572235 0.000000 0.000031
0.592712 0.000000 0.000031
0.612823 0.000000 0.000031
0.632599 0.000000 0.000031
0.651978 0.000000 0.000031
0.671021 0.000000 0.000031
0.689789 0.000000 0.000031
0.708130 0.000000 0.000031
0.726257 0.000000 0.000031
0.744019 0.000000 0.000031
0.761505 0.000000 0.000031
0.778717 0.000000 0.000061
0.795593 0.000000 0.000061
0.812256 0.000000 0.000061
0.828644 0.000000 0.000061
0.844757 0.000000 0.000061
0.860657 0.000000 0.000061
0.876312 0.000000 0.000061
0.891693 0.000000 0.000061
0.906891 0.000000 0.000061
0.921936 0.000000 0.000061
0.936707 0.000000 0.000061
0.951233 0.000000 0.000061
0.000000 0.048035 0.000000
0.000000 0.048035 0.000000
0.000000 0.048035 0.000000
0.001465 0.047943 0.000000
0.008728 0.047760 0.000000
0.016663 0.047577 0.000000
0.024811 0.047363 0.000000
0.033417 0.047180 0.000000
0.042389 0.046967 0.000000
0.051697 0.046692 0.000000
0.061432 0.046387 0.000000
0.071411 0.046051 0.000000
0.081787 0.045624 0.000000
0.092529 0.045166 0.000000
0.103638 0.044617 0.000000
0.115112 0.043976 0.000000
0.126984 0.043274 0.000000
0.139252 0.042450 0.000000
0.151978 0.041565 0.000000
0.165161 0.040466 0.000000
0.178741 0.039246 0.000000
0.192810 0.037842 0.000000
0.207336 0.036224 0.000000
0.222260 0.034454 0.000000
0.237732 0.032440 0.000000
0.253693 0.030273 0.000000
0.270172 0.027863 0.000000
0.287231 0.025208 0.000000
0.304810 0.022247 0.000000
0.322906 0.018982 0.000000
0.341553 0.015381 0.000000
0.360657 0.011383 0.000000
0.380341 0.006927 0.000000
0.400665 0.002167 0.000000
0.421448 0.000000 0.000000
0.442719 0.000000 0.000000
0.464417 0.000000 0.000031
0.486603 0.000000 0.000031
0.508575 0.000000 0.000031
0.530151 0.000000 0.000031
0.551331 0.000000 0.000031
0.572174 0.000000 0.000031
0.592682 0.000000 0.000031
0.612762 0.000000 0.000031
0.632568 0.000000 0.000031
0.651947 0.000000 0.000031
0.670990 0.000000 0.000031
0.689728 0.000000 0.000031
0.708099 0.000000 0.000031
0.726227 0.000000 0.000031
0.743958 0.000000 0.000031
0.761475 0.000000 0.000031
0.778687 0.000000 0.000061
0.795563 0.000000 0.000061
0.812225 0.000000 0.000061
0.828613 0.000000 0.000061
0.844757 0.000000 0.000061
0.860626 0.000000 0.000061
0.876282 0.000000 0.000061
0.891663 0.000000 0.000061
0.906860 0.000000 0.000061
0.921906 0.000000 0.000061
0.936676 0.000000 0.000061
0.951233 0.000000 0.000061
0.000000 0.057770 0.000000
0.000000 0.057770 0.000000
0.000000 0.057770 0.000000
0.000671 0.057648 0.000000
0.007904 0.057495 0.000000
0.015839 0.057343 0.000000
0.023987 0.057159 0.000000
0.032593 0.056976 0.000000
0.041626 0.056793 0.000000
0.051025 0.056549 0.000000
0.060822 0.056305 0.000000
0.070862 0.056000 0.000000
0.081329 0.055634 0.000000
0.092102 0.055237 0.000000
0.103241 0.054779 0.000000
0.114746 0.054199 0.000000
0.126648 0.053589 0.000000
0.138947 0.052856 0.000000
0.151703 0.052063 0.000000
0.164886 0.051117 0.000000
0.178528 0.050110 0.000000
0.192596 0.048889 0.000000
0.207153 0.047516 0.000000
0.222076 0.045898 0.000000
0.237549 0.044098 0.000000
0.253540 0.042084 0.000000
0.270050 0.039734 0.000000
0.287079 0.037048 0.000000
0.304688 0.033997 0.000000
0.322784 0.030670 0.000000
0.341431 0.027069 0.000000
0.360565 0.023132 0.000000
0.380249 0.018829 0.000000
0.400574 0.014069 0.000000
0.421356 0.008667 0.000000
0.442657 0.003021 0.000000
0.464355 0.000000 0.000031
0.486542 0.000000 0.000031
0.508514 0.000000 0.000031
0.530090 0.000000 0.000031
0.551300 0.000000 0.000031
0.572113 0.000000 0.000031
0.592621 0.000000 0.000031
0.612701 0.000000 0.000031
0.632507 0.000000 0.000031
0.651917 0.000000 0.000031
0.670929 0.000000 0.000031
0.689697 0.000000 0.000031
0.708038 0.000000 0.000031
0.726166 0.000000 0.000031
0.743927 0.000000 0.000031
0.761414 0.000000 0.000031
0.778625 0.000000 0.000061
0.795532 0.000000 0.000061
0.812195 0.000000 0.000061
0.828583 0.000000 0.000061
0.844696 0.000000 0.000061
0.860596 0.000000 0.000061
0.876251 0.000000 0.000061
0.891632 0.000000 0.000061
0.906830 0.000000 0.000061
0.921875 0.000000 0.000061
0.936646 0.000000 0.000061
0.951202 0.000000 0.000061
0.000000 0.067932 0.000000
0.000000 0.067932 0.000000
0.000000 0.067932 0.000000
0.000000 0.067841 0.000000
0.006958 0.067719 0.000000
0.014893 0.067566 0.000000
0.023041 0.067413 0.000000
0.031616 0.067230 0.000000
0.040710 0.067078 0.000000
0.050232 0.066864 0.000000
0.060120 0.066620 0.000000
0.070221 0.066376 0.000000
0.080750 0.066040 0.000000
0.091583 0.065674 0.000000
0.102783 0.065277 0.000000
0.114319 0.064789 0.000000
0.126282 0.064240 0.000000
0.138611 0.063629 0.000000
0.151367 0.062897 0.000000
0.164612 0.062103 0.000000
0.178253 0.061188 0.000000
0.192352 0.060150 0.000000
0.206940 0.058899 0.000000
0.221863 0.057526 0.000000
0.237366 0.055969 0.000000
0.253357 0.054230 0.000000
0.269867 0.052216 0.000000
0.286926 0.049988 0.000000
0.304535 0.047394 0.000000
0.322662 0.044373 0.000000
0.341309 0.041016 0.000000
0.360443 0.037048 0.000000
0.380127 0.032593 0.000000
0.400482 0.027771 0.000000
0.421265 0.022583 0.000000
0.442566 0.016937 0.000000
0.464264 0.010712 0.000000
0.486450 0.003998 0.000031
0.508453 0.000000 0.000031
0.530029 0.000000 0.000031
0.551208 0.000000 0.000031
0.572052 0.000000 0.000031
0.592560 0.000000 0.000031
0.612640 0.000000 0.000031
0.632446 0.000000 0.000031
0.651855 0.000000 0.000031
0.670898 0.000000 0.000031
0.689636 0.000000 0.000031
0.708008 0.000000 0.000031
0.726135 0.000000 0.000031
0.743866 0.000000 0.000031
0.761383 0.000000 0.000031
0.778595 0.000000 0.000061
0.795502 0.000000 0.000061
0.812134 0.000000 0.000061
0.828552 0.000000 0.000061
0.844666 0.000000 0.000061
0.860565 0.000000 0.000061
0.876190 0.000000 0.000061
0.891602 0.000000 0.000061
0.906799 0.000000 0.000061
0.921844 0.000000 0.000061
0.936615 0.000000 0.000061
0.951141 0.000000 0.000061
0.000000 0.078400 0.000000
0.000000 0.078400 0.000000
0.000000 0.078400 0.000000
0.000000 0.078339 0.000000
0.005859 0.078217 0.000000
0.013794 0.078094 0.000000
0.021912 0.077942 0.000000
0.030487 0.077789 0.000000
0.039612 0.077637 0.000000
0.049286 0.077484 0.000000
0.059235 0.077271 0.000000
0.069489 0.077026 0.000000
0.080048 0.076752 0.000000
0.090973 0.076447 0.000000
0.102234 0.076080 0.000000
0.113861 0.075653 0.000000
0.125824 0.075195 0.000000
0.138214 0.074646 0.000000
0.151001 0.074036 0.000000
0.164276 0.073334 0.000000
0.177948 0.072510 0.000000
0.192047 0.071564 0.000000
0.206665 0.070526 0.000000
0.221619 0.069366 0.000000
0.237152 0.068024 0.000000
0.253143 0.066467 0.000000
0.269684 0.064758 0.000000
0.286743 0.062805 0.000000
0.304352 0.060638 0.000000
0.322479 0.058075 0.000000
0.341156 0.055206 0.000000
0.360291 0.051941 0.000000
0.380005 0.048248 0.000000
0.400360 0.043854 0.000000
0.421143 0.038849 0.000000
0.442444 0.033051 0.000000
0.464142 0.026886 0.000000
0.486359 0.020264 0.000031
0.508362 0.013306 0.000031
0.529938 0.005890 0.000031
0.551117 0.000000 0.000031
0.571960 0.000000 0.000031
0.592468 0.000000 0.000031
0.612579 0.000000 0.000031
0.632385 0.000000 0.000031
0.651764 0.000000 0.000031
0.670837 0.000000 0.000031
0.689575 0.000000 0.000031
