custom_nodes/comfyui-vrgamedevgirl/LUTS/Dark_Cool_Magenta_Tint_Cinematic_Filmic_Dark.cube
TITLE "Filmic_Dark"
LUT_3D_SIZE 9
DOMAIN_MIN 0 0 0
DOMAIN_MAX 1 1 1
0.000000 0.000000 0.000000
0.082355 0.000000 0.000000
0.182757 0.000000 0.000000
0.291325 0.000000 0.000000
0.405563 0.000000 0.000000
0.524209 0.000000 0.000000
0.646492 0.000000 0.000000
0.771884 0.000000 0.000000
0.900000 0.000000 0.000000
0.000000 0.093409 0.000000
0.082355 0.093409 0.000000
0.182757 0.093409 0.000000
0.291325 0.093409 0.000000
0.405563 0.093409 0.000000
0.524209 0.093409 0.000000
0.646492 0.093409 0.000000
0.771884 0.093409 0.000000
0.900000 0.093409 0.000000
0.000000 0.200227 0.000000
0.082355 0.200227 0.000000
0.182757 0.200227 0.000000
0.291325 0.200227 0.000000
0.405563 0.200227 0.000000
0.524209 0.200227 0.000000
0.646492 0.200227 0.000000
0.771884 0.200227 0.000000
0.900000 0.200227 0.000000
0.000000 0.312768 0.000000
0.082355 0.312768 0.000000
0.182757 0.312768 0.000000
0.291325 0.312768 0.000000
0.405563 0.312768 0.000000
0.524209 0.312768 0.000000
0.646492 0.312768 0.000000
0.771884 0.312768 0.000000
0.900000 0.312768 0.000000
0.000000 0.429195 0.000000
0.082355 0.429195 0.000000
0.182757 0.429195 0.000000
0.291325 0.429195 0.000000
0.405563 0.429195 0.000000
0.524209 0.429195 0.000000
0.646492 0.429195 0.000000
0.771884 0.429195 0.000000
0.900000 0.429195 0.000000
0.000000 0.548600 0.000000
0.082355 0.548600 0.000000
0.182757 0.548600 0.000000
0.291325 0.548600 0.000000
0.405563 0.548600 0.000000
0.524209 0.548600 0.000000
0.646492 0.548600 0.000000
0.771884 0.548600 0.000000
0.900000 0.548600 0.000000
0.000000 0.670433 0.000000
0.082355 0.670433 0.000000
0.182757 0.670433 0.000000
0.291325 0.670433 0.000000
0.405563 0.670433 0.000000
0.524209 0.670433 0.000000
0.646492 0.670433 0.000000
0.771884 0.670433 0.000000
0.900000 0.670433 0.000000
0.000000 0.794322 0.000000
0.082355 0.794322 0.000000
0.182757 0.794322 0.000000
0.291325 0.794322 0.000000
0.405563 0.794322 0.000000
0.524209 0.794322 0.000000
0.646492 0.794322 0.000000
0.771884 0.794322 0.000000
0.900000 0.794322 0.000000
0.000000 0.920000 0.000000
0.082355 0.920000 0.000000
0.182757 0.920000 0.000000
0.291325 0.920000 0.000000
0.405563 0.920000 0.000000
0.524209 0.920000 0.000000
0.646492 0.920000 0.000000
0.771884 0.920000 0.000000
0.900000 0.920000 0.000000
0.000000 0.000000 0.118289
0.082355 0.000000 0.118289
0.182757 0.000000 0.118289
0.291325 0.000000 0.118289
0.405563 0.000000 0.118289
0.524209 0.000000 0.118289
0.646492 0.000000 0.118289
0.771884 0.000000 0.118289
0.900000 0.000000 0.118289
0.000000 0.093409 0.118289
0.082355 0.093409 0.118289
0.182757 0.093409 0.118289
0.291325 0.093409 0.118289
0.405563 0.093409 0.118289
0.524209 0.093409 0.118289
0.646492 0.093409 0.118289
0.771884 0.093409 0.118289
0.900000 0.093409 0.118289
0.000000 0.200227 0.118289
0.082355 0.200227 0.118289
0.182757 0.200227 0.118289
0.291325 0.200227 0.118289
0.405563 0.200227 0.118289
0.524209 0.200227 0.118289
0.646492 0.200227 0.118289
0.771884 0.200227 0.118289
0.900000 0.200227 0.118289
0.000000 0.312768 0.118289
0.082355 0.312768 0.118289
0.182757 0.312768 0.118289
0.291325 0.312768 0.118289
0.405563 0.312768 0.118289
0.524209 0.312768 0.118289
0.646492 0.312768 0.118289
0.771884 0.312768 0.118289
0.900000 0.312768 0.118289
0.000000 0.429195 0.118289
0.082355 0.429195 0.118289
0.182757 0.429195 0.118289
0.291325 0.429195 0.118289
0.405563 0.429195 0.118289
0.524209 0.429195 0.118289
0.646492 0.429195 0.118289
0.771884 0.429195 0.118289
0.900000 0.429195 0.118289
0.000000 0.548600 0.118289
0.082355 0.548600 0.118289
0.182757 0.548600 0.118289
0.291325 0.548600 0.118289
0.405563 0.548600 0.118289
0.524209 0.548600 0.118289
0.646492 0.548600 0.118289
0.771884 0.548600 0.118289
0.900000 0.548600 0.118289
0.000000 0.670433 0.118289
0.082355 0.670433 0.118289
0.182757 0.670433 0.118289
0.291325 0.670433 0.118289
0.405563 0.670433 0.118289
0.524209 0.670433 0.118289
0.646492 0.670433 0.118289
0.771884 0.670433 0.118289
0.900000 0.670433 0.118289
0.000000 0.794322 0.118289
0.082355 0.794322 0.118289
0.182757 0.794322 0.118289
0.291325 0.794322 0.118289
0.405563 0.794322 0.118289
0.524209 0.794322 0.118289
0.646492 0.794322 0.118289
0.771884 0.794322 0.118289
0.900000 0.794322 0.118289
0.000000 0.920000 0.118289
0.082355 0.920000 0.118289
0.182757 0.920000 0.118289
0.291325 0.920000 0.118289
0.405563 0.920000 0.118289
0.524209 0.920000 0.118289
0.646492 0.920000 0.118289
0.771884 0.920000 0.118289
0.900000 0.920000 0.118289
0.000000 0.000000 0.244921
0.082355 0.000000 0.244921
0.182757 0.000000 0.244921
0.291325 0.000000 0.244921
0.405563 0.000000 0.244921
0.524209 0.000000 0.244921
0.646492 0.000000 0.244921
0.771884 0.000000 0.244921
0.900000 0.000000 0.244921
0.000000 0.093409 0.244921
0.082355 0.093409 0.244921
0.182757 0.093409 0.244921
0.291325 0.093409 0.244921
0.405563 0.093409 0.244921
0.524209 0.093409 0.244921
0.646492 0.093409 0.244921
0.771884 0.093409 0.244921
0.900000 0.093409 0.244921
0.000000 0.200227 0.244921
0.082355 0.200227 0.244921
0.182757 0.200227 0.244921
0.291325 0.200227 0.244921
0.405563 0.200227 0.244921
0.524209 0.200227 0.244921
0.646492 0.200227 0.244921
0.771884 0.200227 0.244921
0.900000 0.200227 0.244921
0.000000 0.312768 0.244921
0.082355 0.312768 0.244921
0.182757 0.312768 0.244921
0.291325 0.312768 0.244921
0.405563 0.312768 0.244921
0.524209 0.312768 0.244921
0.646492 0.312768 0.244921
0.771884 0.312768 0.244921
0.900000 0.312768 0.244921
0.000000 0.429195 0.244921
0.082355 0.429195 0.244921
0.182757 0.429195 0.244921
0.291325 0.429195 0.244921
0.405563 0.429195 0.244921
0.524209 0.429195 0.244921
0.646492 0.429195 0.244921
0.771884 0.429195 0.244921
0.900000 0.429195 0.244921
0.000000 0.548600 0.244921
0.082355 0.548600 0.244921
0.182757 0.548600 0.244921
0.291325 0.548600 0.244921
0.405563 0.548600 0.244921
0.524209 0.548600 0.244921
0.646492 0.548600 0.244921
0.771884 0.548600 0.244921
0.900000 0.548600 0.244921
0.000000 0.670433 0.244921
0.082355 0.670433 0.244921
0.182757 0.670433 0.244921
0.291325 0.670433 0.244921
0.405563 0.670433 0.244921
0.524209 0.670433 0.244921
0.646492 0.670433 0.244921
0.771884 0.670433 0.244921
0.900000 0.670433 0.244921
0.000000 0.794322 0.244921
0.082355 0.794322 0.244921
0.182757 0.794322 0.244921
0.291325 0.794322 0.244921
0.405563 0.794322 0.244921
0.524209 0.794322 0.244921
0.646492 0.794322 0.244921
0.771884 0.794322 0.244921
0.900000 0.794322 0.244921
0.000000 0.920000 0.244921
0.082355 0.920000 0.244921
0.182757 0.920000 0.244921
0.291325 0.920000 0.244921
0.405563 0.920000 0.244921
0.524209 0.920000 0.244921
0.646492 0.920000 0.244921
0.771884 0.920000 0.244921
0.900000 0.920000 0.244921
0.000000 0.000000 0.374906
0.082355 0.000000 0.374906
0.182757 0.000000 0.374906
0.291325 0.000000 0.374906
0.405563 0.000000 0.374906
0.524209 0.000000 0.374906
0.646492 0.000000 0.374906
0.771884 0.000000 0.374906
0.900000 0.000000 0.374906
0.000000 0.093409 0.374906
0.082355 0.093409 0.374906
0.182757 0.093409 0.374906
0.291325 0.093409 0.374906
0.405563 0.093409 0.374906
0.524209 0.093409 0.374906
0.646492 0.093409 0.374906
0.771884 0.093409 0.374906
0.900000 0.093409 0.374906
0.000000 0.200227 0.374906
0.082355 0.200227 0.374906
0.182757 0.200227 0.374906
0.291325 0.200227 0.374906
0.405563 0.200227 0.374906
0.524209 0.200227 0.374906
0.646492 0.200227 0.374906
0.771884 0.200227 0.374906
0.900000 0.200227 0.374906
0.000000 0.312768 0.374906
0.082355 0.312768 0.374906
0.182757 0.312768 0.374906
0.291325 0.312768 0.374906
0.405563 0.312768 0.374906
0.524209 0.312768 0.374906
0.646492 0.312768 0.374906
0.771884 0.312768 0.374906
0.900000 0.312768 0.374906
0.000000 0.429195 0.374906
0.082355 0.429195 0.374906
0.182757 0.429195 0.374906
0.291325 0.429195 0.374906
0.405563 0.429195 0.374906
0.524209 0.429195 0.374906
0.646492 0.429195 0.374906
0.771884 0.429195 0.374906
0.900000 0.429195 0.374906
0.000000 0.548600 0.374906
0.082355 0.548600 0.374906
0.182757 0.548600 0.374906
0.291325 0.548600 0.374906
0.405563 0.548600 0.374906
0.524209 0.548600 0.374906
0.646492 0.548600 0.374906
0.771884 0.548600 0.374906
0.900000 0.548600 0.374906
0.000000 0.670433 0.374906
0.082355 0.670433 0.374906
0.182757 0.670433 0.374906
0.291325 0.670433 0.374906
0.405563 0.670433 0.374906
0.524209 0.670433 0.374906
0.646492 0.670433 0.374906
0.771884 0.670433 0.374906
0.900000 0.670433 0.374906
0.000000 0.794322 0.374906
0.082355 0.794322 0.374906
0.182757 0.794322 0.374906
0.291325 0.794322 0.374906
0.405563 0.794322 0.374906
0.524209 0.794322 0.374906
0.646492 0.794322 0.374906
0.771884 0.794322 0.374906
0.900000 0.794322 0.374906
0.000000 0.920000 0.374906
0.082355 0.920000 0.374906
0.182757 0.920000 0.374906
0.291325 0.920000 0.374906
0.405563 0.920000 0.374906
0.524209 0.920000 0.374906
0.646492 0.920000 0.374906
0.771884 0.920000 0.374906
0.900000 0.920000 0.374906
0.000000 0.000000 0.507117
0.082355 0.000000 0.507117
0.182757 0.000000 0.507117
0.291325 0.000000 0.507117
0.405563 0.000000 0.507117
0.524209 0.000000 0.507117
0.646492 0.000000 0.507117
0.771884 0.000000 0.507117
0.900000 0.000000 0.507117
0.000000 0.093409 0.507117
0.082355 0.093409 0.507117
0.182757 0.093409 0.507117
0.291325 0.093409 0.507117
0.405563 0.093409 0.507117
0.524209 0.093409 0.507117
0.646492 0.093409 0.507117
0.771884 0.093409 0.507117
0.900000 0.093409 0.507117
0.000000 0.200227 0.507117
0.082355 0.200227 0.507117
0.182757 0.200227 0.507117
0.291325 0.200227 0.507117
0.405563 0.200227 0.507117
0.524209 0.200227 0.507117
0.646492 0.200227 0.507117
0.771884 0.200227 0.507117
0.900000 0.200227 0.507117
0.000000 0.312768 0.507117
0.082355 0.312768 0.507117
0.182757 0.312768 0.507117
0.291325 0.312768 0.507117
0.405563 0.312768 0.507117
0.524209 0.312768 0.507117
0.646492 0.312768 0.507117
0.771884 0.312768 0.507117
0.900000 0.312768 0.507117
0.000000 0.429195 0.507117
0.082355 0.429195 0.507117
0.182757 0.429195 0.507117
0.291325 0.429195 0.507117
0.405563 0.429195 0.507117
0.524209 0.429195 0.507117
0.646492 0.429195 0.507117
0.771884 0.429195 0.507117
0.900000 0.429195 0.507117
0.000000 0.548600 0.507117
0.082355 0.548600 0.507117
0.182757 0.548600 0.507117
0.291325 0.548600 0.507117
0.405563 0.548600 0.507117
0.524209 0.548600 0.507117
0.646492 0.548600 0.507117
0.771884 0.548600 0.507117
0.900000 0.548600 0.507117
0.000000 0.670433 0.507117
0.082355 0.670433 0.507117
0.182757 0.670433 0.507117
0.291325 0.670433 0.507117
0.405563 0.670433 0.507117
0.524209 0.670433 0.507117
0.646492 0.670433 0.507117
0.771884 0.670433 0.507117
0.900000 0.670433 0.507117
0.000000 0.794322 0.507117
0.082355 0.794322 0.507117
0.182757 0.794322 0.507117
0.291325 0.794322 0.507117
0.405563 0.794322 0.507117
0.524209 0.794322 0.507117
0.646492 0.794322 0.507117
0.771884 0.794322 0.507117
0.900000 0.794322 0.507117
0.000000 0.920000 0.507117
0.082355 0.920000 0.507117
0.182757 0.920000 0.507117
0.291325 0.920000 0.507117
0.405563 0.920000 0.507117
0.524209 0.920000 0.507117
0.646492 0.920000 0.507117
0.771884 0.920000 0.507117
0.900000 0.920000 0.507117
0.000000 0.000000 0.641008
0.082355 0.000000 0.641008
0.182757 0.000000 0.641008
0.291325 0.000000 0.641008
0.405563 0.000000 0.641008
0.524209 0.000000 0.641008
0.646492 0.000000 0.641008
0.771884 0.000000 0.641008
0.900000 0.000000 0.641008
0.000000 0.093409 0.641008
0.082355 0.093409 0.641008
0.182757 0.093409 0.641008
0.291325 0.093409 0.641008
0.405563 0.093409 0.641008
0.524209 0.093409 0.641008
0.646492 0.093409 0.641008
0.771884 0.093409 0.641008
0.900000 0.093409 0.641008
0.000000 0.200227 0.641008
0.082355 0.200227 0.641008
0.182757 0.200227 0.641008
0.291325 0.200227 0.641008
0.405563 0.200227 0.641008
0.524209 0.200227 0.641008
0.646492 0.200227 0.641008
0.771884 0.200227 0.641008
0.900000 0.200227 0.641008
0.000000 0.312768 0.641008
0.082355 0.312768 0.641008
0.182757 0.312768 0.641008
0.291325 0.312768 0.641008
0.405563 0.312768 0.641008
0.524209 0.312768 0.641008
0.646492 0.312768 0.641008
0.771884 0.312768 0.641008
0.900000 0.312768 0.641008
0.000000 0.429195 0.641008
0.082355 0.429195 0.641008
0.182757 0.429195 0.641008
0.291325 0.429195 0.641008
0.405563 0.429195 0.641008
0.524209 0.429195 0.641008
0.646492 0.429195 0.641008
0.771884 0.429195 0.641008
0.900000 0.429195 0.641008
0.000000 0.548600 0.641008
0.082355 0.548600 0.641008
0.182757 0.548600 0.641008
0.291325 0.548600 0.641008
0.405563 0.548600 0.641008
0.524209 0.548600 0.641008
0.646492 0.548600 0.641008
0.771884 0.548600 0.641008
0.900000 0.548600 0.641008
0.000000 0.670433 0.641008
0.082355 0.670433 0.641008
0.182757 0.670433 0.641008
0.291325 0.670433 0.641008
0.405563 0.670433 0.641008
0.524209 0.670433 0.641008
0.646492 0.670433 0.641008
0.771884 0.670433 0.641008
0.900000 0.670433 0.641008
0.000000 0.794322 0.641008
0.082355 0.794322 0.641008
0.182757 0.794322 0.641008
0.291325 0.794322 0.641008
0.405563 0.794322 0.641008
0.524209 0.794322 0.641008
0.646492 0.794322 0.641008
0.771884 0.794322 0.641008
0.900000 0.794322 0.641008
0.000000 0.920000 0.641008
0.082355 0.920000 0.641008
0.182757 0.920000 0.641008
0.291325 0.920000 0.641008
0.405563 0.920000 0.641008
0.524209 0.920000 0.641008
0.646492 0.920000 0.641008
0.771884 0.920000 0.641008
0.900000 0.920000 0.641008
0.000000 0.000000 0.776254
0.082355 0.000000 0.776254
0.182757 0.000000 0.776254
0.291325 0.000000 0.776254
0.405563 0.000000 0.776254
0.524209 0.000000 0.776254
0.646492 0.000000 0.776254
0.771884 0.000000 0.776254
0.900000 0.000000 0.776254
0.000000 0.093409 0.776254
0.082355 0.093409 0.776254
0.182757 0.093409 0.776254
0.291325 0.093409 0.776254
0.405563 0.093409 0.776254
0.524209 0.093409 0.776254
0.646492 0.093409 0.776254
0.771884 0.093409 0.776254
0.900000 0.093409 0.776254
0.000000 0.200227 0.776254
0.082355 0.200227 0.776254
0.182757 0.200227 0.776254
0.291325 0.200227 0.776254
0.405563 0.200227 0.776254
0.524209 0.200227 0.776254
0.646492 0.200227 0.776254
0.771884 0.200227 0.776254
0.900000 0.200227 0.776254
0.000000 0.312768 0.776254
0.082355 0.312768 0.776254
0.182757 0.312768 0.776254
0.291325 0.312768 0.776254
0.405563 0.312768 0.776254
0.524209 0.312768 0.776254
0.646492 0.312768 0.776254
0.771884 0.312768 0.776254
0.900000 0.312768 0.776254
0.000000 0.429195 0.776254
0.082355 0.429195 0.776254
0.182757 0.429195 0.776254
0.291325 0.429195 0.776254
0.405563 0.429195 0.776254
0.524209 0.429195 0.776254
0.646492 0.429195 0.776254
0.771884 0.429195 0.776254
0.900000 0.429195 0.776254
0.000000 0.548600 0.776254
0.082355 0.548600 0.776254
0.182757 0.548600 0.776254
0.291325 0.548600 0.776254
0.405563 0.548600 0.776254
0.524209 0.548600 0.776254
0.646492 0.548600 0.776254
0.771884 0.548600 0.776254
0.900000 0.548600 0.776254
0.000000 0.670433 0.776254
0.082355 0.670433 0.776254
0.182757 0.670433 0.776254
0.291325 0.670433 0.776254
0.405563 0.670433 0.776254
0.524209 0.670433 0.776254
0.646492 0.670433 0.776254
0.771884 0.670433 0.776254
0.900000 0.670433 0.776254
0.000000 0.794322 0.776254
0.082355 0.794322 0.776254
0.182757 0.794322 0.776254
0.291325 0.794322 0.776254
0.405563 0.794322 0.776254
0.524209 0.794322 0.776254
0.646492 0.794322 0.776254
0.771884 0.794322 0.776254
0.900000 0.794322 0.776254
0.000000 0.920000 0.776254
0.082355 0.920000 0.776254
0.182757 0.920000 0.776254
0.291325 0.920000 0.776254
0.405563 0.920000 0.776254
0.524209 0.920000 0.776254
0.646492 0.920000 0.776254
0.771884 0.920000 0.776254
0.900000 0.920000 0.776254
0.000000 0.000000 0.912636
0.082355 0.000000 0.912636
0.182757 0.000000 0.912636
0.291325 0.000000 0.912636
0.405563 0.000000 0.912636
0.524209 0.000000 0.912636
0.646492 0.000000 0.912636
0.771884 0.000000 0.912636
0.900000 0.000000 0.912636
0.000000 0.093409 0.912636
0.082355 0.093409 0.912636
0.182757 0.093409 0.912636
0.291325 0.093409 0.912636
0.405563 0.093409 0.912636
0.524209 0.093409 0.912636
0.646492 0.093409 0.912636
0.771884 0.093409 0.912636
0.900000 0.093409 0.912636
0.000000 0.200227 0.912636
0.082355 0.200227 0.912636
0.182757 0.200227 0.912636
0.291325 0.200227 0.912636
0.405563 0.200227 0.912636
0.524209 0.200227 0.912636
0.646492 0.200227 0.912636
0.771884 0.200227 0.912636
0.900000 0.200227 0.912636
0.000000 0.312768 0.912636
0.082355 0.312768 0.912636
0.182757 0.312768 0.912636
0.291325 0.312768 0.912636
0.405563 0.312768 0.912636
0.524209 0.312768 0.912636
0.646492 0.312768 0.912636
0.771884 0.312768 0.912636
0.900000 0.312768 0.912636
0.000000 0.429195 0.912636
0.082355 0.429195 0.912636
0.182757 0.429195 0.912636
0.291325 0.429195 0.912636
0.405563 0.429195 0.912636
0.524209 0.429195 0.912636
0.646492 0.429195 0.912636
0.771884 0.429195 0.912636
0.900000 0.429195 0.912636
0.000000 0.548600 0.912636
0.082355 0.548600 0.912636
0.182757 0.548600 0.912636
0.291325 0.548600 0.912636
0.405563 0.548600 0.912636
0.524209 0.548600 0.912636
0.646492 0.548600 0.912636
0.771884 0.548600 0.912636
0.900000 0.548600 0.912636
0.000000 0.670433 0.912636
0.082355 0.670433 0.912636
0.182757 0.670433 0.912636
0.291325 0.670433 0.912636
0.405563 0.670433 0.912636
0.524209 0.670433 0.912636
0.646492 0.670433 0.912636
0.771884 0.670433 0.912636
0.900000 0.670433 0.912636
0.000000 0.794322 0.912636
0.082355 0.794322 0.912636
0.182757 0.794322 0.912636
0.291325 0.794322 0.912636
0.405563 0.794322 0.912636
0.524209 0.794322 0.912636
0.646492 0.794322 0.912636
0.771884 0.794322 0.912636
0.900000 0.794322 0.912636
0.000000 0.920000 0.912636
0.082355 0.920000 0.912636
0.182757 0.920000 0.912636
0.291325 0.920000 0.912636
0.405563 0.920000 0.912636
0.524209 0.920000 0.912636
0.646492 0.920000 0.912636
0.771884 0.920000 0.912636
0.900000 0.920000 0.912636
0.000000 0.000000 1.000000
0.082355 0.000000 1.000000
0.182757 0.000000 1.000000
0.291325 0.000000 1.000000
0.405563 0.000000 1.000000
0.524209 0.000000 1.000000
0.646492 0.000000 1.000000
0.771884 0.000000 1.000000
0.900000 0.000000 1.000000
0.000000 0.093409 1.000000
0.082355 0.093409 1.000000
0.182757 0.093409 1.000000
0.291325 0.093409 1.000000
0.405563 0.093409 1.000000
0.524209 0.093409 1.000000
0.646492 0.093409 1.000000
0.771884 0.093409 1.000000
0.900000 0.093409 1.000000
0.000000 0.200227 1.000000
0.082355 0.200227 1.000000
0.182757 0.200227 1.000000
0.291325 0.200227 1.000000
0.405563 0.200227 1.000000
0.524209 0.200227 1.000000
0.646492 0.200227 1.000000
0.771884 0.200227 1.000000
0.900000 0.200227 1.000000
0.000000 0.312768 1.000000
0.082355 0.312768 1.000000
0.182757 0.312768 1.000000
0.291325 0.312768 1.000000
0.405563 0.312768 1.000000
0.524209 0.312768 1.000000
0.646492 0.312768 1.000000
0.771884 0.312768 1.000000
0.900000 0.312768 1.000000
0.000000 0.429195 1.000000
0.082355 0.429195 1.000000
0.182757 0.429195 1.000000
0.291325 0.429195 1.000000
0.405563 0.429195 1.000000
0.524209 0.429195 1.000000
0.646492 0.429195 1.000000
0.771884 0.429195 1.000000
0.900000 0.429195 1.000000
0.000000 0.548600 1.000000
0.082355 0.548600 1.000000
0.182757 0.548600 1.000000
0.291325 0.548600 1.000000
0.405563 0.548600 1.000000
0.524209 0.548600 1.000000
0.646492 0.548600 1.000000
0.771884 0.548600 1.000000
0.900000 0.548600 1.000000
0.000000 0.670433 1.000000
0.082355 0.670433 1.000000
0.182757 0.670433 1.000000
0.291325 0.670433 1.000000
0.405563 0.670433 1.000000
0.524209 0.670433 1.000000
0.646492 0.670433 1.000000
0.771884 0.670433 1.000000
0.900000 0.670433 1.000000
0.000000 0.794322 1.000000
0.082355 0.794322 1.000000
0.182757 0.794322 1.000000
0.291325 0.794322 1.000000
0.405563 0.794322 1.000000
0.524209 0.794322 1.000000
0.646492 0.794322 1.000000
0.771884 0.794322 1.000000
0.900000 0.794322 1.000000
0.000000 0.920000 1.000000
0.082355 0.920000 1.000000
0.182757 0.920000 1.000000
0.291325 0.920000 1.000000
0.405563 0.920000 1.000000
0.524209 0.920000 1.000000
0.646492 0.920000 1.000000
0.771884 0.920000 1.000000
0.900000 0.920000 1.000000
