custom_nodes/comfyui-vrgamedevgirl/LUTS/Dark_Soft_Vivid_Cinematic.cube
#Created by: Adobe Photoshop Export Color Lookup Plugin
#Copyright: (C) Copyright 2017 PremiumBeat.com
TITLE "Hopkins"
#LUT size
LUT_3D_SIZE 8
#data domain
DOMAIN_MIN 0.0 0.0 0.0
DOMAIN_MAX 1.0 1.0 1.0
#LUT data points
0.021667 0.017365 0.009125
0.036713 0.018921 0.010681
0.096191 0.026093 0.017242
0.245667 0.021942 0.012146
0.454437 0.022400 0.011627
0.598450 0.033447 0.021881
0.693390 0.042725 0.030609
0.862518 0.060425 0.049835
0.021759 0.031158 0.009308
0.035248 0.031281 0.009369
0.094391 0.053009 0.014374
0.244507 0.066559 0.006561
0.453430 0.083466 0.003235
0.597687 0.089447 0.013672
0.692719 0.094513 0.022369
0.862061 0.105042 0.042297
0.023834 0.089783 0.011749
0.052460 0.089325 0.010620
0.090912 0.088593 0.008789
0.242004 0.124969 0.000000
0.451050 0.166809 0.000000
0.596008 0.169159 0.000031
0.691406 0.171539 0.000214
0.861603 0.177643 0.020294
0.000000 0.239685 0.000000
0.037048 0.240021 0.000000
0.110931 0.240082 0.000000
0.232178 0.238556 0.000000
0.444855 0.289398 0.000000
0.592072 0.288635 0.000031
0.689117 0.289185 0.000031
0.861237 0.291809 0.000061
0.000000 0.450897 0.000000
0.000000 0.451904 0.000000
0.111145 0.452911 0.000000
0.259766 0.453369 0.000000
0.431641 0.451935 0.000000
0.585236 0.447601 0.000000
0.684265 0.446228 0.000000
0.858704 0.445892 0.000031
0.000000 0.595947 0.000000
0.000000 0.598907 0.000000
0.033386 0.600372 0.000000
0.233154 0.601685 0.000000
0.413330 0.601990 0.000000
0.573242 0.600464 0.000000
0.675751 0.597778 0.000000
0.853699 0.594360 0.000000
0.000000 0.691406 0.000000
0.000000 0.696106 0.000000
0.000000 0.697754 0.000000
0.209106 0.699463 0.000000
0.399384 0.700500 0.000000
0.562042 0.699982 0.000000
0.667236 0.698761 0.000000
0.851318 0.695526 0.000000
0.000000 0.861328 0.000000
0.000000 0.869507 0.000000
0.000000 0.871307 0.000000
0.142090 0.873413 0.000000
0.368835 0.875275 0.000000
0.546051 0.882233 0.000000
0.664612 0.888977 0.000000
0.882324 0.899994 0.000000
0.021057 0.016754 0.021973
0.035889 0.018219 0.023468
0.094910 0.025696 0.047028
0.254608 0.010742 0.054871
0.464233 0.013336 0.072144
0.609070 0.023895 0.077148
0.704590 0.032959 0.081909
0.874817 0.052277 0.092285
0.020569 0.029907 0.021698
0.033936 0.029999 0.021729
0.090302 0.050598 0.042847
0.250519 0.061554 0.052368
0.479156 0.067719 0.057343
0.638153 0.064636 0.053589
0.742737 0.064697 0.052795
0.927460 0.069275 0.057129
0.023224 0.088196 0.041718
0.049988 0.085571 0.039459
0.086914 0.084900 0.037964
0.247162 0.122192 0.042480
0.475586 0.156738 0.039856
0.635315 0.148621 0.037537
0.740204 0.144257 0.038086
0.927002 0.139099 0.044098
0.000000 0.247925 0.018311
0.028687 0.245209 0.019226
0.106384 0.244934 0.014557
0.235413 0.242645 0.000000
0.467010 0.293427 0.000000
0.629425 0.283905 0.000031
0.735992 0.277740 0.000031
0.924591 0.267761 0.000061
0.000000 0.453369 0.000000
0.000000 0.475647 0.000000
0.083832 0.476227 0.000000
0.257874 0.475769 0.000000
0.449585 0.472534 0.000000
0.618774 0.463440 0.000000
0.727478 0.456635 0.000000
0.918488 0.444641 0.000031
0.000000 0.596313 0.000000
0.000000 0.636414 0.000000
0.000000 0.637054 0.000000
0.214264 0.637421 0.000000
0.421967 0.635986 0.000000
0.601288 0.632416 0.000000
0.714264 0.626373 0.000000
0.908997 0.613556 0.000031
0.000000 0.691742 0.000000
0.000000 0.742279 0.000000
0.000000 0.742737 0.000000
0.171967 0.743408 0.000000
0.399292 0.742706 0.000000
0.583679 0.740143 0.000000
0.701263 0.737244 0.000000
0.903198 0.726562 0.000000
0.000000 0.861694 0.000000
0.000000 0.926025 0.000000
0.000000 0.930450 0.000000
0.000000 0.931213 0.000000
0.348236 0.931091 0.000000
0.554443 0.932526 0.000000
0.685211 0.932861 0.000000
0.913849 0.930969 0.000000
0.032288 0.028229 0.093140
0.058990 0.027222 0.092560
0.094818 0.025757 0.091858
0.254700 0.010712 0.124786
0.464355 0.013336 0.159973
0.609222 0.023926 0.159851
0.704742 0.032990 0.161133
0.874969 0.052307 0.165161
0.028931 0.054016 0.091248
0.053986 0.051147 0.087494
0.089233 0.050140 0.086700
0.248657 0.062836 0.120483
0.477295 0.069580 0.149048
0.636353 0.066650 0.140045
0.740936 0.066925 0.135345
0.926788 0.070648 0.129852
0.023163 0.088379 0.088593
0.049194 0.084503 0.084595
0.083038 0.081268 0.081238
0.235107 0.121582 0.116425
0.461670 0.159973 0.147491
0.623505 0.153351 0.140076
0.729309 0.149170 0.135590
0.917511 0.143799 0.130402
0.000000 0.247986 0.108978
0.029755 0.244202 0.105804
0.107422 0.233673 0.105652
0.224365 0.231720 0.098267
0.453278 0.286865 0.126495
0.617981 0.280365 0.118683
0.725494 0.274872 0.114319
0.915161 0.265320 0.109924
0.000000 0.453552 0.114685
0.000000 0.475983 0.088379
0.095703 0.463776 0.096832
0.252930 0.463318 0.085724
0.437378 0.460236 0.047363
0.607452 0.455261 0.023499
0.717072 0.449982 0.015961
0.909119 0.439087 0.012146
0.000000 0.596741 0.057770
0.000000 0.636902 0.000000
0.000000 0.626953 0.000000
0.212646 0.626862 0.000000
0.414185 0.625580 0.000000
0.590881 0.622070 0.000000
0.703949 0.617493 0.000000
0.899750 0.606476 0.000031
0.000000 0.692200 0.000000
0.000000 0.742798 0.000000
0.000000 0.733795 0.000000
0.171570 0.733765 0.000000
0.392853 0.733124 0.000000
0.575104 0.730560 0.000000
0.691589 0.727722 0.000000
0.895844 0.719421 0.000000
0.000000 0.862122 0.000000
0.000000 0.926453 0.000000
0.000000 0.922760 0.000000
0.000000 0.922577 0.000000
0.343292 0.922729 0.000000
0.550140 0.924652 0.000000
0.680725 0.924896 0.000000
0.908173 0.922882 0.000000
0.041718 0.037567 0.253052
0.082489 0.035217 0.253143
0.138763 0.029968 0.252960
0.254883 0.010681 0.250488
0.464539 0.013336 0.289124
0.609406 0.023926 0.284821
0.704987 0.033020 0.283722
0.875244 0.052338 0.283722
0.031982 0.076721 0.255676
0.078949 0.077515 0.248901
0.133240 0.074982 0.248199
0.248291 0.063293 0.245087
0.476807 0.070099 0.288208
0.635895 0.067230 0.277252
0.740448 0.067474 0.270203
0.926361 0.071228 0.258698
0.019165 0.133148 0.253174
0.070953 0.130157 0.247040
0.126648 0.127533 0.235382
0.233734 0.122131 0.232330
0.458984 0.161804 0.279510
0.621094 0.155670 0.272003
0.727051 0.151672 0.266083
0.915771 0.146301 0.255493
0.000000 0.248199 0.243225
0.028992 0.244751 0.239471
0.107086 0.234009 0.228607
0.218781 0.226135 0.220551
0.431305 0.282715 0.268677
0.598114 0.283539 0.268188
0.707703 0.280731 0.264832
0.900543 0.273438 0.256653
0.000000 0.453827 0.266693
0.000000 0.476715 0.265411
0.094879 0.464539 0.259399
0.253510 0.443481 0.256165
0.418671 0.440521 0.248047
0.588074 0.444397 0.245117
0.699524 0.443176 0.241547
0.894653 0.436310 0.233337
0.000000 0.597382 0.244995
0.000000 0.637665 0.226715
0.000000 0.627686 0.223724
0.223267 0.609650 0.229828
0.406067 0.607697 0.221191
0.573761 0.604431 0.204346
0.686768 0.603821 0.196655
0.885437 0.598358 0.187042
0.000000 0.692871 0.226776
0.000000 0.743469 0.190247
0.000000 0.734467 0.187866
0.188538 0.718719 0.199188
0.389069 0.717041 0.190063
0.563293 0.714661 0.170044
0.676086 0.711945 0.148956
0.884949 0.709961 0.139465
0.000000 0.862671 0.180054
0.000000 0.927032 0.074646
0.000000 0.923370 0.060272
0.054565 0.910736 0.094574
0.346619 0.910706 0.084595
0.547882 0.912598 0.060303
0.676056 0.912811 0.022156
0.899353 0.910614 0.000000
0.086090 0.084320 0.460205
0.123657 0.082672 0.460815
0.191162 0.077728 0.461243
0.305725 0.061951 0.460907
0.464813 0.013367 0.458069
0.609680 0.023956 0.449768
0.705261 0.033051 0.446472
0.875641 0.052368 0.443359
0.080444 0.120544 0.462189
0.116730 0.116821 0.477997
0.182831 0.113892 0.477631
0.305115 0.103149 0.475952
0.476196 0.070831 0.470978
0.635284 0.067963 0.459961
0.739868 0.068268 0.452271
0.926086 0.071960 0.438599
0.065918 0.187500 0.459961
0.106689 0.181976 0.477386
0.177673 0.182007 0.463165
0.292847 0.177368 0.460663
0.458282 0.162659 0.456238
0.620483 0.156525 0.450653
0.726776 0.152557 0.444702
0.915649 0.147156 0.432587
0.008789 0.300842 0.453766
0.067841 0.304779 0.473389
0.157288 0.297333 0.459656
0.277374 0.289673 0.436676
0.428955 0.283691 0.430725
0.595398 0.285370 0.435974
0.705078 0.283264 0.434662
0.898315 0.276489 0.427277
0.000000 0.454193 0.439667
0.000000 0.477661 0.460815
0.094513 0.465454 0.448364
0.253418 0.444458 0.427765
0.413025 0.433441 0.417480
0.564331 0.436462 0.419739
0.674683 0.441498 0.424103
0.873505 0.443359 0.425201
0.000000 0.598236 0.424194
0.000000 0.638519 0.437103
0.000000 0.628571 0.429199
0.223053 0.610596 0.419128
0.403564 0.585846 0.411438
0.553314 0.582123 0.405792
0.662872 0.586823 0.407227
0.864746 0.592438 0.408356
0.000000 0.693665 0.413818
0.000000 0.744415 0.417542
0.000000 0.735352 0.411072
0.188171 0.719604 0.405060
0.393951 0.695740 0.404816
0.550781 0.692169 0.399414
0.656067 0.690125 0.394196
0.869568 0.699646 0.400513
0.000000 0.863495 0.392090
0.000000 0.927795 0.375427
0.000000 0.924194 0.368500
0.053436 0.911499 0.366669
0.366516 0.894928 0.382050
0.552338 0.895355 0.386383
0.673309 0.895599 0.386230
0.886322 0.893341 0.379333
0.125092 0.124176 0.607452
0.152924 0.123169 0.608246
0.208649 0.120087 0.608978
0.311920 0.110596 0.609467
0.461761 0.084015 0.608826
0.609924 0.023987 0.606384
0.705658 0.033081 0.601562
0.876007 0.052429 0.595886
0.121521 0.151184 0.608917
0.147308 0.147766 0.641693
0.197357 0.145905 0.641541
0.306976 0.138214 0.640686
0.471924 0.115509 0.637909
0.634735 0.068695 0.633179
0.739319 0.069000 0.625275
0.926025 0.072662 0.610931
0.112244 0.206482 0.607330
0.140411 0.197571 0.641815
0.193848 0.198303 0.630280
0.298279 0.194550 0.628540
0.459473 0.181366 0.625885
0.619843 0.157593 0.621368
0.726654 0.153320 0.615906
0.915558 0.147949 0.603760
0.081238 0.309174 0.602997
0.114807 0.308075 0.639954
0.176361 0.303528 0.628662
0.289185 0.302307 0.608307
0.441010 0.297211 0.603455
0.595459 0.286438 0.599304
0.704926 0.284027 0.599762
0.898193 0.277344 0.594238
0.000000 0.455658 0.593719
0.000000 0.475159 0.633087
0.123352 0.466980 0.622040
0.264740 0.454803 0.602264
0.421722 0.442719 0.575867
0.563263 0.437775 0.570038
0.672089 0.442505 0.576965
0.870911 0.445526 0.583038
0.000000 0.598938 0.582581
0.000000 0.639435 0.620087
0.000000 0.629456 0.609863
0.222809 0.611420 0.591949
0.403534 0.586700 0.568146
0.550964 0.578400 0.560913
0.648193 0.579224 0.561798
0.847229 0.593536 0.576355
0.000000 0.694458 0.574371
0.000000 0.745178 0.605133
0.000000 0.736176 0.596832
0.187836 0.720428 0.584320
0.393829 0.696533 0.568665
0.546478 0.677216 0.559113
0.645264 0.675903 0.558746
0.855469 0.693359 0.577423
0.000000 0.864197 0.559204
0.000000 0.928467 0.573029
0.000000 0.924866 0.567322
0.054230 0.912506 0.560516
0.371399 0.896729 0.562958
0.562866 0.879669 0.572235
0.674316 0.878998 0.574951
0.873138 0.876831 0.574371
0.151062 0.150543 0.704651
0.174469 0.149750 0.705414
0.223663 0.147339 0.706329
0.319672 0.139954 0.707153
0.463562 0.120422 0.707214
0.607819 0.083557 0.706055
0.705811 0.033081 0.704437
0.876221 0.052460 0.697571
0.148254 0.173279 0.705597
0.170441 0.171082 0.749237
0.211426 0.169739 0.749176
0.311249 0.163666 0.748657
0.470398 0.145813 0.746704
0.630798 0.111938 0.743134
0.738922 0.069855 0.739777
0.925934 0.073090 0.725281
0.140808 0.222260 0.704254
0.165039 0.212250 0.749634
0.208466 0.212830 0.739197
0.303802 0.209625 0.737915
0.459747 0.197876 0.736053
0.618469 0.176758 0.732666
0.726471 0.154480 0.729370
0.915466 0.148438 0.717621
0.117432 0.318146 0.700653
0.145111 0.313141 0.748688
0.193268 0.309448 0.738495
0.297119 0.310333 0.720520
0.445923 0.305817 0.716553
0.600067 0.295410 0.713409
0.705017 0.285034 0.710358
0.898132 0.277863 0.706055
0.031799 0.459869 0.693237
0.073212 0.474609 0.743835
0.148407 0.467743 0.733856
0.273773 0.459534 0.716339
0.431671 0.453094 0.690033
0.574371 0.448669 0.684174
0.672913 0.443848 0.681519
0.870850 0.446014 0.689789
0.000000 0.600342 0.684906
0.000000 0.637024 0.734619
0.015106 0.628693 0.724945
0.231812 0.614899 0.708069
0.411530 0.596039 0.682861
0.556000 0.583740 0.663910
0.648865 0.580994 0.660645
0.847290 0.595245 0.678284
0.000000 0.694946 0.677399
0.000000 0.745789 0.725220
0.000000 0.736664 0.715942
0.187653 0.720978 0.700348
0.393768 0.697052 0.677490
0.546936 0.677979 0.659943
0.648376 0.677094 0.661133
0.848145 0.691833 0.680481
0.000000 0.864624 0.664185
0.000000 0.928894 0.695862
0.000000 0.925354 0.690887
0.059814 0.913788 0.683258
0.375092 0.897888 0.679962
0.566559 0.880676 0.680420
0.676880 0.869659 0.681976
0.865082 0.867126 0.682800
0.197510 0.197357 0.877625
0.215363 0.196869 0.878510
0.255096 0.195251 0.879639
0.339081 0.190155 0.880859
0.472443 0.177216 0.881836
0.610138 0.155426 0.881866
0.704376 0.133057 0.881317
0.877197 0.054321 0.879089
0.195465 0.214813 0.877686
0.215210 0.216064 0.940338
0.244049 0.215240 0.940216
0.325592 0.211212 0.940216
0.471741 0.198883 0.939117
0.626160 0.177032 0.936951
0.732178 0.154205 0.934784
0.925598 0.076447 0.929352
0.189972 0.254761 0.876587
0.211700 0.245331 0.941071
0.241547 0.245422 0.931946
0.319244 0.243042 0.931061
0.462585 0.233795 0.930115
0.616547 0.217072 0.928131
0.722504 0.200073 0.926025
0.915253 0.151093 0.920715
0.173828 0.339386 0.873962
0.198212 0.328766 0.940887
0.230133 0.325470 0.932190
0.315002 0.327728 0.917786
0.453705 0.324158 0.915009
0.604034 0.314575 0.913239
0.707977 0.305054 0.911316
0.898041 0.279846 0.906372
0.129456 0.472290 0.868958
0.156769 0.477417 0.936554
0.197205 0.471863 0.929810
0.294403 0.467194 0.915771
0.446564 0.468414 0.894348
0.589081 0.465271 0.889709
0.688416 0.460480 0.888123
0.871460 0.447754 0.883850
0.005432 0.607513 0.863678
0.045135 0.633179 0.930725
0.127380 0.627350 0.924500
0.257050 0.618744 0.910919
0.426758 0.610046 0.890228
0.576660 0.605347 0.868988
0.670410 0.602814 0.863953
0.853912 0.599335 0.867004
0.000000 0.699158 0.858795
0.000000 0.739563 0.925049
0.000000 0.733856 0.919128
0.216797 0.723145 0.905884
0.407593 0.709717 0.885803
0.568634 0.700195 0.867706
0.670563 0.696930 0.859253
0.855103 0.695557 0.863312
0.000000 0.865479 0.847168
0.000000 0.929688 0.908600
0.000000 0.926178 0.905029
0.072693 0.915955 0.896851
0.382263 0.899872 0.886292
0.573151 0.882385 0.874847
0.682556 0.871216 0.867188
0.859741 0.859741 0.859741
