custom_nodes/comfyui-vrgamedevgirl/LUTS/Dark_High_Contrast_Vivid_Warm.cube
#Created by: Adobe Photoshop Export Color Lookup Plugin
#Copyright: (C) Copyright 2017 PremiumBeat.com
TITLE "PB_Shadow"
#LUT size
LUT_3D_SIZE 64
#data domain
DOMAIN_MIN 0.0 0.0 0.0
DOMAIN_MAX 1.0 1.0 1.0
#LUT data points
0.000000 0.000000 0.000000
0.000000 0.000000 0.000000
0.000000 0.000000 0.000000
0.000000 0.000000 0.000000
0.000000 0.000000 0.000000
0.000000 0.000000 0.000000
0.000000 0.000000 0.000000
0.000000 0.000000 0.000000
0.000000 0.000000 0.000000
0.000000 0.000000 0.000000
0.000000 0.000000 0.000000
0.000000 0.000000 0.000000
0.000000 0.000000 0.000000
0.000000 0.000000 0.000000
0.000000 0.000000 0.000000
0.000000 0.000000 0.000000
0.000000 0.000000 0.000000
0.000000 0.000000 0.000000
0.000000 0.000000 0.000000
0.000000 0.000000 0.000000
0.027405 0.000000 0.000000
0.064117 0.000000 0.000000
0.090881 0.000000 0.000000
0.115723 0.000000 0.000000
0.140411 0.000000 0.000000
0.165985 0.000000 0.000000
0.192841 0.000000 0.000000
0.221252 0.000000 0.000000
0.251129 0.000000 0.000000
0.282349 0.000000 0.000000
0.314972 0.000000 0.000000
0.348663 0.000000 0.000000
0.383423 0.000000 0.000000
0.418884 0.000000 0.000000
0.454834 0.000000 0.000000
0.490967 0.000000 0.000000
0.526794 0.000000 0.000000
0.561127 0.000000 0.000000
0.593994 0.000000 0.000000
0.625336 0.000000 0.000000
0.655212 0.000000 0.000000
0.683655 0.000000 0.000000
0.710632 0.000000 0.000000
0.736145 0.000000 0.000000
0.760345 0.000000 0.000000
0.783142 0.000000 0.000000
0.804565 0.000000 0.000000
0.824707 0.000000 0.000000
0.843506 0.000000 0.000000
0.861145 0.000000 0.000000
0.877716 0.000000 0.000000
0.893372 0.000000 0.000000
0.908234 0.000000 0.000000
0.922455 0.000000 0.000000
0.936127 0.000000 0.000000
0.949463 0.000000 0.000000
0.962524 0.000000 0.000000
0.975433 0.000000 0.000000
0.988342 0.000000 0.000000
1.000000 0.000000 0.000000
1.000000 0.000000 0.000000
1.000000 0.000000 0.000000
1.000000 0.000000 0.000000
1.000000 0.000000 0.000000
0.000000 0.000000 0.000000
0.000000 0.000000 0.000000
0.000000 0.000000 0.000000
0.000000 0.000000 0.000000
0.000000 0.000000 0.000000
0.000000 0.000000 0.000000
0.000000 0.000000 0.000000
0.000000 0.000000 0.000000
0.000000 0.000000 0.000000
0.000000 0.000000 0.000000
0.000000 0.000000 0.000000
0.000000 0.000000 0.000000
0.000000 0.000000 0.000000
0.000000 0.000000 0.000000
0.000000 0.000000 0.000000
0.000000 0.000000 0.000000
0.000000 0.000000 0.000000
0.000000 0.000000 0.000000
0.000000 0.000000 0.000000
0.000000 0.000000 0.000000
0.027405 0.000000 0.000000
0.064117 0.000000 0.000000
0.090881 0.000000 0.000000
0.115723 0.000000 0.000000
0.140411 0.000000 0.000000
0.165985 0.000000 0.000000
0.192841 0.000000 0.000000
0.221252 0.000000 0.000000
0.251129 0.000000 0.000000
0.282349 0.000000 0.000000
0.314972 0.000000 0.000000
0.348663 0.000000 0.000000
0.383423 0.000000 0.000000
0.418884 0.000000 0.000000
0.454834 0.000000 0.000000
0.490967 0.000000 0.000000
0.526794 0.000000 0.000000
0.561127 0.000000 0.000000
0.593994 0.000000 0.000000
0.625336 0.000000 0.000000
0.655212 0.000000 0.000000
0.683655 0.000000 0.000000
0.710632 0.000000 0.000000
0.736145 0.000000 0.000000
0.760345 0.000000 0.000000
0.783142 0.000000 0.000000
0.804565 0.000000 0.000000
0.824707 0.000000 0.000000
0.843506 0.000000 0.000000
0.861145 0.000000 0.000000
0.877716 0.000000 0.000000
0.893372 0.000000 0.000000
0.908234 0.000000 0.000000
0.922455 0.000000 0.000000
0.936127 0.000000 0.000000
0.949463 0.000000 0.000000
0.962524 0.000000 0.000000
0.975433 0.000000 0.000000
0.988342 0.000000 0.000000
1.000000 0.000000 0.000000
1.000000 0.000000 0.000000
1.000000 0.000000 0.000000
1.000000 0.000000 0.000000
1.000000 0.000000 0.000000
0.000000 0.000000 0.000000
0.000000 0.000000 0.000000
0.000000 0.000000 0.000000
0.000000 0.000000 0.000000
0.000000 0.000000 0.000000
0.000000 0.000000 0.000000
0.000000 0.000000 0.000000
0.000000 0.000000 0.000000
0.000000 0.000000 0.000000
0.000000 0.000000 0.000000
0.000000 0.000000 0.000000
0.000000 0.000000 0.000000
0.000000 0.000000 0.000000
0.000000 0.000000 0.000000
0.000000 0.000000 0.000000
0.000000 0.000000 0.000000
0.000000 0.000000 0.000000
0.000000 0.000000 0.000000
0.000000 0.000000 0.000000
0.000000 0.000000 0.000000
0.027405 0.000000 0.000000
0.064117 0.000000 0.000000
0.090881 0.000000 0.000000
0.115723 0.000000 0.000000
0.140411 0.000000 0.000000
0.165985 0.000000 0.000000
0.192841 0.000000 0.000000
0.221252 0.000000 0.000000
0.251129 0.000000 0.000000
0.282349 0.000000 0.000000
0.314972 0.000000 0.000000
0.348663 0.000000 0.000000
0.383423 0.000000 0.000000
0.418884 0.000000 0.000000
0.454834 0.000000 0.000000
0.490967 0.000000 0.000000
0.526794 0.000000 0.000000
0.561127 0.000000 0.000000
0.593994 0.000000 0.000000
0.625336 0.000000 0.000000
0.655212 0.000000 0.000000
0.683655 0.000000 0.000000
0.710632 0.000000 0.000000
0.736145 0.000000 0.000000
0.760345 0.000000 0.000000
0.783142 0.000000 0.000000
0.804565 0.000000 0.000000
0.824707 0.000000 0.000000
0.843506 0.000000 0.000000
0.861145 0.000000 0.000000
0.877716 0.000000 0.000000
0.893372 0.000000 0.000000
0.908234 0.000000 0.000000
0.922455 0.000000 0.000000
0.936127 0.000000 0.000000
0.949463 0.000000 0.000000
0.962524 0.000000 0.000000
0.975433 0.000000 0.000000
0.988342 0.000000 0.000000
1.000000 0.000000 0.000000
1.000000 0.000000 0.000000
1.000000 0.000000 0.000000
1.000000 0.000000 0.000000
1.000000 0.000000 0.000000
0.000000 0.000000 0.000000
0.000000 0.000000 0.000000
0.000000 0.000000 0.000000
0.000000 0.000000 0.000000
0.000000 0.000000 0.000000
0.000000 0.000000 0.000000
0.000000 0.000000 0.000000
0.000000 0.000000 0.000000
0.000000 0.000000 0.000000
0.000000 0.000000 0.000000
0.000000 0.000000 0.000000
0.000000 0.000000 0.000000
0.000000 0.000000 0.000000
0.000000 0.000000 0.000000
0.000000 0.000000 0.000000
0.000000 0.000000 0.000000
0.000000 0.000000 0.000000
0.000000 0.000000 0.000000
0.000000 0.000000 0.000000
0.000000 0.000000 0.000000
0.027405 0.000000 0.000000
0.064117 0.000000 0.000000
0.090881 0.000000 0.000000
0.115723 0.000000 0.000000
0.140411 0.000000 0.000000
0.165985 0.000000 0.000000
0.192841 0.000000 0.000000
0.221252 0.000000 0.000000
0.251129 0.000000 0.000000
0.282349 0.000000 0.000000
0.314972 0.000000 0.000000
0.348663 0.000000 0.000000
0.383423 0.000000 0.000000
0.418884 0.000000 0.000000
0.454834 0.000000 0.000000
0.490967 0.000000 0.000000
0.526794 0.000000 0.000000
0.561127 0.000000 0.000000
0.593994 0.000000 0.000000
0.625336 0.000000 0.000000
0.655212 0.000000 0.000000
0.683655 0.000000 0.000000
0.710632 0.000000 0.000000
0.736145 0.000000 0.000000
0.760345 0.000000 0.000000
0.783142 0.000000 0.000000
0.804565 0.000000 0.000000
0.824707 0.000000 0.000000
0.843506 0.000000 0.000000
0.861145 0.000000 0.000000
0.877716 0.000000 0.000000
0.893372 0.000000 0.000000
0.908234 0.000000 0.000000
0.922455 0.000000 0.000000
0.936127 0.000000 0.000000
0.949463 0.000000 0.000000
0.962524 0.000000 0.000000
0.975433 0.000000 0.000000
0.988342 0.000000 0.000000
1.000000 0.000000 0.000000
1.000000 0.000000 0.000000
1.000000 0.000000 0.000000
1.000000 0.000000 0.000000
1.000000 0.000000 0.000000
0.000000 0.000000 0.000000
0.000000 0.000000 0.000000
0.000000 0.000000 0.000000
0.000000 0.000000 0.000000
0.000000 0.000000 0.000000
0.000000 0.000000 0.000000
0.000000 0.000000 0.000000
0.000000 0.000000 0.000000
0.000000 0.000000 0.000000
0.000000 0.000000 0.000000
0.000000 0.000000 0.000000
0.000000 0.000000 0.000000
0.000000 0.000000 0.000000
0.000000 0.000000 0.000000
0.000000 0.000000 0.000000
0.000000 0.000000 0.000000
0.000000 0.000000 0.000000
0.000000 0.000000 0.000000
0.000000 0.000000 0.000000
0.000000 0.000000 0.000000
0.027405 0.000000 0.000000
0.064117 0.000000 0.000000
0.090881 0.000000 0.000000
0.115723 0.000000 0.000000
0.140411 0.000000 0.000000
0.165985 0.000000 0.000000
0.192841 0.000000 0.000000
0.221252 0.000000 0.000000
0.251129 0.000000 0.000000
0.282349 0.000000 0.000000
0.314972 0.000000 0.000000
0.348663 0.000000 0.000000
0.383423 0.000000 0.000000
0.418884 0.000000 0.000000
0.454834 0.000000 0.000000
0.490967 0.000000 0.000000
0.526794 0.000000 0.000000
0.561127 0.000000 0.000000
0.593994 0.000000 0.000000
0.625336 0.000000 0.000000
0.655212 0.000000 0.000000
0.683655 0.000000 0.000000
0.710632 0.000000 0.000000
0.736145 0.000000 0.000000
0.760345 0.000000 0.000000
0.783142 0.000000 0.000000
0.804565 0.000000 0.000000
0.824707 0.000000 0.000000
0.843506 0.000000 0.000000
0.861145 0.000000 0.000000
0.877716 0.000000 0.000000
0.893372 0.000000 0.000000
0.908234 0.000000 0.000000
0.922455 0.000000 0.000000
0.936127 0.000000 0.000000
0.949463 0.000000 0.000000
0.962524 0.000000 0.000000
0.975433 0.000000 0.000000
0.988342 0.000000 0.000000
1.000000 0.000000 0.000000
1.000000 0.000000 0.000000
1.000000 0.000000 0.000000
1.000000 0.000000 0.000000
1.000000 0.000000 0.000000
0.000000 0.000000 0.000000
0.000000 0.000000 0.000000
0.000000 0.000000 0.000000
0.000000 0.000000 0.000000
0.000000 0.000000 0.000000
0.000000 0.000000 0.000000
0.000000 0.000000 0.000000
0.000000 0.000000 0.000000
0.000000 0.000000 0.000000
0.000000 0.000000 0.000000
0.000000 0.000000 0.000000
0.000000 0.000000 0.000000
0.000000 0.000000 0.000000
0.000000 0.000000 0.000000
0.000000 0.000000 0.000000
0.000000 0.000000 0.000000
0.000000 0.000000 0.000000
0.000000 0.000000 0.000000
0.000000 0.000000 0.000000
0.000000 0.000000 0.000000
0.027405 0.000000 0.000000
0.064117 0.000000 0.000000
0.090881 0.000000 0.000000
0.115723 0.000000 0.000000
0.140411 0.000000 0.000000
0.165985 0.000000 0.000000
0.192841 0.000000 0.000000
0.221252 0.000000 0.000000
0.251129 0.000000 0.000000
0.282349 0.000000 0.000000
0.314972 0.000000 0.000000
0.348663 0.000000 0.000000
0.383423 0.000000 0.000000
0.418884 0.000000 0.000000
0.454834 0.000000 0.000000
0.490967 0.000000 0.000000
0.526794 0.000000 0.000000
0.561127 0.000000 0.000000
0.593994 0.000000 0.000000
0.625336 0.000000 0.000000
0.655212 0.000000 0.000000
0.683655 0.000000 0.000000
0.710632 0.000000 0.000000
0.736145 0.000000 0.000000
0.760345 0.000000 0.000000
0.783142 0.000000 0.000000
0.804565 0.000000 0.000000
0.824707 0.000000 0.000000
0.843506 0.000000 0.000000
0.861145 0.000000 0.000000
0.877716 0.000000 0.000000
0.893372 0.000000 0.000000
0.908234 0.000000 0.000000
0.922455 0.000000 0.000000
0.936127 0.000000 0.000000
0.949463 0.000000 0.000000
0.962524 0.000000 0.000000
0.975433 0.000000 0.000000
0.988342 0.000000 0.000000
1.000000 0.000000 0.000000
1.000000 0.000000 0.000000
1.000000 0.000000 0.000000
1.000000 0.000000 0.000000
1.000000 0.000000 0.000000
0.000000 0.000000 0.000000
0.000000 0.000000 0.000000
0.000000 0.000000 0.000000
0.000000 0.000000 0.000000
0.000000 0.000000 0.000000
0.000000 0.000000 0.000000
0.000000 0.000000 0.000000
0.000000 0.000000 0.000000
0.000000 0.000000 0.000000
0.000000 0.000000 0.000000
0.000000 0.000000 0.000000
0.000000 0.000000 0.000000
0.000000 0.000000 0.000000
0.000000 0.000000 0.000000
0.000000 0.000000 0.000000
0.000000 0.000000 0.000000
0.000000 0.000000 0.000000
0.000000 0.000000 0.000000
0.000000 0.000000 0.000000
0.000000 0.000000 0.000000
0.027405 0.000000 0.000000
0.064117 0.000000 0.000000
0.090881 0.000000 0.000000
0.115723 0.000000 0.000000
0.140411 0.000000 0.000000
0.165985 0.000000 0.000000
0.192841 0.000000 0.000000
0.221252 0.000000 0.000000
0.251129 0.000000 0.000000
0.282349 0.000000 0.000000
0.314972 0.000000 0.000000
0.348663 0.000000 0.000000
0.383423 0.000000 0.000000
0.418884 0.000000 0.000000
0.454834 0.000000 0.000000
0.490967 0.000000 0.000000
0.526794 0.000000 0.000000
0.561127 0.000000 0.000000
0.593994 0.000000 0.000000
0.625336 0.000000 0.000000
0.655212 0.000000 0.000000
0.683655 0.000000 0.000000
0.710632 0.000000 0.000000
0.736145 0.000000 0.000000
0.760345 0.000000 0.000000
0.783142 0.000000 0.000000
0.804565 0.000000 0.000000
0.824707 0.000000 0.000000
0.843506 0.000000 0.000000
0.861145 0.000000 0.000000
0.877716 0.000000 0.000000
0.893372 0.000000 0.000000
0.908234 0.000000 0.000000
0.922455 0.000000 0.000000
0.936127 0.000000 0.000000
0.949463 0.000000 0.000000
0.962524 0.000000 0.000000
0.975433 0.000000 0.000000
0.988342 0.000000 0.000000
1.000000 0.000000 0.000000
1.000000 0.000000 0.000000
1.000000 0.000000 0.000000
1.000000 0.000000 0.000000
1.000000 0.000000 0.000000
0.000000 0.000000 0.000000
0.000000 0.000000 0.000000
0.000000 0.000000 0.000000
0.000000 0.000000 0.000000
0.000000 0.000000 0.000000
0.000000 0.000000 0.000000
0.000000 0.000000 0.000000
0.000000 0.000000 0.000000
0.000000 0.000000 0.000000
0.000000 0.000000 0.000000
0.000000 0.000000 0.000000
0.000000 0.000000 0.000000
0.000000 0.000000 0.000000
0.000000 0.000000 0.000000
0.000000 0.000000 0.000000
0.000000 0.000000 0.000000
0.000000 0.000000 0.000000
0.000000 0.000000 0.000000
0.000000 0.000000 0.000000
0.000000 0.000000 0.000000
0.027405 0.000000 0.000000
0.064117 0.000000 0.000000
0.090881 0.000000 0.000000
0.115723 0.000000 0.000000
0.140411 0.000000 0.000000
0.165985 0.000000 0.000000
0.192841 0.000000 0.000000
0.221252 0.000000 0.000000
0.251129 0.000000 0.000000
0.282349 0.000000 0.000000
0.314972 0.000000 0.000000
0.348663 0.000000 0.000000
0.383423 0.000000 0.000000
0.418884 0.000000 0.000000
0.454834 0.000000 0.000000
0.490967 0.000000 0.000000
0.526794 0.000000 0.000000
0.561127 0.000000 0.000000
0.593994 0.000000 0.000000
0.625336 0.000000 0.000000
0.655212 0.000000 0.000000
0.683655 0.000000 0.000000
0.710632 0.000000 0.000000
0.736145 0.000000 0.000000
0.760345 0.000000 0.000000
0.783142 0.000000 0.000000
0.804565 0.000000 0.000000
0.824707 0.000000 0.000000
0.843506 0.000000 0.000000
0.861145 0.000000 0.000000
0.877716 0.000000 0.000000
0.893372 0.000000 0.000000
0.908234 0.000000 0.000000
0.922455 0.000000 0.000000
0.936127 0.000000 0.000000
0.949463 0.000000 0.000000
0.962524 0.000000 0.000000
0.975433 0.000000 0.000000
0.988342 0.000000 0.000000
1.000000 0.000000 0.000000
1.000000 0.000000 0.000000
1.000000 0.000000 0.000000
1.000000 0.000000 0.000000
1.000000 0.000000 0.000000
0.000000 0.000000 0.000000
0.000000 0.000000 0.000000
0.000000 0.000000 0.000000
0.000000 0.000000 0.000000
0.000000 0.000000 0.000000
0.000000 0.000000 0.000000
0.000000 0.000000 0.000000
0.000000 0.000000 0.000000
0.000000 0.000000 0.000000
0.000000 0.000000 0.000000
0.000000 0.000000 0.000000
0.000000 0.000000 0.000000
0.000000 0.000000 0.000000
0.000000 0.000000 0.000000
0.000000 0.000000 0.000000
0.000000 0.000000 0.000000
0.000000 0.000000 0.000000
0.000000 0.000000 0.000000
0.000000 0.000000 0.000000
0.000000 0.000000 0.000000
0.027405 0.000000 0.000000
0.064117 0.000000 0.000000
0.090881 0.000000 0.000000
0.115723 0.000000 0.000000
0.140411 0.000000 0.000000
0.165985 0.000000 0.000000
0.192841 0.000000 0.000000
0.221252 0.000000 0.000000
0.251129 0.000000 0.000000
0.282349 0.000000 0.000000
0.314972 0.000000 0.000000
0.348663 0.000000 0.000000
0.383423 0.000000 0.000000
0.418884 0.000000 0.000000
0.454834 0.000000 0.000000
0.490967 0.000000 0.000000
0.526794 0.000000 0.000000
0.561127 0.000000 0.000000
0.593994 0.000000 0.000000
0.625336 0.000000 0.000000
0.655212 0.000000 0.000000
0.683655 0.000000 0.000000
0.710632 0.000000 0.000000
0.736145 0.000000 0.000000
0.760345 0.000000 0.000000
0.783142 0.000000 0.000000
0.804565 0.000000 0.000000
0.824707 0.000000 0.000000
0.843506 0.000000 0.000000
0.861145 0.000000 0.000000
0.877716 0.000000 0.000000
0.893372 0.000000 0.000000
0.908234 0.000000 0.000000
0.922455 0.000000 0.000000
0.936127 0.000000 0.000000
0.949463 0.000000 0.000000
0.962524 0.000000 0.000000
0.975433 0.000000 0.000000
0.988342 0.000000 0.000000
1.000000 0.000000 0.000000
1.000000 0.000000 0.000000
1.000000 0.000000 0.000000
1.000000 0.000000 0.000000
1.000000 0.000000 0.000000
0.000000 0.000000 0.000000
0.000000 0.000000 0.000000
0.000000 0.000000 0.000000
0.000000 0.000000 0.000000
0.000000 0.000000 0.000000
0.000000 0.000000 0.000000
0.000000 0.000000 0.000000
0.000000 0.000000 0.000000
0.000000 0.000000 0.000000
0.000000 0.000000 0.000000
0.000000 0.000000 0.000000
0.000000 0.000000 0.000000
0.000000 0.000000 0.000000
0.000000 0.000000 0.000000
0.000000 0.000000 0.000000
0.000000 0.000000 0.000000
0.000000 0.000000 0.000000
0.000000 0.000000 0.000000
0.000000 0.000000 0.000000
0.000000 0.000000 0.000000
0.027405 0.000000 0.000000
0.064117 0.000000 0.000000
0.090881 0.000000 0.000000
0.115723 0.000000 0.000000
0.140411 0.000000 0.000000
0.165985 0.000000 0.000000
0.192841 0.000000 0.000000
0.221252 0.000000 0.000000
0.251129 0.000000 0.000000
0.282349 0.000000 0.000000
0.314972 0.000000 0.000000
0.348663 0.000000 0.000000
0.383423 0.000000 0.000000
0.418884 0.000000 0.000000
0.454834 0.000000 0.000000
0.490967 0.000000 0.000000
0.526794 0.000000 0.000000
0.561127 0.000000 0.000000
0.593994 0.000000 0.000000
0.625336 0.000000 0.000000
0.655212 0.000000 0.000000
0.683655 0.000000 0.000000
0.710632 0.000000 0.000000
0.736145 0.000000 0.000000
0.760345 0.000000 0.000000
0.783142 0.000000 0.000000
0.804565 0.000000 0.000000
0.824707 0.000000 0.000000
0.843506 0.000000 0.000000
0.861145 0.000000 0.000000
0.877716 0.000000 0.000000
0.893372 0.000000 0.000000
0.908234 0.000000 0.000000
0.922455 0.000000 0.000000
0.936127 0.000000 0.000000
0.949463 0.000000 0.000000
0.962524 0.000000 0.000000
0.975433 0.000000 0.000000
0.988342 0.000000 0.000000
1.000000 0.000000 0.000000
1.000000 0.000000 0.000000
1.000000 0.000000 0.000000
1.000000 0.000000 0.000000
1.000000 0.000000 0.000000
0.000000 0.000000 0.000000
0.000000 0.000000 0.000000
0.000000 0.000000 0.000000
0.000000 0.000000 0.000000
0.000000 0.000000 0.000000
0.000000 0.000000 0.000000
0.000000 0.000000 0.000000
0.000000 0.000000 0.000000
0.000000 0.000000 0.000000
0.000000 0.000000 0.000000
0.000000 0.000000 0.000000
0.000000 0.000000 0.000000
0.000000 0.000000 0.000000
0.000000 0.000000 0.000000
0.000000 0.000000 0.000000
0.000000 0.000000 0.000000
0.000000 0.000000 0.000000
0.000000 0.000000 0.000000
0.000000 0.000000 0.000000
0.000000 0.000000 0.000000
0.027405 0.000000 0.000000
0.064117 0.000000 0.000000
0.090881 0.000000 0.000000
0.115723 0.000000 0.000000
0.140411 0.000000 0.000000
0.165985 0.000000 0.000000
0.192841 0.000000 0.000000
0.221252 0.000000 0.000000
0.251129 0.000000 0.000000
0.282349 0.000000 0.000000
0.314972 0.000000 0.000000
0.348663 0.000000 0.000000
0.383423 0.000000 0.000000
0.418884 0.000000 0.000000
0.454834 0.000000 0.000000
0.490967 0.000000 0.000000
0.526794 0.000000 0.000000
0.561127 0.000000 0.000000
0.593994 0.000000 0.000000
0.625336 0.000000 0.000000
0.655212 0.000000 0.000000
0.683655 0.000000 0.000000
0.710632 0.000000 0.000000
0.736145 0.000000 0.000000
0.760345 0.000000 0.000000
0.783142 0.000000 0.000000
0.804565 0.000000 0.000000
0.824707 0.000000 0.000000
0.843506 0.000000 0.000000
0.861145 0.000000 0.000000
0.877716 0.000000 0.000000
0.893372 0.000000 0.000000
0.908234 0.000000 0.000000
0.922455 0.000000 0.000000
0.936127 0.000000 0.000000
0.949463 0.000000 0.000000
0.962524 0.000000 0.000000
0.975433 0.000000 0.000000
0.988342 0.000000 0.000000
1.000000 0.000000 0.000000
1.000000 0.000000 0.000000
1.000000 0.000000 0.000000
1.000000 0.000000 0.000000
1.000000 0.000000 0.000000
0.000000 0.000000 0.000000
0.000000 0.000000 0.000000
0.000000 0.000000 0.000000
0.000000 0.000000 0.000000
0.000000 0.000000 0.000000
0.000000 0.000000 0.000000
0.000000 0.000000 0.000000
0.000000 0.000000 0.000000
0.000000 0.000000 0.000000
0.000000 0.000000 0.000000
0.000000 0.000000 0.000000
0.000000 0.000000 0.000000
0.000000 0.000000 0.000000
0.000000 0.000000 0.000000
0.000000 0.000000 0.000000
0.000000 0.000000 0.000000
0.000000 0.000000 0.000000
0.000000 0.000000 0.000000
0.000000 0.000000 0.000000
0.000000 0.000000 0.000000
0.027405 0.000000 0.000000
0.064117 0.000000 0.000000
0.090881 0.000000 0.000000
0.115723 0.000000 0.000000
0.140411 0.000000 0.000000
0.165985 0.000000 0.000000
0.192841 0.000000 0.000000
0.221252 0.000000 0.000000
0.251129 0.000000 0.000000
0.282349 0.000000 0.000000
0.314972 0.000000 0.000000
0.348663 0.000000 0.000000
0.383423 0.000000 0.000000
0.418884 0.000000 0.000000
0.454834 0.000000 0.000000
0.490967 0.000000 0.000000
0.526794 0.000000 0.000000
0.561127 0.000000 0.000000
0.593994 0.000000 0.000000
0.625336 0.000000 0.000000
0.655212 0.000000 0.000000
0.683655 0.000000 0.000000
0.710632 0.000000 0.000000
0.736145 0.000000 0.000000
0.760345 0.000000 0.000000
0.783142 0.000000 0.000000
0.804565 0.000000 0.000000
0.824707 0.000000 0.000000
0.843506 0.000000 0.000000
0.861145 0.000000 0.000000
0.877716 0.000000 0.000000
0.893372 0.000000 0.000000
0.908234 0.000000 0.000000
0.922455 0.000000 0.000000
0.936127 0.000000 0.000000
0.949463 0.000000 0.000000
0.962524 0.000000 0.000000
0.975433 0.000000 0.000000
0.988342 0.000000 0.000000
1.000000 0.000000 0.000000
1.000000 0.000000 0.000000
1.000000 0.000000 0.000000
1.000000 0.000000 0.000000
1.000000 0.000000 0.000000
0.000000 0.000000 0.000000
0.000000 0.000000 0.000000
0.000000 0.000000 0.000000
0.000000 0.000000 0.000000
0.000000 0.000000 0.000000
0.000000 0.000000 0.000000
0.000000 0.000000 0.000000
0.000000 0.000000 0.000000
0.000000 0.000000 0.000000
0.000000 0.000000 0.000000
0.000000 0.000000 0.000000
0.000000 0.000000 0.000000
0.000000 0.000000 0.000000
0.000000 0.000000 0.000000
0.000000 0.000000 0.000000
0.000000 0.000000 0.000000
0.000000 0.000000 0.000000
0.000000 0.000000 0.000000
0.000000 0.000000 0.000000
0.000000 0.000000 0.000000
0.027405 0.000000 0.000000
0.064117 0.000000 0.000000
0.090881 0.000000 0.000000
0.115723 0.000000 0.000000
0.140411 0.000000 0.000000
0.165985 0.000000 0.000000
0.192841 0.000000 0.000000
0.221252 0.000000 0.000000
0.251129 0.000000 0.000000
0.282349 0.000000 0.000000
0.314972 0.000000 0.000000
0.348663 0.000000 0.000000
0.383423 0.000000 0.000000
0.418884 0.000000 0.000000
0.454834 0.000000 0.000000
0.490967 0.000000 0.000000
0.526794 0.000000 0.000000
0.561127 0.000000 0.000000
0.593994 0.000000 0.000000
0.625336 0.000000 0.000000
0.655212 0.000000 0.000000
0.683655 0.000000 0.000000
0.710632 0.000000 0.000000
0.736145 0.000000 0.000000
0.760345 0.000000 0.000000
0.783142 0.000000 0.000000
0.804565 0.000000 0.000000
0.824707 0.000000 0.000000
0.843506 0.000000 0.000000
0.861145 0.000000 0.000000
0.877716 0.000000 0.000000
0.893372 0.000000 0.000000
0.908234 0.000000 0.000000
0.922455 0.000000 0.000000
0.936127 0.000000 0.000000
0.949463 0.000000 0.000000
0.962524 0.000000 0.000000
0.975433 0.000000 0.000000
0.988342 0.000000 0.000000
1.000000 0.000000 0.000000
1.000000 0.000000 0.000000
1.000000 0.000000 0.000000
1.000000 0.000000 0.000000
1.000000 0.000000 0.000000
0.000000 0.000000 0.000000
0.000000 0.000000 0.000000
0.000000 0.000000 0.000000
0.000000 0.000000 0.000000
0.000000 0.000000 0.000000
0.000000 0.000000 0.000000
0.000000 0.000000 0.000000
0.000000 0.000000 0.000000
0.000000 0.000000 0.000000
0.000000 0.000000 0.000000
0.000000 0.000000 0.000000
0.000000 0.000000 0.000000
0.000000 0.000000 0.000000
0.000000 0.000000 0.000000
0.000000 0.000000 0.000000
0.000000 0.000000 0.000000
0.000000 0.000000 0.000000
0.000000 0.000000 0.000000
0.000000 0.000000 0.000000
0.000000 0.000000 0.000000
0.027405 0.000000 0.000000
0.064117 0.000000 0.000000
0.090881 0.000000 0.000000
0.115723 0.000000 0.000000
0.140411 0.000000 0.000000
0.165985 0.000000 0.000000
0.192841 0.000000 0.000000
0.221252 0.000000 0.000000
0.251129 0.000000 0.000000
0.282349 0.000000 0.000000
0.314972 0.000000 0.000000
0.348663 0.000000 0.000000
0.383423 0.000000 0.000000
0.418884 0.000000 0.000000
0.454834 0.000000 0.000000
0.490967 0.000000 0.000000
0.526794 0.000000 0.000000
0.561127 0.000000 0.000000
0.593994 0.000000 0.000000
0.625336 0.000000 0.000000
0.655212 0.000000 0.000000
0.683655 0.000000 0.000000
0.710632 0.000000 0.000000
0.736145 0.000000 0.000000
0.760345 0.000000 0.000000
0.783142 0.000000 0.000000
0.804565 0.000000 0.000000
0.824707 0.000000 0.000000
