custom_nodes/comfyui-vrgamedevgirl/LUTS/Dark_Soft_Vivid_Cool_2.cube
#Created by: Adobe Photoshop Export Color Lookup Plugin
#Copyright: (C) Copyright 2017 PremiumBeat
TITLE "Thames"
#LUT size
LUT_3D_SIZE 8
#data domain
DOMAIN_MIN 0.0 0.0 0.0
DOMAIN_MAX 1.0 1.0 1.0
#LUT data points
0.000000 0.000000 0.000000
0.025909 0.000000 0.000000
0.102325 0.000000 0.000000
0.176086 0.000000 0.000000
0.249023 0.000000 0.000000
0.333466 0.000000 0.000000
0.447876 0.000000 0.000000
0.772156 0.000000 0.000061
0.000000 0.027740 0.000000
0.046967 0.033844 0.000000
0.126862 0.038849 0.000000
0.202301 0.040588 0.000000
0.275177 0.038727 0.000000
0.355774 0.033844 0.000000
0.462494 0.019836 0.000000
0.786560 0.000000 0.000061
0.000000 0.106903 0.000000
0.066193 0.115173 0.000000
0.148041 0.123108 0.000000
0.221313 0.128632 0.000000
0.289612 0.131653 0.000000
0.368011 0.135010 0.000000
0.474792 0.138794 0.000000
0.800507 0.135040 0.000061
0.000000 0.185699 0.000000
0.075958 0.194641 0.000000
0.157104 0.201050 0.000000
0.229614 0.207306 0.000000
0.298798 0.213287 0.000000
0.377869 0.220093 0.000000
0.485535 0.228394 0.000000
0.814789 0.238953 0.000031
0.000000 0.261017 0.000000
0.070679 0.269592 0.000000
0.159973 0.277679 0.000000
0.235321 0.285248 0.000000
0.305786 0.292419 0.000000
0.386261 0.300598 0.000000
0.495483 0.310303 0.000000
0.832031 0.325439 0.000031
0.000000 0.348755 0.000000
0.053925 0.358490 0.000000
0.159210 0.367706 0.000000
0.239410 0.376038 0.000000
0.312683 0.383575 0.000000
0.395111 0.391388 0.000000
0.507050 0.400665 0.000000
0.853455 0.418213 0.000031
0.000000 0.471619 0.000000
0.000000 0.481689 0.000000
0.151337 0.490570 0.000000
0.242218 0.498169 0.000000
0.321472 0.504822 0.000000
0.409821 0.512054 0.000000
0.528259 0.520660 0.000000
0.880341 0.539246 0.000031
0.000000 0.833710 0.000000
0.000000 0.841034 0.000000
0.119690 0.847595 0.000000
0.258850 0.853485 0.000000
0.355865 0.858856 0.000000
0.452972 0.864624 0.000000
0.574127 0.871826 0.000000
0.907501 0.885651 0.000000
0.000397 0.000397 0.019043
0.029816 0.000000 0.019958
0.106964 0.000000 0.019409
0.181152 0.000000 0.015442
0.254181 0.000000 0.006683
0.338501 0.000000 0.000000
0.450989 0.000000 0.000000
0.774872 0.000000 0.000061
0.000000 0.030365 0.019989
0.051788 0.036682 0.020447
0.131866 0.042419 0.020599
0.207184 0.044861 0.017700
0.279510 0.044281 0.011597
0.358307 0.039246 0.002991
0.464966 0.027161 0.000000
0.789246 0.000000 0.000061
0.000000 0.110352 0.016998
0.071320 0.118805 0.018707
0.152374 0.127136 0.019867
0.223663 0.131744 0.018097
0.291931 0.135315 0.015106
0.370270 0.139374 0.012299
0.477173 0.143890 0.007324
0.803406 0.141418 0.000061
0.000000 0.189545 0.009033
0.079102 0.197266 0.013031
0.159546 0.204010 0.015625
0.231720 0.210541 0.017578
0.300995 0.217102 0.020325
0.380096 0.224213 0.023773
0.487915 0.232819 0.026428
0.818481 0.243591 0.000061
0.000000 0.264069 0.000000
0.074341 0.272675 0.003357
0.162720 0.281006 0.011566
0.237610 0.288727 0.019012
0.307983 0.296051 0.026093
0.388550 0.304413 0.033936
0.497986 0.314178 0.039154
0.836273 0.329346 0.000031
0.000000 0.352356 0.000000
0.059204 0.362122 0.000000
0.162384 0.371216 0.008392
0.242188 0.379486 0.020630
0.315308 0.386871 0.029419
0.397614 0.394531 0.034821
0.510040 0.403809 0.032074
0.857819 0.421570 0.000031
0.000000 0.475464 0.000000
0.007660 0.485107 0.000000
0.155731 0.493774 0.000000
0.245972 0.501221 0.000000
0.325378 0.507812 0.001862
0.413818 0.514954 0.000000
0.532257 0.523346 0.000000
0.883972 0.542145 0.000031
0.000000 0.836548 0.000000
0.000000 0.843689 0.000000
0.130341 0.850159 0.000000
0.264252 0.855988 0.000000
0.359711 0.861298 0.000000
0.455994 0.866974 0.000000
0.576447 0.874115 0.000000
0.908417 0.887238 0.000000
0.001892 0.001892 0.087860
0.035248 0.000641 0.088715
0.111450 0.000000 0.088654
0.186066 0.000000 0.088104
0.259125 0.000000 0.085693
0.343323 0.000000 0.083740
0.453674 0.000000 0.080994
0.777496 0.000000 0.070374
0.000000 0.034515 0.089691
0.057373 0.040680 0.091095
0.136597 0.045746 0.093323
0.211639 0.048981 0.096161
0.282654 0.048676 0.098846
0.360870 0.044342 0.100861
0.467438 0.033447 0.104767
0.791992 0.000000 0.115601
0.000000 0.113770 0.091278
0.075928 0.122375 0.096222
0.155121 0.130035 0.102539
0.225800 0.135010 0.107666
0.293915 0.139313 0.112976
0.372345 0.144104 0.119904
0.479309 0.149323 0.129517
0.806152 0.148010 0.143127
0.000000 0.193146 0.096558
0.082245 0.200012 0.104279
0.162048 0.207001 0.112305
0.233795 0.213837 0.120239
0.302887 0.220825 0.128662
0.382111 0.228271 0.138153
0.490082 0.237305 0.149811
0.822083 0.248260 0.154846
0.000000 0.267303 0.100616
0.077789 0.275879 0.113037
0.165466 0.284149 0.124481
0.239929 0.292023 0.134735
0.309967 0.299438 0.143921
0.390656 0.307983 0.154083
0.500305 0.317932 0.164551
0.840240 0.333160 0.156708
0.000000 0.355988 0.109924
0.063324 0.365631 0.125793
0.165771 0.374481 0.139435
0.244995 0.382690 0.150208
0.317902 0.390076 0.158875
0.399963 0.397369 0.165833
0.513092 0.407013 0.171539
0.861786 0.424896 0.148804
0.000000 0.479156 0.122650
0.013214 0.488586 0.139282
0.160614 0.496765 0.151947
0.249817 0.503845 0.159088
0.329407 0.510590 0.163788
0.417786 0.517578 0.165649
0.536102 0.525848 0.163086
0.887177 0.544983 0.124420
0.000000 0.839233 0.000000
0.000000 0.846252 0.000000
0.140533 0.852600 0.000000
0.269592 0.858368 0.000000
0.363464 0.863556 0.000000
0.458893 0.869202 0.000000
0.578644 0.876221 0.000000
0.909241 0.888672 0.000000
0.003418 0.003418 0.151642
0.041138 0.002014 0.152802
0.116394 0.000000 0.153473
0.190735 0.000000 0.154510
0.263794 0.000000 0.155884
0.347687 0.000000 0.159119
0.456268 0.000000 0.163391
0.779999 0.000000 0.183197
0.000000 0.039001 0.154419
0.063538 0.045471 0.156891
0.141449 0.049652 0.160400
0.215790 0.052582 0.165802
0.285187 0.051666 0.170807
0.363342 0.048279 0.176666
0.469940 0.039246 0.186340
0.794647 0.000000 0.214844
0.000000 0.117706 0.159332
0.081146 0.126770 0.166046
0.157867 0.133057 0.172699
0.228119 0.138153 0.179779
0.296143 0.142883 0.187622
0.374573 0.148071 0.197418
0.481659 0.153564 0.210663
0.809082 0.152191 0.237183
0.000000 0.195740 0.168976
0.084625 0.202972 0.177338
0.164612 0.210266 0.186768
0.236176 0.217438 0.196594
0.304962 0.224609 0.206604
0.384125 0.232574 0.218201
0.492096 0.241760 0.232422
0.825500 0.253021 0.250214
0.000000 0.270477 0.179565
0.080261 0.279205 0.191589
0.168182 0.287567 0.203461
0.242432 0.295502 0.214539
0.312225 0.302856 0.224518
0.392761 0.311554 0.235992
0.502533 0.321503 0.248352
0.844025 0.336975 0.254974
0.000000 0.359497 0.195740
0.066101 0.369202 0.209930
0.168610 0.377991 0.222900
0.248077 0.385895 0.234009
0.320618 0.393066 0.242676
0.402496 0.400208 0.250336
0.516205 0.410065 0.258240
0.865570 0.428131 0.254272
0.000000 0.482697 0.217377
0.018311 0.491974 0.230652
0.163879 0.499817 0.241211
0.254242 0.506561 0.249054
0.333527 0.513184 0.254211
0.421783 0.520142 0.257660
0.539917 0.528351 0.258759
0.890137 0.547791 0.247253
0.000000 0.841797 0.190887
0.000000 0.848724 0.197205
0.148468 0.854889 0.203156
0.274536 0.860565 0.207306
0.367188 0.865723 0.209839
0.461792 0.871338 0.211975
0.580750 0.878204 0.212921
0.910034 0.890015 0.191681
0.003998 0.003998 0.213715
0.045624 0.002350 0.215210
0.121307 0.000000 0.216644
0.195496 0.000000 0.218567
0.268402 0.000000 0.221863
0.351715 0.000000 0.227936
0.458740 0.000000 0.234894
0.782532 0.000000 0.266449
0.000092 0.042206 0.217346
0.068848 0.049286 0.220642
0.146515 0.053650 0.225647
0.219879 0.056427 0.232361
0.287659 0.054779 0.238068
0.365723 0.052032 0.245941
0.472290 0.044617 0.258484
0.797302 0.000000 0.295105
0.000000 0.121490 0.224731
0.085846 0.131226 0.232910
0.161133 0.136749 0.239563
0.230652 0.141388 0.247345
0.298523 0.146332 0.256470
0.376892 0.151550 0.267670
0.484009 0.157410 0.283051
0.811920 0.155823 0.315247
0.000000 0.198761 0.236694
0.087402 0.206512 0.245880
0.167419 0.213959 0.255829
0.238892 0.221313 0.266296
0.307251 0.228210 0.276855
0.386383 0.236237 0.289429
0.494598 0.245422 0.305054
0.829163 0.256073 0.328064
0.000000 0.273743 0.250519
0.082794 0.282623 0.262634
0.170380 0.290985 0.274414
0.244965 0.299133 0.285919
0.315247 0.307068 0.296997
0.395294 0.315369 0.308685
0.505005 0.325226 0.321869
0.847717 0.340942 0.335297
0.000000 0.362976 0.270111
0.068909 0.372650 0.283813
0.170959 0.381409 0.296265
0.250671 0.389191 0.307037
0.323578 0.396301 0.316254
0.405457 0.403259 0.324127
0.519470 0.413116 0.333099
0.869141 0.431396 0.337555
0.000000 0.486023 0.295685
0.023346 0.495148 0.307861
0.166992 0.502686 0.317291
0.257690 0.509521 0.324738
0.337738 0.515839 0.330597
0.425751 0.522705 0.334778
0.543610 0.530762 0.337616
0.892883 0.550659 0.337067
0.000000 0.844330 0.295258
0.000000 0.851135 0.300781
0.153809 0.857239 0.306122
0.278778 0.862701 0.311462
0.370819 0.867737 0.315338
0.464600 0.873322 0.318542
0.582825 0.880188 0.321838
0.910736 0.891327 0.314880
0.003784 0.003784 0.285492
0.050354 0.001984 0.287292
0.126740 0.000000 0.289551
0.201233 0.000000 0.292847
0.273590 0.000000 0.297577
0.355072 0.000000 0.304718
0.461609 0.000000 0.314270
0.785431 0.000000 0.353607
0.000000 0.045441 0.290100
0.074158 0.053040 0.294464
0.151886 0.058136 0.300934
0.223602 0.060425 0.308167
0.290741 0.059204 0.314758
0.368469 0.056793 0.324097
0.475037 0.050781 0.338745
0.800385 0.000000 0.380615
0.002350 0.125885 0.300049
0.089600 0.134949 0.308502
0.164917 0.141205 0.316345
0.234497 0.146240 0.325348
0.301666 0.150757 0.334900
0.379547 0.155762 0.346802
0.486725 0.161865 0.363647
0.815552 0.160248 0.399384
0.000000 0.202515 0.313873
0.091278 0.210907 0.324066
0.171265 0.218903 0.334717
0.242706 0.226471 0.345581
0.310638 0.232971 0.356445
0.389099 0.240265 0.369019
0.497498 0.249420 0.385498
0.833588 0.259613 0.411835
0.000000 0.277863 0.330231
0.086609 0.287201 0.342804
0.174011 0.295929 0.354919
0.248627 0.304077 0.366364
0.318695 0.311676 0.377289
0.398224 0.319214 0.388550
0.508148 0.328735 0.401978
0.852356 0.344147 0.419525
0.000000 0.367065 0.352081
0.072083 0.376770 0.365540
0.173767 0.385315 0.377411
0.253540 0.392944 0.387726
0.326660 0.399902 0.396576
0.410034 0.407837 0.405640
0.523743 0.417023 0.414581
0.873230 0.435394 0.424835
0.000000 0.489868 0.380066
0.029510 0.498718 0.391388
0.170837 0.506073 0.399963
0.261963 0.512909 0.407043
0.342255 0.519196 0.412659
0.430786 0.525879 0.417603
0.548218 0.533813 0.421600
0.895782 0.554047 0.428680
0.000000 0.847137 0.393951
0.000000 0.853912 0.399292
0.159271 0.859924 0.404633
0.282043 0.865265 0.409851
0.374359 0.870178 0.414795
0.467865 0.875641 0.419403
0.585205 0.882385 0.423950
0.911560 0.892761 0.423737
0.006775 0.006775 0.383820
0.059326 0.004730 0.386200
0.135223 0.000000 0.389618
0.209076 0.000000 0.394501
0.280731 0.000000 0.401337
0.359253 0.000000 0.408783
0.465424 0.000000 0.420929
0.789398 0.000000 0.466583
0.002289 0.052643 0.390045
0.083099 0.060760 0.395966
0.159515 0.066498 0.404541
0.228546 0.067505 0.411591
0.295441 0.067108 0.419647
0.372742 0.064941 0.430389
0.478790 0.058990 0.446350
0.804626 0.000000 0.491852
0.011597 0.132965 0.403564
0.095459 0.140778 0.411896
0.170258 0.147552 0.421051
0.239563 0.153076 0.431244
0.306671 0.157898 0.441833
0.384216 0.162811 0.454468
0.490631 0.167847 0.471588
0.820923 0.166046 0.509338
0.001709 0.208160 0.418701
0.096924 0.217133 0.430084
0.176514 0.225861 0.441742
0.248108 0.233765 0.453186
0.316010 0.240417 0.464630
0.394257 0.247223 0.477264
0.501495 0.254700 0.492767
0.839600 0.264221 0.521210
0.000000 0.283875 0.437653
0.092621 0.293793 0.450867
0.179382 0.302979 0.463470
0.254150 0.311310 0.475037
0.324310 0.318817 0.485626
0.403809 0.325928 0.496643
0.512604 0.333282 0.508301
0.858551 0.348267 0.529083
0.000000 0.373199 0.461639
0.079163 0.383148 0.475067
0.179352 0.391968 0.486755
0.259369 0.399628 0.496765
0.332794 0.406250 0.504822
0.416138 0.413422 0.512787
0.529633 0.421417 0.521027
0.878967 0.439484 0.535706
0.000000 0.494934 0.490601
0.039124 0.503326 0.500793
0.176941 0.510834 0.508789
0.267944 0.517548 0.515198
0.348419 0.523529 0.520233
0.437134 0.530121 0.525208
0.555359 0.538879 0.531036
0.899414 0.558716 0.544281
0.000000 0.850922 0.514679
0.000000 0.857605 0.520142
0.165955 0.863556 0.525665
0.286285 0.868805 0.530853
0.377716 0.873657 0.535767
0.471313 0.878845 0.541168
0.588348 0.885101 0.547272
0.912689 0.894745 0.551788
0.023987 0.023987 0.684875
0.090149 0.021088 0.690308
0.161957 0.014801 0.698059
0.230835 0.008972 0.706329
0.296692 0.003510 0.714447
0.373383 0.000000 0.725586
0.478729 0.000000 0.742615
0.802063 0.000000 0.794189
0.038025 0.079376 0.698273
0.108429 0.086487 0.707581
0.177032 0.090424 0.717072
0.244263 0.093170 0.727478
0.310333 0.095093 0.738556
0.387115 0.095734 0.752106
0.492737 0.093506 0.770660
0.818909 0.031128 0.814606
0.040710 0.152618 0.716125
0.115234 0.161346 0.727631
0.187286 0.169617 0.739899
0.255371 0.175934 0.752197
0.321991 0.181427 0.764374
0.399384 0.186920 0.778290
0.505859 0.191742 0.795685
0.838623 0.182434 0.829071
0.028290 0.227875 0.737274
0.116913 0.237915 0.750977
0.193604 0.247467 0.764313
0.264618 0.256042 0.776703
0.332336 0.262604 0.788422
0.410736 0.268982 0.800690
0.518585 0.274994 0.814392
0.858551 0.277527 0.839203
0.004669 0.303925 0.760468
0.113922 0.314301 0.774628
0.197021 0.323822 0.787506
0.271362 0.332245 0.798676
0.342041 0.339600 0.808167
0.422150 0.345642 0.817566
0.533844 0.352692 0.828278
0.876984 0.360382 0.847137
0.000000 0.392609 0.786774
0.104767 0.402435 0.799377
0.198822 0.410889 0.809692
0.278625 0.418396 0.818085
0.353760 0.425415 0.825165
0.438934 0.432678 0.831970
0.553314 0.439697 0.839630
0.894714 0.450867 0.855865
0.000000 0.511688 0.814301
0.085663 0.520477 0.823120
0.203949 0.528290 0.830139
0.292999 0.535156 0.835693
0.373138 0.541321 0.840332
0.461700 0.547852 0.844940
0.578094 0.555542 0.850647
0.909851 0.569611 0.868988
0.000000 0.862244 0.848602
0.000000 0.868530 0.854584
0.182312 0.874207 0.860229
0.297058 0.879272 0.865387
0.386414 0.883789 0.870270
0.478302 0.888245 0.875122
0.593781 0.892609 0.880219
0.922058 0.922058 0.922058
