custom_nodes/comfyui-vrgamedevgirl/LUTS/Dark_Soft_Vivid_Cinematic.cube
#Created by: Adobe Photoshop Export Color Lookup Plugin
#Copyright: (C) Copyright 2017 PremiumBeat.com
TITLE "Hopkins"
#LUT size
LUT_3D_SIZE 4
#data domain
DOMAIN_MIN 0.0 0.0 0.0
DOMAIN_MAX 1.0 1.0 1.0
#LUT data points
0.021667 0.017365 0.009125
0.139862 0.032013 0.023102
0.554779 0.029663 0.018402
0.862518 0.060425 0.049835
0.023254 0.133911 0.011902
0.132904 0.132599 0.004242
0.551056 0.203278 0.000031
0.861633 0.210602 0.006317
0.000000 0.552490 0.000000
0.129883 0.556091 0.000000
0.530304 0.555389 0.000000
0.855499 0.549011 0.000031
0.000000 0.861328 0.000000
0.000000 0.871979 0.000000
0.492371 0.879303 0.000000
0.882324 0.899994 0.000000
0.040863 0.036530 0.140503
0.141815 0.029999 0.138367
0.565399 0.020325 0.196350
0.875031 0.052307 0.199188
0.021149 0.135284 0.134216
0.122620 0.123077 0.121552
0.567108 0.194214 0.180420
0.912842 0.180603 0.165741
0.000000 0.553070 0.140961
0.107178 0.572693 0.112610
0.539398 0.568115 0.038818
0.898926 0.553101 0.000031
0.000000 0.862305 0.000000
0.000000 0.919373 0.000000
0.488159 0.920807 0.000000
0.905701 0.919403 0.000000
0.113251 0.112152 0.562836
0.232239 0.105042 0.564392
0.565948 0.020355 0.561401
0.875916 0.052429 0.549683
0.091400 0.229492 0.561615
0.215576 0.222473 0.573578
0.563477 0.197723 0.565125
0.910828 0.184570 0.549011
0.000000 0.554871 0.539032
0.106140 0.574799 0.555756
0.509003 0.534454 0.517181
0.853485 0.548523 0.530487
0.000000 0.863983 0.509888
0.000000 0.921082 0.507019
0.506592 0.884399 0.517944
0.877136 0.881744 0.520111
0.197510 0.197357 0.877625
0.277069 0.194122 0.879974
0.567566 0.163300 0.881927
0.877197 0.054321 0.879089
0.186371 0.277100 0.875977
0.259094 0.265320 0.928101
0.565155 0.247223 0.924774
0.910339 0.187866 0.916809
0.065613 0.565887 0.865570
0.186584 0.576843 0.922607
0.537537 0.564392 0.876801
0.855865 0.553589 0.869934
0.000000 0.865479 0.847168
0.000000 0.923248 0.902374
0.518951 0.887787 0.878357
0.859741 0.859741 0.859741
