custom_nodes/comfyui-vrgamedevgirl/LUTS/High_Contrast_Vivid_Warm_Cinematic_2.cube
#Created by: Adobe Photoshop Export Color Lookup Plugin
#Copyright: (C) Copyright 2017 PremiumBeat
TITLE "Pocatello"
#LUT size
LUT_3D_SIZE 64
#data domain
DOMAIN_MIN 0.0 0.0 0.0
DOMAIN_MAX 1.0 1.0 1.0
#LUT data points
0.000000 0.000000 0.000000
0.000000 0.000000 0.000000
0.000000 0.000000 0.000000
0.000000 0.000000 0.000000
0.000000 0.000000 0.000000
0.000000 0.000000 0.000000
0.000000 0.000000 0.000000
0.000000 0.000000 0.000000
0.000000 0.000000 0.000000
0.004578 0.000000 0.000000
0.044647 0.000000 0.000000
0.062347 0.000000 0.000000
0.077087 0.000000 0.000000
0.090363 0.000000 0.000000
0.102997 0.000000 0.000000
0.115448 0.000000 0.000000
0.127869 0.000000 0.000000
0.140381 0.000000 0.000000
0.153168 0.000000 0.000000
0.166382 0.000000 0.000000
0.180054 0.000000 0.000000
0.194366 0.000000 0.000000
0.209381 0.000000 0.000000
0.225128 0.000000 0.000000
0.241882 0.000000 0.000000
0.259644 0.000000 0.000000
0.278442 0.000000 0.000000
0.298279 0.000000 0.000000
0.319305 0.000000 0.000000
0.341278 0.000000 0.000000
0.364227 0.000000 0.000000
0.388153 0.000000 0.000000
0.412903 0.000000 0.000000
0.438477 0.000000 0.000000
0.464783 0.000000 0.000000
0.491730 0.000000 0.000000
0.519287 0.000000 0.000000
0.546539 0.000000 0.000000
0.572968 0.000000 0.000000
0.598633 0.000000 0.000000
0.623260 0.000000 0.000000
0.647064 0.000000 0.000000
0.669830 0.000000 0.000000
0.691620 0.000000 0.000000
0.712524 0.000000 0.000000
0.732361 0.000000 0.000000
0.751068 0.000000 0.000000
0.768860 0.000000 0.000000
0.785492 0.000000 0.000000
0.801178 0.000000 0.000000
0.815826 0.000000 0.000000
0.829712 0.000000 0.000000
0.842773 0.000000 0.000000
0.855072 0.000000 0.000000
0.866821 0.000000 0.000000
0.878052 0.000000 0.000000
0.888702 0.000000 0.000000
0.898926 0.000000 0.000000
0.908875 0.000000 0.000000
0.918396 0.000000 0.000000
0.927704 0.000000 0.000000
0.936829 0.000000 0.000000
0.945679 0.000000 0.000000
0.954529 0.000000 0.000000
0.000000 0.000000 0.000000
0.000000 0.000000 0.000000
0.000000 0.000000 0.000000
0.000000 0.000000 0.000000
0.000000 0.000000 0.000000
0.000000 0.000000 0.000000
0.000000 0.000000 0.000000
0.000000 0.000000 0.000000
0.000000 0.000000 0.000000
0.001465 0.000000 0.000000
0.044098 0.000000 0.000000
0.061981 0.000000 0.000000
0.076660 0.000000 0.000000
0.089996 0.000000 0.000000
0.102631 0.000000 0.000000
0.115112 0.000000 0.000000
0.127502 0.000000 0.000000
0.140076 0.000000 0.000000
0.152863 0.000000 0.000000
0.166016 0.000000 0.000000
0.179718 0.000000 0.000000
0.194000 0.000000 0.000000
0.209045 0.000000 0.000000
0.224823 0.000000 0.000000
0.241547 0.000000 0.000000
0.259247 0.000000 0.000000
0.278046 0.000000 0.000000
0.297943 0.000000 0.000000
0.318878 0.000000 0.000000
0.340851 0.000000 0.000000
0.363831 0.000000 0.000000
0.387726 0.000000 0.000000
0.412445 0.000000 0.000000
0.438049 0.000000 0.000000
0.464386 0.000000 0.000000
0.491272 0.000000 0.000000
0.518799 0.000000 0.000000
0.546082 0.000000 0.000000
0.572540 0.000000 0.000000
0.598114 0.000000 0.000000
0.622772 0.000000 0.000000
0.646545 0.000000 0.000000
0.669312 0.000000 0.000000
0.691162 0.000000 0.000000
0.712067 0.000000 0.000000
0.731842 0.000000 0.000000
0.750641 0.000000 0.000000
0.768341 0.000000 0.000000
0.785034 0.000000 0.000000
0.800659 0.000000 0.000000
0.815369 0.000000 0.000000
0.829193 0.000000 0.000000
0.842255 0.000000 0.000000
0.854614 0.000000 0.000000
0.866394 0.000000 0.000000
0.877563 0.000000 0.000000
0.888275 0.000000 0.000000
0.898499 0.000000 0.000000
0.908417 0.000000 0.000000
0.917969 0.000000 0.000000
0.927307 0.000000 0.000000
0.936371 0.000000 0.000000
0.945312 0.000000 0.000000
0.954102 0.000000 0.000000
0.000000 0.000000 0.000000
0.000000 0.000000 0.000000
0.000000 0.000000 0.000000
0.000000 0.000000 0.000000
0.000000 0.000000 0.000000
0.000000 0.000000 0.000000
0.000000 0.000000 0.000000
0.000000 0.000000 0.000000
0.000000 0.000000 0.000000
0.000000 0.000000 0.000000
0.043335 0.000000 0.000000
0.061401 0.000000 0.000000
0.076202 0.000000 0.000000
0.089539 0.000000 0.000000
0.102264 0.000000 0.000000
0.114716 0.000000 0.000000
0.127136 0.000000 0.000000
0.139679 0.000000 0.000000
0.152466 0.000000 0.000000
0.165680 0.000000 0.000000
0.179352 0.000000 0.000000
0.193665 0.000000 0.000000
0.208649 0.000000 0.000000
0.224457 0.000000 0.000000
0.241089 0.000000 0.000000
0.258850 0.000000 0.000000
0.277618 0.000000 0.000000
0.297455 0.000000 0.000000
0.318451 0.000000 0.000000
0.340424 0.000000 0.000000
0.363373 0.000000 0.000000
0.387268 0.000000 0.000000
0.411957 0.000000 0.000000
0.437561 0.000000 0.000000
0.463898 0.000000 0.000000
0.490784 0.000000 0.000000
0.518280 0.000000 0.000000
0.545532 0.000000 0.000000
0.572021 0.000000 0.000000
0.597595 0.000000 0.000000
0.622253 0.000000 0.000000
0.646027 0.000000 0.000000
0.668793 0.000000 0.000000
0.690613 0.000000 0.000000
0.711548 0.000000 0.000000
0.731323 0.000000 0.000000
0.750122 0.000000 0.000000
0.767822 0.000000 0.000000
0.784576 0.000000 0.000000
0.800171 0.000000 0.000000
0.814880 0.000000 0.000000
0.828705 0.000000 0.000000
0.841766 0.000000 0.000000
0.854156 0.000000 0.000000
0.865906 0.000000 0.000000
0.877075 0.000000 0.000000
0.887787 0.000000 0.000000
0.898041 0.000000 0.000000
0.907928 0.000000 0.000000
0.917542 0.000000 0.000000
0.926849 0.000000 0.000000
0.935913 0.000000 0.000000
0.944855 0.000000 0.000000
0.953705 0.000000 0.000000
0.000000 0.000000 0.000000
0.000000 0.000000 0.000000
0.000000 0.000000 0.000000
0.000000 0.000000 0.000000
0.000000 0.000000 0.000000
0.000000 0.000000 0.000000
0.000000 0.000000 0.000000
0.000000 0.000000 0.000000
0.000000 0.000000 0.000000
0.000000 0.000000 0.000000
0.042542 0.000000 0.000000
0.060730 0.000000 0.000000
0.075684 0.000000 0.000000
0.089081 0.000000 0.000000
0.101776 0.000000 0.000000
0.114319 0.000000 0.000000
0.126709 0.000000 0.000000
0.139221 0.000000 0.000000
0.152100 0.000000 0.000000
0.165283 0.000000 0.000000
0.178955 0.000000 0.000000
0.193207 0.000000 0.000000
0.208221 0.000000 0.000000
0.223999 0.000000 0.000000
0.240692 0.000000 0.000000
0.258392 0.000000 0.000000
0.277161 0.000000 0.000000
0.297058 0.000000 0.000000
0.317993 0.000000 0.000000
0.339905 0.000000 0.000000
0.362885 0.000000 0.000000
0.386780 0.000000 0.000000
0.411438 0.000000 0.000000
0.437042 0.000000 0.000000
0.463318 0.000000 0.000000
0.490234 0.000000 0.000000
0.517731 0.000000 0.000000
0.545013 0.000000 0.000000
0.571411 0.000000 0.000000
0.597015 0.000000 0.000000
0.621643 0.000000 0.000000
0.645447 0.000000 0.000000
0.668213 0.000000 0.000000
0.690063 0.000000 0.000000
0.710968 0.000000 0.000000
0.730743 0.000000 0.000000
0.749542 0.000000 0.000000
0.767273 0.000000 0.000000
0.783997 0.000000 0.000000
0.799591 0.000000 0.000000
0.814331 0.000000 0.000000
0.828156 0.000000 0.000000
0.841217 0.000000 0.000000
0.853607 0.000000 0.000000
0.865356 0.000000 0.000000
0.876526 0.000000 0.000000
0.887268 0.000000 0.000000
0.897522 0.000000 0.000000
0.907440 0.000000 0.000000
0.917023 0.000000 0.000000
0.926361 0.000000 0.000000
0.935425 0.000000 0.000000
0.944336 0.000000 0.000000
0.953186 0.000000 0.000000
0.000000 0.000000 0.000000
0.000000 0.000000 0.000000
0.000000 0.000000 0.000000
0.000000 0.000000 0.000000
0.000000 0.000000 0.000000
0.000000 0.000000 0.000000
0.000000 0.000000 0.000000
0.000000 0.000000 0.000000
0.000000 0.000000 0.000000
0.000000 0.000000 0.000000
0.041382 0.000000 0.000000
0.059998 0.000000 0.000000
0.075073 0.000000 0.000000
0.088562 0.000000 0.000000
0.101288 0.000000 0.000000
0.113831 0.000000 0.000000
0.126221 0.000000 0.000000
0.138824 0.000000 0.000000
0.151611 0.000000 0.000000
0.164825 0.000000 0.000000
0.178528 0.000000 0.000000
0.192749 0.000000 0.000000
0.207764 0.000000 0.000000
0.223541 0.000000 0.000000
0.240234 0.000000 0.000000
0.257935 0.000000 0.000000
0.276642 0.000000 0.000000
0.296509 0.000000 0.000000
0.317444 0.000000 0.000000
0.339386 0.000000 0.000000
0.362305 0.000000 0.000000
0.386200 0.000000 0.000000
0.410919 0.000000 0.000000
0.436462 0.000000 0.000000
0.462738 0.000000 0.000000
0.489594 0.000000 0.000000
0.517090 0.000000 0.000000
0.544403 0.000000 0.000000
0.570801 0.000000 0.000000
0.596436 0.000000 0.000000
0.621033 0.000000 0.000000
0.644806 0.000000 0.000000
0.667633 0.000000 0.000000
0.689423 0.000000 0.000000
0.710327 0.000000 0.000000
0.730133 0.000000 0.000000
0.748901 0.000000 0.000000
0.766663 0.000000 0.000000
0.783356 0.000000 0.000000
0.799011 0.000000 0.000000
0.813721 0.000000 0.000000
0.827606 0.000000 0.000000
0.840637 0.000000 0.000000
0.853027 0.000000 0.000000
0.864777 0.000000 0.000000
0.875946 0.000000 0.000000
0.886688 0.000000 0.000000
0.896973 0.000000 0.000000
0.906891 0.000000 0.000000
0.916473 0.000000 0.000000
0.925812 0.000000 0.000000
0.934937 0.000000 0.000000
0.943848 0.000000 0.000000
0.952667 0.000000 0.000000
0.000000 0.000000 0.000000
0.000000 0.000000 0.000000
0.000000 0.000000 0.000000
0.000000 0.000000 0.000000
0.000000 0.000000 0.000000
0.000000 0.000000 0.000000
0.000000 0.000000 0.000000
0.000000 0.000000 0.000000
0.000000 0.000000 0.000000
0.000000 0.000000 0.000000
0.040161 0.000000 0.000000
0.059174 0.000000 0.000000
0.074402 0.000000 0.000000
0.087952 0.000000 0.000000
0.100769 0.000000 0.000000
0.113281 0.000000 0.000000
0.125763 0.000000 0.000000
0.138275 0.000000 0.000000
0.151093 0.000000 0.000000
0.164307 0.000000 0.000000
0.177979 0.000000 0.000000
0.192261 0.000000 0.000000
0.207275 0.000000 0.000000
0.223022 0.000000 0.000000
0.239685 0.000000 0.000000
0.257416 0.000000 0.000000
0.276123 0.000000 0.000000
0.295929 0.000000 0.000000
0.316895 0.000000 0.000000
0.338806 0.000000 0.000000
0.361725 0.000000 0.000000
0.385590 0.000000 0.000000
0.410278 0.000000 0.000000
0.435791 0.000000 0.000000
0.462036 0.000000 0.000000
0.488953 0.000000 0.000000
0.516479 0.000000 0.000000
0.543701 0.000000 0.000000
0.570129 0.000000 0.000000
0.595734 0.000000 0.000000
0.620392 0.000000 0.000000
0.644165 0.000000 0.000000
0.666931 0.000000 0.000000
0.688721 0.000000 0.000000
0.709625 0.000000 0.000000
0.729523 0.000000 0.000000
0.748230 0.000000 0.000000
0.766052 0.000000 0.000000
0.782715 0.000000 0.000000
0.798401 0.000000 0.000000
0.813080 0.000000 0.000000
0.826965 0.000000 0.000000
0.840027 0.000000 0.000000
0.852386 0.000000 0.000000
0.864166 0.000000 0.000000
0.875397 0.000000 0.000000
0.886108 0.000000 0.000000
0.896362 0.000000 0.000000
0.906342 0.000000 0.000000
0.915863 0.000000 0.000000
0.925232 0.000000 0.000000
0.934357 0.000000 0.000000
0.943268 0.000000 0.000000
0.952087 0.000000 0.000000
0.000000 0.000000 0.000000
0.000000 0.000000 0.000000
0.000000 0.000000 0.000000
0.000000 0.000000 0.000000
0.000000 0.000000 0.000000
0.000000 0.000000 0.000000
0.000000 0.000000 0.000000
0.000000 0.000000 0.000000
0.000000 0.000000 0.000000
0.000000 0.000000 0.000000
0.039032 0.000000 0.000000
0.058350 0.000000 0.000000
0.073669 0.000000 0.000000
0.087311 0.000000 0.000000
0.100128 0.000000 0.000000
0.112701 0.000000 0.000000
0.125153 0.000000 0.000000
0.137695 0.000000 0.000000
0.150543 0.000000 0.000000
0.163727 0.000000 0.000000
0.177460 0.000000 0.000000
0.191711 0.000000 0.000000
0.206696 0.000000 0.000000
0.222443 0.000000 0.000000
0.239075 0.000000 0.000000
0.256805 0.000000 0.000000
0.275513 0.000000 0.000000
0.295349 0.000000 0.000000
0.316254 0.000000 0.000000
0.338165 0.000000 0.000000
0.361084 0.000000 0.000000
0.384949 0.000000 0.000000
0.409576 0.000000 0.000000
0.435150 0.000000 0.000000
0.461365 0.000000 0.000000
0.488251 0.000000 0.000000
0.515747 0.000000 0.000000
0.542999 0.000000 0.000000
0.569427 0.000000 0.000000
0.594971 0.000000 0.000000
0.619629 0.000000 0.000000
0.643433 0.000000 0.000000
0.666168 0.000000 0.000000
0.688049 0.000000 0.000000
0.708954 0.000000 0.000000
0.728760 0.000000 0.000000
0.747559 0.000000 0.000000
0.765320 0.000000 0.000000
0.782043 0.000000 0.000000
0.797668 0.000000 0.000000
0.812439 0.000000 0.000000
0.826233 0.000000 0.000000
0.839355 0.000000 0.000000
0.851746 0.000000 0.000000
0.863556 0.000000 0.000000
0.874725 0.000000 0.000000
0.885468 0.000000 0.000000
0.895752 0.000000 0.000000
0.905701 0.000000 0.000000
0.915283 0.000000 0.000000
0.924652 0.000000 0.000000
0.933716 0.000000 0.000000
0.942688 0.000000 0.000000
0.951538 0.000000 0.000000
0.000000 0.000000 0.000000
0.000000 0.000000 0.000000
0.000000 0.000000 0.000000
0.000000 0.000000 0.000000
0.000000 0.000000 0.000000
0.000000 0.000000 0.000000
0.000000 0.000000 0.000000
0.000000 0.000000 0.000000
0.000000 0.000000 0.000000
0.000000 0.000000 0.000000
0.037384 0.000000 0.000000
0.057373 0.000000 0.000000
0.072754 0.000000 0.000000
0.086548 0.000000 0.000000
0.099426 0.000000 0.000000
0.112091 0.000000 0.000000
0.124542 0.000000 0.000000
0.137115 0.000000 0.000000
0.149933 0.000000 0.000000
0.163147 0.000000 0.000000
0.176819 0.000000 0.000000
0.191132 0.000000 0.000000
0.206116 0.000000 0.000000
0.221863 0.000000 0.000000
0.238464 0.000000 0.000000
0.256195 0.000000 0.000000
0.274902 0.000000 0.000000
0.294678 0.000000 0.000000
0.315613 0.000000 0.000000
0.337494 0.000000 0.000000
0.360321 0.000000 0.000000
0.384216 0.000000 0.000000
0.408875 0.000000 0.000000
0.434387 0.000000 0.000000
0.460602 0.000000 0.000000
0.487518 0.000000 0.000000
0.514984 0.000000 0.000000
0.542175 0.000000 0.000000
0.568665 0.000000 0.000000
0.594208 0.000000 0.000000
0.618866 0.000000 0.000000
0.642670 0.000000 0.000000
0.665436 0.000000 0.000000
0.687286 0.000000 0.000000
0.708160 0.000000 0.000000
0.728027 0.000000 0.000000
0.746826 0.000000 0.000000
0.764557 0.000000 0.000000
0.781311 0.000000 0.000000
0.796967 0.000000 0.000000
0.811676 0.000000 0.000000
0.825562 0.000000 0.000000
0.838654 0.000000 0.000000
0.851074 0.000000 0.000000
0.862823 0.000000 0.000000
0.874084 0.000000 0.000000
0.884796 0.000000 0.000000
0.895081 0.000000 0.000000
0.905029 0.000000 0.000000
0.914642 0.000000 0.000000
0.924042 0.000000 0.000000
0.933105 0.000000 0.000000
0.942047 0.000000 0.000000
0.950897 0.000000 0.000000
0.000000 0.000000 0.000000
0.000000 0.000000 0.000000
0.000000 0.000000 0.000000
0.000000 0.000000 0.000000
0.000000 0.000000 0.000000
0.000000 0.000000 0.000000
0.000000 0.000000 0.000000
0.000000 0.000000 0.000000
0.000000 0.000000 0.000000
0.000000 0.000000 0.000000
0.035583 0.000000 0.000000
0.056183 0.000000 0.000000
0.071869 0.000000 0.000000
0.085693 0.000000 0.000000
0.098724 0.000000 0.000000
0.111328 0.000000 0.000000
0.123840 0.000000 0.000000
0.136444 0.000000 0.000000
0.149292 0.000000 0.000000
0.162537 0.000000 0.000000
0.176178 0.000000 0.000000
0.190430 0.000000 0.000000
0.205444 0.000000 0.000000
0.221161 0.000000 0.000000
0.237793 0.000000 0.000000
0.255432 0.000000 0.000000
0.274170 0.000000 0.000000
0.293976 0.000000 0.000000
0.314819 0.000000 0.000000
0.336792 0.000000 0.000000
0.359619 0.000000 0.000000
0.383423 0.000000 0.000000
0.408112 0.000000 0.000000
0.433594 0.000000 0.000000
0.459808 0.000000 0.000000
0.486664 0.000000 0.000000
0.514130 0.000000 0.000000
0.541382 0.000000 0.000000
0.567810 0.000000 0.000000
0.593414 0.000000 0.000000
0.618011 0.000000 0.000000
0.641785 0.000000 0.000000
0.664642 0.000000 0.000000
0.686432 0.000000 0.000000
0.707367 0.000000 0.000000
0.727173 0.000000 0.000000
0.745972 0.000000 0.000000
0.763824 0.000000 0.000000
0.780487 0.000000 0.000000
0.796173 0.000000 0.000000
0.810913 0.000000 0.000000
0.824829 0.000000 0.000000
0.837952 0.000000 0.000000
0.850281 0.000000 0.000000
0.862122 0.000000 0.000000
0.873322 0.000000 0.000000
0.884125 0.000000 0.000000
0.894379 0.000000 0.000000
0.904327 0.000000 0.000000
0.913940 0.000000 0.000000
0.923309 0.000000 0.000000
0.932465 0.000000 0.000000
0.941376 0.000000 0.000000
0.950256 0.000000 0.000000
0.000000 0.000000 0.000000
0.000000 0.000000 0.000000
0.000000 0.000000 0.000000
0.000000 0.000000 0.000000
0.000000 0.000000 0.000000
0.000000 0.000000 0.000000
0.000000 0.000000 0.000000
0.000000 0.000000 0.000000
0.000000 0.000000 0.000000
0.000000 0.000000 0.000000
0.033508 0.000000 0.000000
0.054932 0.000000 0.000000
0.070892 0.000000 0.000000
0.084808 0.000000 0.000000
0.097778 0.000000 0.000000
0.110535 0.000000 0.000000
0.123077 0.000000 0.000000
0.135742 0.000000 0.000000
0.148560 0.000000 0.000000
0.161774 0.000000 0.000000
0.175476 0.000000 0.000000
0.189697 0.000000 0.000000
0.204681 0.000000 0.000000
0.220428 0.000000 0.000000
0.237091 0.000000 0.000000
0.254700 0.000000 0.000000
0.273407 0.000000 0.000000
0.293213 0.000000 0.000000
0.314056 0.000000 0.000000
0.335938 0.000000 0.000000
0.358795 0.000000 0.000000
0.382629 0.000000 0.000000
0.407227 0.000000 0.000000
0.432739 0.000000 0.000000
0.458984 0.000000 0.000000
0.485809 0.000000 0.000000
0.513245 0.000000 0.000000
0.540527 0.000000 0.000000
0.566895 0.000000 0.000000
0.592529 0.000000 0.000000
0.617157 0.000000 0.000000
0.640930 0.000000 0.000000
0.663696 0.000000 0.000000
0.685577 0.000000 0.000000
0.706512 0.000000 0.000000
0.726318 0.000000 0.000000
0.745148 0.000000 0.000000
0.762939 0.000000 0.000000
0.779663 0.000000 0.000000
0.795349 0.000000 0.000000
0.810089 0.000000 0.000000
0.824036 0.000000 0.000000
0.837097 0.000000 0.000000
0.849548 0.000000 0.000000
0.861359 0.000000 0.000000
0.872589 0.000000 0.000000
0.883301 0.000000 0.000000
0.893646 0.000000 0.000000
0.903595 0.000000 0.000000
0.913239 0.000000 0.000000
0.922607 0.000000 0.000000
0.931702 0.000000 0.000000
0.940704 0.000000 0.000000
0.949615 0.000000 0.000000
0.000000 0.000000 0.000000
0.000000 0.000000 0.000000
0.000000 0.000000 0.000000
0.000000 0.000000 0.000000
0.000000 0.000000 0.000000
0.000000 0.000000 0.000000
0.000000 0.000000 0.000000
0.000000 0.000000 0.000000
0.000000 0.000000 0.000000
0.000000 0.000000 0.000000
0.031158 0.000000 0.000000
0.053436 0.000000 0.000000
0.069733 0.000000 0.000000
0.083801 0.000000 0.000000
0.096924 0.000000 0.000000
0.109680 0.000000 0.000000
0.122223 0.000000 0.000000
0.134888 0.000000 0.000000
0.147797 0.000000 0.000000
0.160980 0.000000 0.000000
0.174713 0.000000 0.000000
0.188965 0.000000 0.000000
0.203888 0.000000 0.000000
0.219635 0.000000 0.000000
0.236237 0.000000 0.000000
0.253937 0.000000 0.000000
0.272583 0.000000 0.000000
0.292328 0.000000 0.000000
0.313232 0.000000 0.000000
0.335083 0.000000 0.000000
0.357910 0.000000 0.000000
0.381744 0.000000 0.000000
0.406342 0.000000 0.000000
0.431854 0.000000 0.000000
0.458069 0.000000 0.000000
0.484894 0.000000 0.000000
0.512329 0.000000 0.000000
0.539520 0.000000 0.000000
0.565979 0.000000 0.000000
0.591553 0.000000 0.000000
0.616211 0.000000 0.000000
0.639984 0.000000 0.000000
0.662781 0.000000 0.000000
0.684662 0.000000 0.000000
0.705627 0.000000 0.000000
0.725433 0.000000 0.000000
0.744263 0.000000 0.000000
0.762054 0.000000 0.000000
0.778809 0.000000 0.000000
0.794495 0.000000 0.000000
0.809265 0.000000 0.000000
0.823181 0.000000 0.000000
0.836304 0.000000 0.000000
0.848724 0.000000 0.000000
0.860535 0.000000 0.000000
0.871796 0.000000 0.000000
0.882568 0.000000 0.000000
0.892883 0.000000 0.000000
0.902863 0.000000 0.000000
0.912476 0.000000 0.000000
0.921875 0.000000 0.000000
0.931000 0.000000 0.000000
0.939972 0.000000 0.000000
0.948883 0.000000 0.000000
0.000000 0.000000 0.000000
0.000000 0.000000 0.000000
0.000000 0.000000 0.000000
0.000000 0.000000 0.000000
0.000000 0.000000 0.000000
0.000000 0.000000 0.000000
0.000000 0.000000 0.000000
0.000000 0.000000 0.000000
0.000000 0.000000 0.000000
0.000000 0.000000 0.000000
0.027802 0.000000 0.000000
0.051880 0.000000 0.000000
0.068359 0.000000 0.000000
0.082642 0.000000 0.000000
0.095856 0.000000 0.000000
0.108704 0.000000 0.000000
0.121307 0.000000 0.000000
0.133972 0.000000 0.000000
0.146912 0.000000 0.000000
0.160095 0.000000 0.000000
0.173859 0.000000 0.000000
0.188080 0.000000 0.000000
0.203033 0.000000 0.000000
0.218781 0.000000 0.000000
0.235413 0.000000 0.000000
0.253052 0.000000 0.000000
0.271698 0.000000 0.000000
0.291443 0.000000 0.000000
0.312317 0.000000 0.000000
0.334167 0.000000 0.000000
0.356964 0.000000 0.000000
0.380768 0.000000 0.000000
0.405365 0.000000 0.000000
0.430817 0.000000 0.000000
0.457092 0.000000 0.000000
0.483917 0.000000 0.000000
0.511353 0.000000 0.000000
0.538544 0.000000 0.000000
0.565002 0.000000 0.000000
0.590576 0.000000 0.000000
0.615234 0.000000 0.000000
0.639038 0.000000 0.000000
0.661804 0.000000 0.000000
0.683685 0.000000 0.000000
0.704651 0.000000 0.000000
0.724518 0.000000 0.000000
0.743317 0.000000 0.000000
0.761139 0.000000 0.000000
0.777924 0.000000 0.000000
0.793610 0.000000 0.000000
0.808350 0.000000 0.000000
0.822266 0.000000 0.000000
0.835449 0.000000 0.000000
0.847900 0.000000 0.000000
0.859680 0.000000 0.000000
0.870972 0.000000 0.000000
0.881744 0.000000 0.000000
0.892090 0.000000 0.000000
0.902069 0.000000 0.000000
0.911713 0.000000 0.000000
0.921082 0.000000 0.000000
0.930237 0.000000 0.000000
0.939270 0.000000 0.000000
0.948181 0.000000 0.000000
0.000000 0.000000 0.000000
0.000000 0.000000 0.000000
0.000000 0.000000 0.000000
0.000000 0.000000 0.000000
0.000000 0.000000 0.000000
0.000000 0.000000 0.000000
0.000000 0.000000 0.000000
0.000000 0.000000 0.000000
0.000000 0.000000 0.000000
0.000000 0.000000 0.000000
0.024109 0.000000 0.000000
0.049896 0.000000 0.000000
0.066956 0.000000 0.000000
0.081390 0.000000 0.000000
0.094757 0.000000 0.000000
0.107635 0.000000 0.000000
0.120270 0.000000 0.000000
0.133026 0.000000 0.000000
0.145905 0.000000 0.000000
0.159180 0.000000 0.000000
0.172882 0.000000 0.000000
0.187134 0.000000 0.000000
0.202148 0.000000 0.000000
0.217834 0.000000 0.000000
0.234467 0.000000 0.000000
0.252075 0.000000 0.000000
0.270752 0.000000 0.000000
0.290466 0.000000 0.000000
0.311310 0.000000 0.000000
0.333191 0.000000 0.000000
0.355988 0.000000 0.000000
0.379730 0.000000 0.000000
0.404358 0.000000 0.000000
0.429810 0.000000 0.000000
0.455994 0.000000 0.000000
0.482788 0.000000 0.000000
0.510254 0.000000 0.000000
0.537476 0.000000 0.000000
0.563873 0.000000 0.000000
0.589539 0.000000 0.000000
0.614105 0.000000 0.000000
0.637939 0.000000 0.000000
0.660797 0.000000 0.000000
0.682617 0.000000 0.000000
0.703583 0.000000 0.000000
0.723511 0.000000 0.000000
0.742310 0.000000 0.000000
0.760162 0.000000 0.000000
0.776886 0.000000 0.000000
0.792664 0.000000 0.000000
0.807404 0.000000 0.000000
0.821381 0.000000 0.000000
0.834534 0.000000 0.000000
0.846924 0.000000 0.000000
0.858795 0.000000 0.000000
0.870056 0.000000 0.000000
0.880920 0.000000 0.000000
0.891205 0.000000 0.000000
0.901245 0.000000 0.000000
0.910889 0.000000 0.000000
0.920258 0.000000 0.000000
0.929504 0.000000 0.000000
0.938446 0.000000 0.000000
0.947388 0.000000 0.000000
0.000000 0.000000 0.000000
0.000000 0.000000 0.000000
0.000000 0.000000 0.000000
0.000000 0.000000 0.000000
0.000000 0.000000 0.000000
0.000000 0.000000 0.000000
0.000000 0.000000 0.000000
0.000000 0.000000 0.000000
0.000000 0.000000 0.000000
0.000000 0.000000 0.000000
0.015411 0.000000 0.000000
0.047821 0.000000 0.000000
0.065369 0.000000 0.000000
0.080078 0.000000 0.000000
0.093445 0.000000 0.000000
0.106445 0.000000 0.000000
0.119171 0.000000 0.000000
0.131927 0.000000 0.000000
0.144867 0.000000 0.000000
0.158112 0.000000 0.000000
0.171844 0.000000 0.000000
0.186127 0.000000 0.000000
0.201080 0.000000 0.000000
0.216827 0.000000 0.000000
0.233398 0.000000 0.000000
0.251038 0.000000 0.000000
0.269684 0.000000 0.000000
0.289429 0.000000 0.000000
0.310272 0.000000 0.000000
0.332062 0.000000 0.000000
0.354919 0.000000 0.000000
0.378662 0.000000 0.000000
0.403229 0.000000 0.000000
0.428741 0.000000 0.000000
0.454895 0.000000 0.000000
0.481689 0.000000 0.000000
0.509125 0.000000 0.000000
0.536316 0.000000 0.000000
0.562775 0.000000 0.000000
0.588348 0.000000 0.000000
0.613007 0.000000 0.000000
0.636841 0.000000 0.000000
0.659637 0.000000 0.000000
0.681549 0.000000 0.000000
0.702515 0.000000 0.000000
0.722412 0.000000 0.000000
0.741272 0.000000 0.000000
0.759094 0.000000 0.000000
