custom_nodes/comfyui-vrgamedevgirl/LUTS/High_Contrast_Cinematic_Cine_Grade.cube
#Copyright Tim Martin Presetpro.com StockPresets.com
TITLE "01 - POL - Cine"
#LUT size
LUT_3D_SIZE 8
#LUT data points
0.007843 0.027451 0.039216
0.070588 0.039216 0.039216
0.184314 0.043137 0.043137
0.333333 0.039216 0.066667
0.478431 0.023529 0.074510
0.635294 0.011765 0.090196
0.803922 0.019608 0.094118
0.980392 0.101961 0.113725
0.007843 0.090196 0.054902
0.078431 0.101961 0.047059
0.196078 0.101961 0.054902
0.345098 0.098039 0.070588
0.490196 0.101961 0.078431
0.639216 0.105882 0.090196
0.819608 0.109804 0.098039
0.984314 0.168627 0.121569
0.007843 0.188235 0.078431
0.058824 0.196078 0.070588
0.211765 0.203922 0.054902
0.352941 0.203922 0.058824
0.513725 0.223529 0.094118
0.670588 0.219608 0.098039
0.827451 0.231373 0.105882
0.992157 0.274510 0.117647
0.000000 0.290196 0.090196
0.066667 0.290196 0.090196
0.188235 0.298039 0.066667
0.341176 0.305882 0.035294
0.501961 0.309804 0.047059
0.686275 0.341176 0.094118
0.858824 0.360784 0.113725
0.992157 0.403922 0.125490
0.050980 0.388235 0.094118
0.101961 0.384314 0.098039
0.196078 0.376471 0.090196
0.317647 0.388235 0.050980
0.474510 0.403922 0.003922
0.639216 0.415686 0.003922
0.850980 0.470588 0.027451
1.000000 0.545098 0.133333
0.105882 0.490196 0.086275
0.145098 0.490196 0.090196
0.223529 0.474510 0.094118
0.329412 0.486275 0.047059
0.466667 0.509804 0.000000
0.631373 0.525490 0.003922
0.815686 0.552941 0.000000
1.000000 0.650980 0.000000
0.164706 0.662745 0.000000
0.203922 0.662745 0.007843
0.274510 0.647059 0.003922
0.384314 0.654902 0.000000
0.521569 0.670588 0.000000
0.686275 0.698039 0.000000
0.847059 0.721569 0.003922
0.996078 0.760784 0.000000
0.450980 0.913725 0.000000
0.474510 0.913725 0.000000
0.533333 0.917647 0.003922
0.615686 0.913725 0.000000
0.729412 0.925490 0.003922
0.847059 0.937255 0.000000
0.976471 0.952941 0.000000
1.000000 0.972549 0.000000
0.000000 0.050980 0.113725
0.050980 0.058824 0.117647
0.188235 0.066667 0.129412
0.341176 0.074510 0.141176
0.482353 0.070588 0.149020
0.639216 0.070588 0.152941
0.811765 0.070588 0.156863
0.980392 0.129412 0.172549
0.000000 0.113725 0.129412
0.062745 0.113725 0.137255
0.203922 0.121569 0.141176
0.349020 0.129412 0.149020
0.490196 0.129412 0.141176
0.643137 0.129412 0.152941
0.815686 0.141176 0.164706
0.984314 0.180392 0.176471
0.000000 0.215686 0.141176
0.078431 0.211765 0.145098
0.211765 0.219608 0.129412
0.368627 0.227451 0.141176
0.513725 0.231373 0.152941
0.670588 0.235294 0.160784
0.835294 0.247059 0.160784
0.992157 0.282353 0.176471
0.000000 0.317647 0.141176
0.094118 0.309804 0.149020
0.203922 0.309804 0.141176
0.356863 0.317647 0.109804
0.509804 0.325490 0.121569
0.698039 0.352941 0.164706
0.850980 0.368627 0.168627
0.996078 0.407843 0.180392
0.066667 0.403922 0.149020
0.125490 0.403922 0.145098
0.207843 0.388235 0.137255
0.329412 0.396078 0.113725
0.486275 0.415686 0.078431
0.650980 0.427451 0.070588
0.858824 0.482353 0.121569
1.000000 0.552941 0.196078
0.117647 0.517647 0.129412
0.149020 0.505882 0.125490
0.227451 0.490196 0.125490
0.337255 0.494118 0.113725
0.474510 0.509804 0.043137
0.639216 0.537255 0.003922
0.823529 0.564706 0.000000
1.000000 0.650980 0.007843
0.152941 0.682353 0.039216
0.200000 0.670588 0.043137
0.278431 0.658824 0.035294
0.376471 0.654902 0.003922
0.521569 0.678431 0.000000
0.682353 0.701961 0.000000
0.850980 0.729412 0.000000
0.992157 0.760784 0.007843
0.443137 0.917647 0.066667
0.470588 0.921569 0.070588
0.525490 0.913725 0.062745
0.603922 0.917647 0.058824
0.729412 0.925490 0.003922
0.847059 0.937255 0.000000
0.964706 0.956863 0.000000
1.000000 0.972549 0.000000
0.000000 0.105882 0.223529
0.000000 0.082353 0.227451
0.188235 0.109804 0.247059
0.341176 0.133333 0.250980
0.501961 0.109804 0.250980
0.654902 0.094118 0.243137
0.823529 0.121569 0.254902
0.984314 0.152941 0.270588
0.000000 0.160784 0.231373
0.015686 0.156863 0.250980
0.203922 0.164706 0.258824
0.349020 0.180392 0.258824
0.501961 0.149020 0.247059
0.658824 0.168627 0.254902
0.823529 0.168627 0.254902
0.984314 0.200000 0.270588
0.000000 0.250980 0.254902
0.023529 0.250980 0.254902
0.231373 0.250980 0.266667
0.376471 0.250980 0.262745
0.525490 0.254902 0.266667
0.674510 0.262745 0.258824
0.835294 0.258824 0.258824
0.988235 0.298039 0.270588
0.000000 0.368627 0.250980
0.082353 0.368627 0.254902
0.239216 0.349020 0.258824
0.380392 0.352941 0.243137
0.541176 0.356863 0.254902
0.713725 0.376471 0.278431
0.858824 0.384314 0.270588
1.000000 0.415686 0.278431
0.113725 0.462745 0.250980
0.164706 0.454902 0.254902
0.247059 0.435294 0.247059
0.356863 0.427451 0.231373
0.513725 0.439216 0.203922
0.690196 0.454902 0.211765
0.874510 0.509804 0.254902
0.996078 0.564706 0.294118
0.133333 0.556863 0.223529
0.176471 0.549020 0.219608
0.254902 0.533333 0.219608
0.345098 0.513725 0.203922
0.486275 0.529412 0.160784
0.654902 0.552941 0.117647
0.839216 0.580392 0.109804
1.000000 0.670588 0.192157
0.141176 0.701961 0.168627
0.184314 0.701961 0.164706
0.270588 0.686275 0.152941
0.376471 0.662745 0.133333
0.513725 0.682353 0.086275
0.686275 0.705882 0.000000
0.847059 0.733333 0.000000
1.000000 0.768627 0.000000
0.419608 0.925490 0.188235
0.447059 0.925490 0.184314
0.509804 0.921569 0.176471
0.596078 0.917647 0.172549
0.709804 0.929412 0.149020
0.835294 0.941176 0.011765
0.960784 0.952941 0.000000
0.996078 0.976471 0.000000
0.003922 0.176471 0.352941
0.000000 0.160784 0.368627
0.141176 0.168627 0.384314
0.376471 0.192157 0.396078
0.517647 0.207843 0.400000
0.694118 0.207843 0.403922
0.854902 0.164706 0.388235
0.996078 0.133333 0.376471
0.000000 0.239216 0.360784
0.003922 0.219608 0.368627
0.160784 0.211765 0.388235
0.388235 0.247059 0.403922
0.529412 0.254902 0.407843
0.694118 0.235294 0.407843
0.858824 0.196078 0.388235
0.988235 0.211765 0.380392
0.000000 0.301961 0.364706
0.003922 0.301961 0.364706
0.219608 0.301961 0.384314
0.407843 0.321569 0.419608
0.545098 0.329412 0.419608
0.709804 0.294118 0.403922
0.850980 0.282353 0.380392
0.992157 0.305882 0.388235
0.000000 0.407843 0.403922
0.007843 0.407843 0.396078
0.243137 0.407843 0.403922
0.427451 0.407843 0.423529
0.568627 0.403922 0.411765
0.721569 0.400000 0.407843
0.866667 0.400000 0.392157
0.996078 0.431373 0.400000
0.007843 0.529412 0.392157
0.113725 0.533333 0.400000
0.274510 0.525490 0.388235
0.407843 0.486275 0.380392
0.560784 0.498039 0.368627
0.725490 0.513725 0.380392
0.882353 0.545098 0.407843
1.000000 0.572549 0.411765
0.000000 0.635294 0.341176
0.184314 0.635294 0.372549
0.286275 0.619608 0.356863
0.388235 0.576471 0.341176
0.513725 0.572549 0.317647
0.686275 0.584314 0.290196
0.866667 0.611765 0.298039
0.996078 0.690196 0.376471
0.054902 0.760784 0.309804
0.152941 0.749020 0.305882
0.266667 0.737255 0.294118
0.376471 0.705882 0.266667
0.501961 0.694118 0.235294
0.678431 0.717647 0.188235
0.854902 0.741176 0.098039
0.996078 0.780392 0.133333
0.368627 0.941176 0.313725
0.403922 0.933333 0.317647
0.462745 0.933333 0.305882
0.568627 0.929412 0.298039
0.682353 0.929412 0.278431
0.823529 0.945098 0.235294
0.956863 0.956863 0.125490
1.000000 0.980392 0.000000
0.000000 0.258824 0.498039
0.000000 0.250980 0.501961
0.000000 0.231373 0.525490
0.352941 0.266667 0.556863
0.580392 0.294118 0.572549
0.725490 0.298039 0.564706
0.882353 0.360784 0.584314
1.000000 0.364706 0.588235
0.003922 0.309804 0.498039
0.000000 0.305882 0.498039
0.007843 0.274510 0.521569
0.360784 0.298039 0.552941
0.596078 0.329412 0.572549
0.725490 0.337255 0.568627
0.882353 0.388235 0.584314
0.992157 0.384314 0.580392
0.000000 0.368627 0.494118
0.003922 0.368627 0.498039
0.176471 0.368627 0.525490
0.380392 0.364706 0.560784
0.611765 0.403922 0.584314
0.741176 0.407843 0.572549
0.882353 0.427451 0.588235
0.996078 0.415686 0.572549
0.003922 0.447059 0.501961
0.000000 0.450980 0.501961
0.196078 0.454902 0.517647
0.415686 0.458824 0.545098
0.623529 0.498039 0.592157
0.756863 0.509804 0.592157
0.886275 0.474510 0.564706
0.996078 0.443137 0.529412
0.003922 0.572549 0.545098
0.000000 0.580392 0.549020
0.247059 0.580392 0.556863
0.443137 0.576471 0.572549
0.627451 0.588235 0.584314
0.764706 0.568627 0.564706
0.890196 0.564706 0.549020
1.000000 0.580392 0.533333
0.000000 0.717647 0.537255
0.121569 0.721569 0.549020
0.286275 0.713725 0.529412
0.447059 0.690196 0.537255
0.564706 0.643137 0.498039
0.725490 0.643137 0.474510
0.890196 0.674510 0.513725
0.996078 0.733333 0.560784
0.003922 0.819608 0.482353
0.000000 0.815686 0.478431
0.203922 0.811765 0.474510
0.423529 0.788235 0.470588
0.517647 0.745098 0.407843
0.682353 0.741176 0.376471
0.862745 0.760784 0.329412
1.000000 0.803922 0.392157
0.309804 0.960784 0.498039
0.352941 0.960784 0.494118
0.415686 0.956863 0.482353
0.533333 0.949020 0.462745
0.650980 0.945098 0.439216
0.792157 0.952941 0.411765
0.941176 0.960784 0.349020
0.992157 0.976471 0.243137
0.000000 0.372549 0.662745
0.000000 0.360784 0.662745
0.000000 0.337255 0.678431
0.278431 0.329412 0.690196
0.592157 0.380392 0.725490
0.788235 0.443137 0.749020
0.890196 0.447059 0.729412
0.992157 0.549020 0.760784
0.003922 0.400000 0.650980
0.003922 0.392157 0.658824
0.000000 0.372549 0.670588
0.294118 0.364706 0.701961
0.596078 0.411765 0.725490
0.788235 0.470588 0.741176
0.882353 0.470588 0.729412
0.992157 0.568627 0.760784
0.000000 0.458824 0.647059
0.003922 0.458824 0.650980
0.121569 0.443137 0.662745
0.333333 0.423529 0.690196
0.611765 0.474510 0.733333
0.800000 0.537255 0.749020
0.890196 0.537255 0.745098
0.988235 0.619608 0.764706
0.000000 0.521569 0.627451
0.003922 0.521569 0.639216
0.149020 0.525490 0.658824
0.407843 0.533333 0.686275
0.623529 0.549020 0.725490
0.803922 0.619608 0.752941
0.886275 0.623529 0.752941
0.976471 0.662745 0.768627
0.000000 0.627451 0.658824
0.011765 0.623529 0.658824
0.113725 0.619608 0.670588
0.360784 0.619608 0.666667
0.619608 0.639216 0.721569
0.803922 0.698039 0.764706
0.894118 0.705882 0.760784
0.996078 0.678431 0.745098
0.003922 0.756863 0.698039
0.007843 0.749020 0.701961
0.250980 0.756863 0.705882
0.450980 0.752941 0.713725
0.635294 0.752941 0.721569
0.792157 0.760784 0.749020
0.898039 0.745098 0.725490
0.996078 0.745098 0.705882
0.243137 0.882353 0.705882
0.290196 0.882353 0.713725
0.380392 0.878431 0.701961
0.501961 0.862745 0.701961
0.623529 0.850980 0.686275
0.709804 0.800000 0.627451
0.866667 0.800000 0.588235
1.000000 0.839216 0.658824
0.290196 0.980392 0.686275
0.325490 0.984314 0.682353
0.396078 0.984314 0.674510
0.478431 0.976471 0.654902
0.639216 0.964706 0.650980
0.752941 0.960784 0.607843
0.905882 0.964706 0.560784
1.000000 0.980392 0.501961
0.000000 0.494118 0.823529
0.007843 0.490196 0.831373
0.000000 0.482353 0.827451
0.258824 0.450980 0.850980
0.584314 0.490196 0.858824
0.796078 0.572549 0.874510
0.909804 0.635294 0.882353
0.980392 0.635294 0.874510
0.000000 0.521569 0.815686
0.003922 0.517647 0.823529
0.000000 0.505882 0.835294
0.298039 0.470588 0.847059
0.592157 0.513725 0.862745
0.800000 0.600000 0.878431
0.917647 0.650980 0.890196
0.980392 0.647059 0.870588
0.003922 0.580392 0.819608
0.007843 0.576471 0.823529
0.196078 0.560784 0.823529
0.376471 0.545098 0.843137
0.600000 0.568627 0.862745
0.803922 0.643137 0.878431
0.917647 0.698039 0.890196
0.976471 0.686275 0.886275
0.003922 0.631373 0.803922
0.007843 0.635294 0.807843
0.227451 0.635294 0.819608
0.447059 0.635294 0.831373
0.607843 0.627451 0.854902
0.800000 0.690196 0.878431
0.909804 0.745098 0.894118
0.964706 0.741176 0.878431
0.000000 0.705882 0.803922
0.000000 0.709804 0.807843
0.007843 0.701961 0.796078
0.352941 0.701961 0.811765
0.631373 0.709804 0.839216
0.792157 0.749020 0.882353
0.909804 0.800000 0.890196
0.968627 0.803922 0.898039
0.000000 0.811765 0.819608
0.000000 0.803922 0.823529
0.003922 0.800000 0.815686
0.356863 0.800000 0.823529
0.552941 0.788235 0.827451
0.776471 0.800000 0.862745
0.913725 0.850980 0.901961
0.980392 0.862745 0.901961
0.043137 0.901961 0.854902
0.168627 0.905882 0.847059
0.325490 0.905882 0.850980
0.478431 0.894118 0.854902
0.647059 0.894118 0.862745
0.776471 0.890196 0.870588
0.901961 0.894118 0.898039
0.992157 0.882353 0.870588
0.447059 1.000000 0.866667
0.474510 0.992157 0.866667
0.525490 1.000000 0.870588
0.600000 0.996078 0.870588
0.686275 0.984314 0.866667
0.768627 0.988235 0.850980
0.866667 0.972549 0.803922
1.000000 0.992157 0.768627
0.321569 0.705882 0.960784
0.360784 0.690196 0.964706
0.435294 0.686275 0.968627
0.529412 0.670588 0.968627
0.678431 0.678431 0.968627
0.811765 0.725490 0.976471
0.921569 0.780392 0.976471
0.976471 0.807843 0.976471
0.360784 0.717647 0.960784
0.384314 0.713725 0.964706
0.458824 0.705882 0.968627
0.556863 0.690196 0.972549
0.674510 0.690196 0.976471
0.811765 0.733333 0.972549
0.917647 0.788235 0.972549
0.980392 0.815686 0.972549
0.407843 0.760784 0.964706
0.431373 0.749020 0.956863
0.494118 0.741176 0.952941
0.576471 0.729412 0.960784
0.682353 0.721569 0.968627
0.815686 0.756863 0.972549
0.913725 0.800000 0.972549
0.980392 0.835294 0.976471
0.345098 0.796078 0.956863
0.403922 0.792157 0.952941
0.525490 0.796078 0.964706
0.611765 0.784314 0.968627
0.701961 0.768627 0.972549
0.819608 0.788235 0.972549
0.917647 0.835294 0.972549
0.976471 0.854902 0.976471
0.007843 0.839216 0.952941
0.180392 0.843137 0.956863
0.360784 0.839216 0.960784
0.556863 0.831373 0.960784
0.713725 0.831373 0.972549
0.807843 0.823529 0.972549
0.913725 0.862745 0.972549
0.980392 0.886275 0.980392
0.113725 0.901961 0.964706
0.196078 0.905882 0.964706
0.325490 0.901961 0.968627
0.454902 0.898039 0.968627
0.623529 0.882353 0.976471
0.800000 0.878431 0.976471
0.909804 0.898039 0.980392
0.976471 0.921569 0.980392
0.313725 0.964706 0.980392
0.352941 0.968627 0.972549
0.419608 0.964706 0.976471
0.525490 0.960784 0.976471
0.635294 0.949020 0.976471
0.745098 0.941176 0.976471
0.905882 0.937255 0.988235
0.996078 0.956863 0.992157
0.447059 0.996078 0.984314
0.470588 1.000000 0.988235
0.521569 1.000000 0.988235
0.600000 1.000000 0.984314
0.686275 1.000000 0.988235
0.784314 0.996078 0.988235
0.898039 1.000000 0.996078
0.996078 1.000000 1.000000
