custom_nodes/comfyui-vrgamedevgirl/LUTS/High_Contrast_Vivid_Warm_Cinematic_2.cube
#Created by: Adobe Photoshop Export Color Lookup Plugin
#Copyright: (C) Copyright 2017 PremiumBeat
TITLE "Pocatello"
#LUT size
LUT_3D_SIZE 4
#data domain
DOMAIN_MIN 0.0 0.0 0.0
DOMAIN_MAX 1.0 1.0 1.0
#LUT data points
0.000000 0.000000 0.000000
0.194366 0.000000 0.000000
0.669830 0.000000 0.000000
0.954529 0.000000 0.000000
0.000000 0.135376 0.000000
0.173737 0.141632 0.000000
0.648376 0.164368 0.000000
0.939728 0.177704 0.000000
0.000000 0.687866 0.000000
0.105988 0.692566 0.000000
0.654053 0.703033 0.000000
0.997101 0.707550 0.000000
0.000000 0.999969 0.000000
0.152008 0.999969 0.000000
0.731903 0.999969 0.000000
0.999969 0.999969 0.000000
0.000000 0.000000 0.196869
0.191315 0.000000 0.192657
0.665649 0.000000 0.172089
0.951080 0.000000 0.156647
0.000000 0.137573 0.187439
0.168976 0.144043 0.181091
0.644867 0.166931 0.157074
0.938751 0.179840 0.142334
0.000000 0.689697 0.141571
0.105988 0.694122 0.135406
0.659821 0.703979 0.121704
0.999969 0.708221 0.115936
0.000000 0.999969 0.122620
0.160187 0.999969 0.119415
0.739624 0.999969 0.111847
0.999969 0.999969 0.108551
0.000000 0.000000 0.699371
0.178802 0.000000 0.694489
0.652618 0.000000 0.675079
0.941986 0.000000 0.662720
0.000000 0.145294 0.689148
0.152649 0.152313 0.683075
0.635590 0.174835 0.662994
0.938751 0.186005 0.652740
0.000000 0.694885 0.652283
0.110016 0.698273 0.648682
0.681305 0.706604 0.640320
0.999969 0.710205 0.636963
0.000000 0.999969 0.640869
0.187988 0.999969 0.639008
0.763336 0.999969 0.634552
0.999969 0.999969 0.632629
0.000000 0.000000 0.999969
0.169525 0.000000 0.996826
0.645264 0.000000 0.976898
0.938751 0.000000 0.965179
0.000000 0.150452 0.991089
0.142181 0.157623 0.984863
0.631989 0.179321 0.965454
0.939178 0.189117 0.956543
0.000000 0.697449 0.956207
0.119873 0.700500 0.953033
0.696350 0.708038 0.945679
0.999969 0.711304 0.942719
0.000000 0.999969 0.946167
0.205902 0.999969 0.944489
0.776550 0.999969 0.940552
0.999969 0.999969 0.938751
