custom_nodes/comfyui-vrgamedevgirl/LUTS/High_Contrast_Vivid_Warm_Cinematic_3.cube
#Created by: Adobe Photoshop Export Color Lookup Plugin
TITLE "new.png"
#LUT size
LUT_3D_SIZE 65
#data domain
DOMAIN_MIN 0.0 0.0 0.0
DOMAIN_MAX 1.0 1.0 1.0
#LUT data points
0.000000 0.000000 0.000000
0.010193 0.000000 0.000000
0.020660 0.000000 0.000000
0.031555 0.000000 0.000000
0.042877 0.000000 0.000000
0.054565 0.000000 0.000000
0.066620 0.000000 0.000000
0.079102 0.000000 0.000000
0.091980 0.000000 0.000000
0.105225 0.000000 0.000000
0.118866 0.000000 0.000000
0.132904 0.000000 0.000000
0.147308 0.000000 0.000000
0.162140 0.000000 0.000000
0.177338 0.000000 0.000000
0.192932 0.000000 0.000000
0.208923 0.000000 0.000000
0.225281 0.000000 0.000000
0.242065 0.000000 0.000000
0.259216 0.000000 0.000000
0.276764 0.000000 0.000000
0.294678 0.000000 0.000000
0.313019 0.000000 0.000000
0.331726 0.000000 0.000000
0.350830 0.000000 0.000000
0.370331 0.000000 0.000000
0.390228 0.000000 0.000000
0.410492 0.000000 0.000000
0.431152 0.000000 0.000000
0.452209 0.000000 0.000000
0.473663 0.000000 0.000000
0.495514 0.000000 0.000000
0.517548 0.000000 0.000000
0.539307 0.000000 0.000000
0.560791 0.000000 0.000000
0.581940 0.000000 0.000000
0.602783 0.000000 0.000000
0.623260 0.000000 0.000000
0.643341 0.000000 0.000000
0.663025 0.000000 0.000000
0.682312 0.000000 0.000000
0.701172 0.000000 0.000000
0.719574 0.000000 0.000000
0.737518 0.000000 0.000000
0.755005 0.000000 0.000000
0.772003 0.000000 0.000000
0.788513 0.000000 0.000000
0.804535 0.000000 0.000000
0.820068 0.000000 0.000000
0.835083 0.000000 0.000000
0.849579 0.000000 0.000000
0.863586 0.000000 0.000000
0.877075 0.000000 0.000000
0.890045 0.000000 0.000000
0.902496 0.000000 0.000000
0.914459 0.000000 0.000000
0.925903 0.000000 0.000000
0.936859 0.000000 0.000000
0.947296 0.000000 0.000000
0.957245 0.000000 0.000000
0.966736 0.000000 0.000000
0.975739 0.000000 0.000000
0.984283 0.000000 0.000000
0.992371 0.000000 0.000000
1.000000 0.000000 0.000000
0.000000 0.010193 0.000000
0.010193 0.010193 0.000000
0.020660 0.010193 0.000000
0.031555 0.010193 0.000000
0.042877 0.010193 0.000000
0.054565 0.010193 0.000000
0.066620 0.010193 0.000000
0.079102 0.010193 0.000000
0.091980 0.010193 0.000000
0.105225 0.010193 0.000000
0.118866 0.010193 0.000000
0.132904 0.010193 0.000000
0.147308 0.010193 0.000000
0.162140 0.010193 0.000000
0.177338 0.010193 0.000000
0.192932 0.010193 0.000000
0.208923 0.010193 0.000000
0.225281 0.010193 0.000000
0.242065 0.010193 0.000000
0.259216 0.010193 0.000000
0.276764 0.010193 0.000000
0.294678 0.010193 0.000000
0.313019 0.010193 0.000000
0.331726 0.010193 0.000000
0.350830 0.010193 0.000000
0.370331 0.010193 0.000000
0.390228 0.010193 0.000000
0.410492 0.010193 0.000000
0.431152 0.010193 0.000000
0.452209 0.010193 0.000000
0.473663 0.010193 0.000000
0.495514 0.010193 0.000000
0.517548 0.010193 0.000000
0.539307 0.010193 0.000000
0.560791 0.010193 0.000000
0.581940 0.010193 0.000000
0.602783 0.010193 0.000000
0.623260 0.010193 0.000000
0.643341 0.010193 0.000000
0.663025 0.010193 0.000000
0.682312 0.010193 0.000000
0.701172 0.010193 0.000000
0.719574 0.010193 0.000000
0.737518 0.010193 0.000000
0.755005 0.010193 0.000000
0.772003 0.010193 0.000000
0.788513 0.010193 0.000000
0.804535 0.010193 0.000000
0.820068 0.010193 0.000000
0.835083 0.010193 0.000000
0.849579 0.010193 0.000000
0.863586 0.010193 0.000000
0.877075 0.010193 0.000000
0.890045 0.010193 0.000000
0.902496 0.010193 0.000000
0.914459 0.010193 0.000000
0.925903 0.010193 0.000000
0.936859 0.010193 0.000000
0.947296 0.010193 0.000000
0.957245 0.010193 0.000000
0.966736 0.010193 0.000000
0.975739 0.010193 0.000000
0.984283 0.010193 0.000000
0.992371 0.010193 0.000000
1.000000 0.010193 0.000000
0.000000 0.020660 0.000000
0.010193 0.020660 0.000000
0.020660 0.020660 0.000000
0.031555 0.020660 0.000000
0.042877 0.020660 0.000000
0.054565 0.020660 0.000000
0.066620 0.020660 0.000000
0.079102 0.020660 0.000000
0.091980 0.020660 0.000000
0.105225 0.020660 0.000000
0.118866 0.020660 0.000000
0.132904 0.020660 0.000000
0.147308 0.020660 0.000000
0.162140 0.020660 0.000000
0.177338 0.020660 0.000000
0.192932 0.020660 0.000000
0.208923 0.020660 0.000000
0.225281 0.020660 0.000000
0.242065 0.020660 0.000000
0.259216 0.020660 0.000000
0.276764 0.020660 0.000000
0.294678 0.020660 0.000000
0.313019 0.020660 0.000000
0.331726 0.020660 0.000000
0.350830 0.020660 0.000000
0.370331 0.020660 0.000000
0.390228 0.020660 0.000000
0.410492 0.020660 0.000000
0.431152 0.020660 0.000000
0.452209 0.020660 0.000000
0.473663 0.020660 0.000000
0.495514 0.020660 0.000000
0.517548 0.020660 0.000000
0.539307 0.020660 0.000000
0.560791 0.020660 0.000000
0.581940 0.020660 0.000000
0.602783 0.020660 0.000000
0.623260 0.020660 0.000000
0.643341 0.020660 0.000000
0.663025 0.020660 0.000000
0.682312 0.020660 0.000000
0.701172 0.020660 0.000000
0.719574 0.020660 0.000000
0.737518 0.020660 0.000000
0.755005 0.020660 0.000000
0.772003 0.020660 0.000000
0.788513 0.020660 0.000000
0.804535 0.020660 0.000000
0.820068 0.020660 0.000000
0.835083 0.020660 0.000000
0.849579 0.020660 0.000000
0.863586 0.020660 0.000000
0.877075 0.020660 0.000000
0.890045 0.020660 0.000000
0.902496 0.020660 0.000000
0.914459 0.020660 0.000000
0.925903 0.020660 0.000000
0.936859 0.020660 0.000000
0.947296 0.020660 0.000000
0.957245 0.020660 0.000000
0.966736 0.020660 0.000000
0.975739 0.020660 0.000000
0.984283 0.020660 0.000000
0.992371 0.020660 0.000000
1.000000 0.020660 0.000000
0.000000 0.031555 0.000000
0.010193 0.031555 0.000000
0.020660 0.031555 0.000000
0.031555 0.031555 0.000000
0.042877 0.031555 0.000000
0.054565 0.031555 0.000000
0.066620 0.031555 0.000000
0.079102 0.031555 0.000000
0.091980 0.031555 0.000000
0.105225 0.031555 0.000000
0.118866 0.031555 0.000000
0.132904 0.031555 0.000000
0.147308 0.031555 0.000000
0.162140 0.031555 0.000000
0.177338 0.031555 0.000000
0.192932 0.031555 0.000000
0.208923 0.031555 0.000000
0.225281 0.031555 0.000000
0.242065 0.031555 0.000000
0.259216 0.031555 0.000000
0.276764 0.031555 0.000000
0.294678 0.031555 0.000000
0.313019 0.031555 0.000000
0.331726 0.031555 0.000000
0.350830 0.031555 0.000000
0.370331 0.031555 0.000000
0.390228 0.031555 0.000000
0.410492 0.031555 0.000000
0.431152 0.031555 0.000000
0.452209 0.031555 0.000000
0.473663 0.031555 0.000000
0.495514 0.031555 0.000000
0.517548 0.031555 0.000000
0.539307 0.031555 0.000000
0.560791 0.031555 0.000000
0.581940 0.031555 0.000000
0.602783 0.031555 0.000000
0.623260 0.031555 0.000000
0.643341 0.031555 0.000000
0.663025 0.031555 0.000000
0.682312 0.031555 0.000000
0.701172 0.031555 0.000000
0.719574 0.031555 0.000000
0.737518 0.031555 0.000000
0.755005 0.031555 0.000000
0.772003 0.031555 0.000000
0.788513 0.031555 0.000000
0.804535 0.031555 0.000000
0.820068 0.031555 0.000000
0.835083 0.031555 0.000000
0.849579 0.031555 0.000000
0.863586 0.031555 0.000000
0.877075 0.031555 0.000000
0.890045 0.031555 0.000000
0.902496 0.031555 0.000000
0.914459 0.031555 0.000000
0.925903 0.031555 0.000000
0.936859 0.031555 0.000000
0.947296 0.031555 0.000000
0.957245 0.031555 0.000000
0.966736 0.031555 0.000000
0.975739 0.031555 0.000000
0.984283 0.031555 0.000000
0.992371 0.031555 0.000000
1.000000 0.031555 0.000000
0.000000 0.042877 0.000000
0.010193 0.042877 0.000000
0.020660 0.042877 0.000000
0.031555 0.042877 0.000000
0.042877 0.042877 0.000000
0.054565 0.042877 0.000000
0.066620 0.042877 0.000000
0.079102 0.042877 0.000000
0.091980 0.042877 0.000000
0.105225 0.042877 0.000000
0.118866 0.042877 0.000000
0.132904 0.042877 0.000000
0.147308 0.042877 0.000000
0.162140 0.042877 0.000000
0.177338 0.042877 0.000000
0.192932 0.042877 0.000000
0.208923 0.042877 0.000000
0.225281 0.042877 0.000000
0.242065 0.042877 0.000000
0.259216 0.042877 0.000000
0.276764 0.042877 0.000000
0.294678 0.042877 0.000000
0.313019 0.042877 0.000000
0.331726 0.042877 0.000000
0.350830 0.042877 0.000000
0.370331 0.042877 0.000000
0.390228 0.042877 0.000000
0.410492 0.042877 0.000000
0.431152 0.042877 0.000000
0.452209 0.042877 0.000000
0.473663 0.042877 0.000000
0.495514 0.042877 0.000000
0.517548 0.042877 0.000000
0.539307 0.042877 0.000000
0.560791 0.042877 0.000000
0.581940 0.042877 0.000000
0.602783 0.042877 0.000000
0.623260 0.042877 0.000000
0.643341 0.042877 0.000000
0.663025 0.042877 0.000000
0.682312 0.042877 0.000000
0.701172 0.042877 0.000000
0.719574 0.042877 0.000000
0.737518 0.042877 0.000000
0.755005 0.042877 0.000000
0.772003 0.042877 0.000000
0.788513 0.042877 0.000000
0.804535 0.042877 0.000000
0.820068 0.042877 0.000000
0.835083 0.042877 0.000000
0.849579 0.042877 0.000000
0.863586 0.042877 0.000000
0.877075 0.042877 0.000000
0.890045 0.042877 0.000000
0.902496 0.042877 0.000000
0.914459 0.042877 0.000000
0.925903 0.042877 0.000000
0.936859 0.042877 0.000000
0.947296 0.042877 0.000000
0.957245 0.042877 0.000000
0.966736 0.042877 0.000000
0.975739 0.042877 0.000000
0.984283 0.042877 0.000000
0.992371 0.042877 0.000000
1.000000 0.042877 0.000000
0.000000 0.054565 0.000000
0.010193 0.054565 0.000000
0.020660 0.054565 0.000000
0.031555 0.054565 0.000000
0.042877 0.054565 0.000000
0.054565 0.054565 0.000000
0.066620 0.054565 0.000000
0.079102 0.054565 0.000000
0.091980 0.054565 0.000000
0.105225 0.054565 0.000000
0.118866 0.054565 0.000000
0.132904 0.054565 0.000000
0.147308 0.054565 0.000000
0.162140 0.054565 0.000000
0.177338 0.054565 0.000000
0.192932 0.054565 0.000000
0.208923 0.054565 0.000000
0.225281 0.054565 0.000000
0.242065 0.054565 0.000000
0.259216 0.054565 0.000000
0.276764 0.054565 0.000000
0.294678 0.054565 0.000000
0.313019 0.054565 0.000000
0.331726 0.054565 0.000000
0.350830 0.054565 0.000000
0.370331 0.054565 0.000000
0.390228 0.054565 0.000000
0.410492 0.054565 0.000000
0.431152 0.054565 0.000000
0.452209 0.054565 0.000000
0.473663 0.054565 0.000000
0.495514 0.054565 0.000000
0.517548 0.054565 0.000000
0.539307 0.054565 0.000000
0.560791 0.054565 0.000000
0.581940 0.054565 0.000000
0.602783 0.054565 0.000000
0.623260 0.054565 0.000000
0.643341 0.054565 0.000000
0.663025 0.054565 0.000000
0.682312 0.054565 0.000000
0.701172 0.054565 0.000000
0.719574 0.054565 0.000000
0.737518 0.054565 0.000000
0.755005 0.054565 0.000000
0.772003 0.054565 0.000000
0.788513 0.054565 0.000000
0.804535 0.054565 0.000000
0.820068 0.054565 0.000000
0.835083 0.054565 0.000000
0.849579 0.054565 0.000000
0.863586 0.054565 0.000000
0.877075 0.054565 0.000000
0.890045 0.054565 0.000000
0.902496 0.054565 0.000000
0.914459 0.054565 0.000000
0.925903 0.054565 0.000000
0.936859 0.054565 0.000000
0.947296 0.054565 0.000000
0.957245 0.054565 0.000000
0.966736 0.054565 0.000000
0.975739 0.054565 0.000000
0.984283 0.054565 0.000000
0.992371 0.054565 0.000000
1.000000 0.054565 0.000000
0.000000 0.066620 0.000000
0.010193 0.066620 0.000000
0.020660 0.066620 0.000000
0.031555 0.066620 0.000000
0.042877 0.066620 0.000000
0.054565 0.066620 0.000000
0.066620 0.066620 0.000000
0.079102 0.066620 0.000000
0.091980 0.066620 0.000000
0.105225 0.066620 0.000000
0.118866 0.066620 0.000000
0.132904 0.066620 0.000000
0.147308 0.066620 0.000000
0.162140 0.066620 0.000000
0.177338 0.066620 0.000000
0.192932 0.066620 0.000000
0.208923 0.066620 0.000000
0.225281 0.066620 0.000000
0.242065 0.066620 0.000000
0.259216 0.066620 0.000000
0.276764 0.066620 0.000000
0.294678 0.066620 0.000000
0.313019 0.066620 0.000000
0.331726 0.066620 0.000000
0.350830 0.066620 0.000000
0.370331 0.066620 0.000000
0.390228 0.066620 0.000000
0.410492 0.066620 0.000000
0.431152 0.066620 0.000000
0.452209 0.066620 0.000000
0.473663 0.066620 0.000000
0.495514 0.066620 0.000000
0.517548 0.066620 0.000000
0.539307 0.066620 0.000000
0.560791 0.066620 0.000000
0.581940 0.066620 0.000000
0.602783 0.066620 0.000000
0.623260 0.066620 0.000000
0.643341 0.066620 0.000000
0.663025 0.066620 0.000000
0.682312 0.066620 0.000000
0.701172 0.066620 0.000000
0.719574 0.066620 0.000000
0.737518 0.066620 0.000000
0.755005 0.066620 0.000000
0.772003 0.066620 0.000000
0.788513 0.066620 0.000000
0.804535 0.066620 0.000000
0.820068 0.066620 0.000000
0.835083 0.066620 0.000000
0.849579 0.066620 0.000000
0.863586 0.066620 0.000000
0.877075 0.066620 0.000000
0.890045 0.066620 0.000000
0.902496 0.066620 0.000000
0.914459 0.066620 0.000000
0.925903 0.066620 0.000000
0.936859 0.066620 0.000000
0.947296 0.066620 0.000000
0.957245 0.066620 0.000000
0.966736 0.066620 0.000000
0.975739 0.066620 0.000000
0.984283 0.066620 0.000000
0.992371 0.066620 0.000000
1.000000 0.066620 0.000000
0.000000 0.079102 0.000000
0.010193 0.079102 0.000000
0.020660 0.079102 0.000000
0.031555 0.079102 0.000000
0.042877 0.079102 0.000000
0.054565 0.079102 0.000000
0.066620 0.079102 0.000000
0.079102 0.079102 0.000000
0.091980 0.079102 0.000000
0.105225 0.079102 0.000000
0.118866 0.079102 0.000000
0.132904 0.079102 0.000000
0.147308 0.079102 0.000000
0.162140 0.079102 0.000000
0.177338 0.079102 0.000000
0.192932 0.079102 0.000000
0.208923 0.079102 0.000000
0.225281 0.079102 0.000000
0.242065 0.079102 0.000000
0.259216 0.079102 0.000000
0.276764 0.079102 0.000000
0.294678 0.079102 0.000000
0.313019 0.079102 0.000000
0.331726 0.079102 0.000000
0.350830 0.079102 0.000000
0.370331 0.079102 0.000000
0.390228 0.079102 0.000000
0.410492 0.079102 0.000000
0.431152 0.079102 0.000000
0.452209 0.079102 0.000000
0.473663 0.079102 0.000000
0.495514 0.079102 0.000000
0.517548 0.079102 0.000000
0.539307 0.079102 0.000000
0.560791 0.079102 0.000000
0.581940 0.079102 0.000000
0.602783 0.079102 0.000000
0.623260 0.079102 0.000000
0.643341 0.079102 0.000000
0.663025 0.079102 0.000000
0.682312 0.079102 0.000000
0.701172 0.079102 0.000000
0.719574 0.079102 0.000000
0.737518 0.079102 0.000000
0.755005 0.079102 0.000000
0.772003 0.079102 0.000000
0.788513 0.079102 0.000000
0.804535 0.079102 0.000000
0.820068 0.079102 0.000000
0.835083 0.079102 0.000000
0.849579 0.079102 0.000000
0.863586 0.079102 0.000000
0.877075 0.079102 0.000000
0.890045 0.079102 0.000000
0.902496 0.079102 0.000000
0.914459 0.079102 0.000000
0.925903 0.079102 0.000000
0.936859 0.079102 0.000000
0.947296 0.079102 0.000000
0.957245 0.079102 0.000000
0.966736 0.079102 0.000000
0.975739 0.079102 0.000000
0.984283 0.079102 0.000000
0.992371 0.079102 0.000000
1.000000 0.079102 0.000000
0.000000 0.091980 0.000000
0.010193 0.091980 0.000000
0.020660 0.091980 0.000000
0.031555 0.091980 0.000000
0.042877 0.091980 0.000000
0.054565 0.091980 0.000000
0.066620 0.091980 0.000000
0.079102 0.091980 0.000000
0.091980 0.091980 0.000000
0.105225 0.091980 0.000000
0.118866 0.091980 0.000000
0.132904 0.091980 0.000000
0.147308 0.091980 0.000000
0.162140 0.091980 0.000000
0.177338 0.091980 0.000000
0.192932 0.091980 0.000000
0.208923 0.091980 0.000000
0.225281 0.091980 0.000000
0.242065 0.091980 0.000000
0.259216 0.091980 0.000000
0.276764 0.091980 0.000000
0.294678 0.091980 0.000000
0.313019 0.091980 0.000000
0.331726 0.091980 0.000000
0.350830 0.091980 0.000000
0.370331 0.091980 0.000000
0.390228 0.091980 0.000000
0.410492 0.091980 0.000000
0.431152 0.091980 0.000000
0.452209 0.091980 0.000000
0.473663 0.091980 0.000000
0.495514 0.091980 0.000000
0.517548 0.091980 0.000000
0.539307 0.091980 0.000000
0.560791 0.091980 0.000000
0.581940 0.091980 0.000000
0.602783 0.091980 0.000000
0.623260 0.091980 0.000000
0.643341 0.091980 0.000000
0.663025 0.091980 0.000000
0.682312 0.091980 0.000000
0.701172 0.091980 0.000000
0.719574 0.091980 0.000000
0.737518 0.091980 0.000000
0.755005 0.091980 0.000000
0.772003 0.091980 0.000000
0.788513 0.091980 0.000000
0.804535 0.091980 0.000000
0.820068 0.091980 0.000000
0.835083 0.091980 0.000000
0.849579 0.091980 0.000000
0.863586 0.091980 0.000000
0.877075 0.091980 0.000000
0.890045 0.091980 0.000000
0.902496 0.091980 0.000000
0.914459 0.091980 0.000000
0.925903 0.091980 0.000000
0.936859 0.091980 0.000000
0.947296 0.091980 0.000000
0.957245 0.091980 0.000000
0.966736 0.091980 0.000000
0.975739 0.091980 0.000000
0.984283 0.091980 0.000000
0.992371 0.091980 0.000000
1.000000 0.091980 0.000000
0.000000 0.105225 0.000000
0.010193 0.105225 0.000000
0.020660 0.105225 0.000000
0.031555 0.105225 0.000000
0.042877 0.105225 0.000000
0.054565 0.105225 0.000000
0.066620 0.105225 0.000000
0.079102 0.105225 0.000000
0.091980 0.105225 0.000000
0.105225 0.105225 0.000000
0.118866 0.105225 0.000000
0.132904 0.105225 0.000000
0.147308 0.105225 0.000000
0.162140 0.105225 0.000000
0.177338 0.105225 0.000000
0.192932 0.105225 0.000000
0.208923 0.105225 0.000000
0.225281 0.105225 0.000000
0.242065 0.105225 0.000000
0.259216 0.105225 0.000000
0.276764 0.105225 0.000000
0.294678 0.105225 0.000000
0.313019 0.105225 0.000000
0.331726 0.105225 0.000000
0.350830 0.105225 0.000000
0.370331 0.105225 0.000000
0.390228 0.105225 0.000000
0.410492 0.105225 0.000000
0.431152 0.105225 0.000000
0.452209 0.105225 0.000000
0.473663 0.105225 0.000000
0.495514 0.105225 0.000000
0.517548 0.105225 0.000000
0.539307 0.105225 0.000000
0.560791 0.105225 0.000000
0.581940 0.105225 0.000000
0.602783 0.105225 0.000000
0.623260 0.105225 0.000000
0.643341 0.105225 0.000000
0.663025 0.105225 0.000000
0.682312 0.105225 0.000000
0.701172 0.105225 0.000000
0.719574 0.105225 0.000000
0.737518 0.105225 0.000000
0.755005 0.105225 0.000000
0.772003 0.105225 0.000000
0.788513 0.105225 0.000000
0.804535 0.105225 0.000000
0.820068 0.105225 0.000000
0.835083 0.105225 0.000000
0.849579 0.105225 0.000000
0.863586 0.105225 0.000000
0.877075 0.105225 0.000000
0.890045 0.105225 0.000000
0.902496 0.105225 0.000000
0.914459 0.105225 0.000000
0.925903 0.105225 0.000000
0.936859 0.105225 0.000000
0.947296 0.105225 0.000000
0.957245 0.105225 0.000000
0.966736 0.105225 0.000000
0.975739 0.105225 0.000000
0.984283 0.105225 0.000000
0.992371 0.105225 0.000000
1.000000 0.105225 0.000000
0.000000 0.118866 0.000000
0.010193 0.118866 0.000000
0.020660 0.118866 0.000000
0.031555 0.118866 0.000000
0.042877 0.118866 0.000000
0.054565 0.118866 0.000000
0.066620 0.118866 0.000000
0.079102 0.118866 0.000000
0.091980 0.118866 0.000000
0.105225 0.118866 0.000000
0.118866 0.118866 0.000000
0.132904 0.118866 0.000000
0.147308 0.118866 0.000000
0.162140 0.118866 0.000000
0.177338 0.118866 0.000000
0.192932 0.118866 0.000000
0.208923 0.118866 0.000000
0.225281 0.118866 0.000000
0.242065 0.118866 0.000000
0.259216 0.118866 0.000000
0.276764 0.118866 0.000000
0.294678 0.118866 0.000000
0.313019 0.118866 0.000000
0.331726 0.118866 0.000000
0.350830 0.118866 0.000000
0.370331 0.118866 0.000000
0.390228 0.118866 0.000000
0.410492 0.118866 0.000000
0.431152 0.118866 0.000000
0.452209 0.118866 0.000000
0.473663 0.118866 0.000000
0.495514 0.118866 0.000000
0.517548 0.118866 0.000000
0.539307 0.118866 0.000000
0.560791 0.118866 0.000000
0.581940 0.118866 0.000000
0.602783 0.118866 0.000000
0.623260 0.118866 0.000000
0.643341 0.118866 0.000000
0.663025 0.118866 0.000000
0.682312 0.118866 0.000000
0.701172 0.118866 0.000000
0.719574 0.118866 0.000000
0.737518 0.118866 0.000000
0.755005 0.118866 0.000000
0.772003 0.118866 0.000000
0.788513 0.118866 0.000000
0.804535 0.118866 0.000000
0.820068 0.118866 0.000000
0.835083 0.118866 0.000000
0.849579 0.118866 0.000000
0.863586 0.118866 0.000000
0.877075 0.118866 0.000000
0.890045 0.118866 0.000000
0.902496 0.118866 0.000000
0.914459 0.118866 0.000000
0.925903 0.118866 0.000000
0.936859 0.118866 0.000000
0.947296 0.118866 0.000000
0.957245 0.118866 0.000000
0.966736 0.118866 0.000000
0.975739 0.118866 0.000000
0.984283 0.118866 0.000000
0.992371 0.118866 0.000000
1.000000 0.118866 0.000000
0.000000 0.132904 0.000000
0.010193 0.132904 0.000000
0.020660 0.132904 0.000000
0.031555 0.132904 0.000000
0.042877 0.132904 0.000000
0.054565 0.132904 0.000000
0.066620 0.132904 0.000000
0.079102 0.132904 0.000000
0.091980 0.132904 0.000000
0.105225 0.132904 0.000000
0.118866 0.132904 0.000000
0.132904 0.132904 0.000000
0.147308 0.132904 0.000000
0.162140 0.132904 0.000000
0.177338 0.132904 0.000000
0.192932 0.132904 0.000000
0.208923 0.132904 0.000000
0.225281 0.132904 0.000000
0.242065 0.132904 0.000000
0.259216 0.132904 0.000000
0.276764 0.132904 0.000000
0.294678 0.132904 0.000000
0.313019 0.132904 0.000000
0.331726 0.132904 0.000000
0.350830 0.132904 0.000000
0.370331 0.132904 0.000000
0.390228 0.132904 0.000000
0.410492 0.132904 0.000000
0.431152 0.132904 0.000000
0.452209 0.132904 0.000000
0.473663 0.132904 0.000000
0.495514 0.132904 0.000000
0.517548 0.132904 0.000000
0.539307 0.132904 0.000000
0.560791 0.132904 0.000000
0.581940 0.132904 0.000000
0.602783 0.132904 0.000000
0.623260 0.132904 0.000000
0.643341 0.132904 0.000000
0.663025 0.132904 0.000000
0.682312 0.132904 0.000000
0.701172 0.132904 0.000000
0.719574 0.132904 0.000000
0.737518 0.132904 0.000000
0.755005 0.132904 0.000000
0.772003 0.132904 0.000000
0.788513 0.132904 0.000000
0.804535 0.132904 0.000000
0.820068 0.132904 0.000000
0.835083 0.132904 0.000000
0.849579 0.132904 0.000000
0.863586 0.132904 0.000000
0.877075 0.132904 0.000000
0.890045 0.132904 0.000000
0.902496 0.132904 0.000000
0.914459 0.132904 0.000000
0.925903 0.132904 0.000000
0.936859 0.132904 0.000000
0.947296 0.132904 0.000000
0.957245 0.132904 0.000000
0.966736 0.132904 0.000000
0.975739 0.132904 0.000000
0.984283 0.132904 0.000000
0.992371 0.132904 0.000000
1.000000 0.132904 0.000000
0.000000 0.147308 0.000000
0.010193 0.147308 0.000000
0.020660 0.147308 0.000000
0.031555 0.147308 0.000000
0.042877 0.147308 0.000000
0.054565 0.147308 0.000000
0.066620 0.147308 0.000000
0.079102 0.147308 0.000000
0.091980 0.147308 0.000000
0.105225 0.147308 0.000000
0.118866 0.147308 0.000000
0.132904 0.147308 0.000000
0.147308 0.147308 0.000000
0.162140 0.147308 0.000000
0.177338 0.147308 0.000000
0.192932 0.147308 0.000000
0.208923 0.147308 0.000000
0.225281 0.147308 0.000000
0.242065 0.147308 0.000000
0.259216 0.147308 0.000000
0.276764 0.147308 0.000000
0.294678 0.147308 0.000000
0.313019 0.147308 0.000000
0.331726 0.147308 0.000000
0.350830 0.147308 0.000000
0.370331 0.147308 0.000000
0.390228 0.147308 0.000000
0.410492 0.147308 0.000000
0.431152 0.147308 0.000000
0.452209 0.147308 0.000000
0.473663 0.147308 0.000000
0.495514 0.147308 0.000000
0.517548 0.147308 0.000000
0.539307 0.147308 0.000000
0.560791 0.147308 0.000000
0.581940 0.147308 0.000000
0.602783 0.147308 0.000000
0.623260 0.147308 0.000000
0.643341 0.147308 0.000000
0.663025 0.147308 0.000000
0.682312 0.147308 0.000000
0.701172 0.147308 0.000000
0.719574 0.147308 0.000000
0.737518 0.147308 0.000000
0.755005 0.147308 0.000000
0.772003 0.147308 0.000000
0.788513 0.147308 0.000000
0.804535 0.147308 0.000000
0.820068 0.147308 0.000000
0.835083 0.147308 0.000000
0.849579 0.147308 0.000000
0.863586 0.147308 0.000000
0.877075 0.147308 0.000000
0.890045 0.147308 0.000000
0.902496 0.147308 0.000000
0.914459 0.147308 0.000000
0.925903 0.147308 0.000000
0.936859 0.147308 0.000000
0.947296 0.147308 0.000000
0.957245 0.147308 0.000000
0.966736 0.147308 0.000000
0.975739 0.147308 0.000000
0.984283 0.147308 0.000000
0.992371 0.147308 0.000000
1.000000 0.147308 0.000000
0.000000 0.162140 0.000000
0.010193 0.162140 0.000000
0.020660 0.162140 0.000000
0.031555 0.162140 0.000000
0.042877 0.162140 0.000000
0.054565 0.162140 0.000000
0.066620 0.162140 0.000000
0.079102 0.162140 0.000000
0.091980 0.162140 0.000000
0.105225 0.162140 0.000000
0.118866 0.162140 0.000000
0.132904 0.162140 0.000000
0.147308 0.162140 0.000000
0.162140 0.162140 0.000000
0.177338 0.162140 0.000000
0.192932 0.162140 0.000000
0.208923 0.162140 0.000000
0.225281 0.162140 0.000000
0.242065 0.162140 0.000000
0.259216 0.162140 0.000000
0.276764 0.162140 0.000000
0.294678 0.162140 0.000000
0.313019 0.162140 0.000000
0.331726 0.162140 0.000000
0.350830 0.162140 0.000000
0.370331 0.162140 0.000000
0.390228 0.162140 0.000000
0.410492 0.162140 0.000000
0.431152 0.162140 0.000000
0.452209 0.162140 0.000000
0.473663 0.162140 0.000000
0.495514 0.162140 0.000000
0.517548 0.162140 0.000000
0.539307 0.162140 0.000000
0.560791 0.162140 0.000000
0.581940 0.162140 0.000000
0.602783 0.162140 0.000000
