custom_nodes/comfyui-vrgamedevgirl/LUTS/High_Contrast_Vivid_Warm_Cinematic.cube
#Created by: Adobe Photoshop Export Color Lookup Plugin
TITLE "Contrast_.png"
#LUT size
LUT_3D_SIZE 9
#data domain
DOMAIN_MIN 0.0 0.0 0.0
DOMAIN_MAX 1.0 1.0 1.0
#LUT data points
0.000000 0.000000 0.000000
0.000000 0.000000 0.000000
0.145203 0.000000 0.000000
0.278076 0.000000 0.000000
0.444611 0.000000 0.000000
0.586975 0.000000 0.000000
0.755615 0.000000 0.000000
0.920013 0.000000 0.000000
1.000000 0.000000 0.000000
0.000000 0.000000 0.000000
0.000000 0.000000 0.000000
0.145203 0.000000 0.000000
0.278076 0.000000 0.000000
0.444611 0.000000 0.000000
0.586975 0.000000 0.000000
0.755615 0.000000 0.000000
0.920013 0.000000 0.000000
1.000000 0.000000 0.000000
0.000000 0.145203 0.000000
0.000000 0.145203 0.000000
0.145203 0.145203 0.000000
0.278076 0.145203 0.000000
0.444611 0.145203 0.000000
0.586975 0.145203 0.000000
0.755615 0.145203 0.000000
0.920013 0.145203 0.000000
1.000000 0.145203 0.000000
0.000000 0.278076 0.000000
0.000000 0.278076 0.000000
0.145203 0.278076 0.000000
0.278076 0.278076 0.000000
0.444611 0.278076 0.000000
0.586975 0.278076 0.000000
0.755615 0.278076 0.000000
0.920013 0.278076 0.000000
1.000000 0.278076 0.000000
0.000000 0.444611 0.000000
0.000000 0.444611 0.000000
0.145203 0.444611 0.000000
0.278076 0.444611 0.000000
0.444611 0.444611 0.000000
0.586975 0.444611 0.000000
0.755615 0.444611 0.000000
0.920013 0.444611 0.000000
1.000000 0.444611 0.000000
0.000000 0.586975 0.000000
0.000000 0.586975 0.000000
0.145203 0.586975 0.000000
0.278076 0.586975 0.000000
0.444611 0.586975 0.000000
0.586975 0.586975 0.000000
0.755615 0.586975 0.000000
0.920013 0.586975 0.000000
1.000000 0.586975 0.000000
0.000000 0.755615 0.000000
0.000000 0.755615 0.000000
0.145203 0.755615 0.000000
0.278076 0.755615 0.000000
0.444611 0.755615 0.000000
0.586975 0.755615 0.000000
0.755615 0.755615 0.000000
0.920013 0.755615 0.000000
1.000000 0.755615 0.000000
0.000000 0.920013 0.000000
0.000000 0.920013 0.000000
0.145203 0.920013 0.000000
0.278076 0.920013 0.000000
0.444611 0.920013 0.000000
0.586975 0.920013 0.000000
0.755615 0.920013 0.000000
0.920013 0.920013 0.000000
1.000000 0.920013 0.000000
0.000000 1.000000 0.000000
0.000000 1.000000 0.000000
0.145203 1.000000 0.000000
0.278076 1.000000 0.000000
0.444611 1.000000 0.000000
0.586975 1.000000 0.000000
0.755615 1.000000 0.000000
0.920013 1.000000 0.000000
1.000000 1.000000 0.000000
0.000000 0.000000 0.000000
0.000000 0.000000 0.000000
0.145203 0.000000 0.000000
0.278076 0.000000 0.000000
0.444611 0.000000 0.000000
0.586975 0.000000 0.000000
0.755615 0.000000 0.000000
0.920013 0.000000 0.000000
1.000000 0.000000 0.000000
0.000000 0.000000 0.000000
0.000000 0.000000 0.000000
0.146759 0.000000 0.000000
0.279968 0.000000 0.000000
0.445892 0.000000 0.000000
0.587738 0.000000 0.000000
0.756226 0.000000 0.000000
0.920319 0.000000 0.000000
1.000000 0.000000 0.000000
0.000000 0.145203 0.000000
0.000000 0.147522 0.000000
0.147522 0.147522 0.000000
0.279968 0.142944 0.000000
0.445892 0.140717 0.000000
0.587738 0.139679 0.000000
0.756226 0.139160 0.000000
0.920319 0.138824 0.000000
1.000000 0.138672 0.000000
0.000000 0.278076 0.000000
0.000000 0.280273 0.000000
0.142151 0.280273 0.000000
0.280273 0.280273 0.000000
0.445892 0.276794 0.000000
0.587738 0.275238 0.000000
0.756226 0.274506 0.000000
0.920319 0.274078 0.000000
1.000000 0.273804 0.000000
0.000000 0.444611 0.000000
0.000000 0.445984 0.000000
0.140076 0.445984 0.000000
0.276550 0.445984 0.000000
0.445984 0.445984 0.000000
0.587738 0.444031 0.000000
0.756226 0.443054 0.000000
0.920319 0.442535 0.000000
1.000000 0.442200 0.000000
0.000000 0.586975 0.000000
0.000000 0.587769 0.000000
0.139221 0.587769 0.000000
0.275055 0.587769 0.000000
0.444000 0.587769 0.000000
0.587769 0.587769 0.000000
0.756226 0.586609 0.000000
0.920319 0.585999 0.000000
1.000000 0.585632 0.000000
0.000000 0.755615 0.000000
0.000000 0.756226 0.000000
0.138824 0.756226 0.000000
0.274292 0.756226 0.000000
0.442993 0.756226 0.000000
0.586609 0.756226 0.000000
0.756226 0.756226 0.000000
0.920319 0.755188 0.000000
1.000000 0.754608 0.000000
0.000000 0.920013 0.000000
0.000000 0.920319 0.000000
0.138641 0.920319 0.000000
0.273895 0.920319 0.000000
0.442474 0.920319 0.000000
0.585938 0.920319 0.000000
0.755188 0.920319 0.000000
0.920319 0.920319 0.000000
1.000000 0.919617 0.000000
0.000000 1.000000 0.000000
0.000000 1.000000 0.000000
0.138489 1.000000 0.000000
0.273651 1.000000 0.000000
0.442139 1.000000 0.000000
0.585602 1.000000 0.000000
0.754578 1.000000 0.000000
0.919617 1.000000 0.000000
1.000000 1.000000 0.000000
0.000000 0.000000 0.145203
0.000000 0.000000 0.145203
0.145203 0.000000 0.145203
0.278076 0.000000 0.145203
0.444611 0.000000 0.145203
0.586975 0.000000 0.145203
0.755615 0.000000 0.145203
0.920013 0.000000 0.145203
1.000000 0.000000 0.145203
0.000000 0.000000 0.145203
0.000000 0.000000 0.147522
0.147522 0.000000 0.147522
0.280090 0.000000 0.142700
0.445923 0.000000 0.140656
0.587738 0.000000 0.139648
0.756226 0.000000 0.139099
0.920319 0.000000 0.138824
1.000000 0.000000 0.138672
0.000000 0.145203 0.145203
0.000000 0.147522 0.147522
0.145203 0.145203 0.145203
0.280945 0.140778 0.140778
0.447693 0.133026 0.133026
0.589203 0.127899 0.127899
0.757416 0.124878 0.124878
0.920868 0.123047 0.123047
1.000000 0.121887 0.121887
0.000000 0.278076 0.145203
0.000000 0.280273 0.142151
0.130554 0.283325 0.130554
0.283325 0.283325 0.130554
0.447693 0.274506 0.133026
0.589203 0.269531 0.127899
0.757416 0.266418 0.124878
0.920868 0.264557 0.123047
1.000000 0.263367 0.121887
0.000000 0.444611 0.145203
0.000000 0.445984 0.140076
0.124390 0.448730 0.124390
0.271484 0.448730 0.124390
0.448730 0.448730 0.124390
0.589264 0.442688 0.127167
0.757416 0.439606 0.124878
0.920868 0.437592 0.123047
1.000000 0.436340 0.121887
0.000000 0.586975 0.145203
0.000000 0.587769 0.139221
0.121704 0.589630 0.121704
0.266479 0.589630 0.121704
0.441895 0.589630 0.121704
0.589630 0.589630 0.121704
0.757599 0.585663 0.122528
0.920868 0.583740 0.123047
1.000000 0.582397 0.121887
0.000000 0.755615 0.145203
0.000000 0.756226 0.138824
0.120361 0.757660 0.120361
0.263977 0.757660 0.120361
0.438477 0.757660 0.120361
0.585480 0.757660 0.120361
0.757660 0.757660 0.120361
0.920929 0.754150 0.120239
1.000000 0.752228 0.121460
0.000000 0.920013 0.145203
0.000000 0.920319 0.138641
0.119659 0.920929 0.119659
0.262604 0.920929 0.119659
0.436615 0.920929 0.119659
0.583252 0.920929 0.119659
0.754059 0.920929 0.119659
0.920929 0.920929 0.119659
1.000000 0.918488 0.119202
0.000000 1.000000 0.145203
0.000000 1.000000 0.138489
0.119202 1.000000 0.119202
0.261810 1.000000 0.119202
0.435455 1.000000 0.119202
0.581879 1.000000 0.119202
0.751892 1.000000 0.119202
0.918488 1.000000 0.119202
1.000000 1.000000 0.119202
0.000000 0.000000 0.278076
0.000000 0.000000 0.278076
0.145203 0.000000 0.278076
0.278076 0.000000 0.278076
0.444611 0.000000 0.278076
0.586975 0.000000 0.278076
0.755615 0.000000 0.278076
0.920013 0.000000 0.278076
1.000000 0.000000 0.278076
0.000000 0.000000 0.278076
0.000000 0.000000 0.280273
0.142151 0.000000 0.280273
0.280273 0.000000 0.280273
0.445923 0.000000 0.276703
0.587738 0.000000 0.275208
0.756226 0.000000 0.274475
0.920319 0.000000 0.274048
1.000000 0.000000 0.273773
0.000000 0.145203 0.278076
0.000000 0.142151 0.280273
0.130554 0.130554 0.283325
0.283325 0.130554 0.283325
0.448090 0.130188 0.273529
0.589294 0.126801 0.268951
0.757507 0.124329 0.266144
0.920868 0.122772 0.264404
1.000000 0.121704 0.263275
0.000000 0.278076 0.278076
0.000000 0.280273 0.280273
0.130554 0.283325 0.283325
0.278076 0.278076 0.278076
0.447601 0.273499 0.273499
0.590271 0.264526 0.264526
0.758881 0.256897 0.256897
0.921661 0.251587 0.251587
1.000000 0.247894 0.247894
0.000000 0.444611 0.278076
0.000000 0.445984 0.276550
0.124390 0.448730 0.271484
0.258057 0.450867 0.258057
0.450867 0.450867 0.258057
0.590271 0.441589 0.264526
0.758881 0.435455 0.256897
0.921661 0.430817 0.251587
1.000000 0.427582 0.247894
0.000000 0.586975 0.278076
0.000000 0.587769 0.275055
0.121704 0.589630 0.266479
0.248322 0.592072 0.248322
0.436737 0.592072 0.248322
0.592072 0.592072 0.248322
0.759216 0.584320 0.252899
0.921661 0.580688 0.251587
1.000000 0.577698 0.247894
0.000000 0.755615 0.278076
0.000000 0.756226 0.274292
0.120361 0.757660 0.263977
0.243225 0.759918 0.243225
0.429199 0.759918 0.243225
0.582977 0.759918 0.243225
0.759918 0.759918 0.243225
0.921906 0.752167 0.243713
1.000000 0.748749 0.247681
0.000000 0.920013 0.278076
0.000000 0.920319 0.273895
0.119659 0.920929 0.262604
0.240387 0.921967 0.240387
0.424927 0.921967 0.240387
0.577942 0.921967 0.240387
0.751770 0.921967 0.240387
0.921967 0.921967 0.240387
1.000000 0.916382 0.238770
0.000000 1.000000 0.278076
0.000000 1.000000 0.273651
0.119202 1.000000 0.261810
0.238647 1.000000 0.238647
0.422272 1.000000 0.238647
0.574921 1.000000 0.238647
0.746796 1.000000 0.238647
0.916382 1.000000 0.238647
1.000000 1.000000 0.238647
0.000000 0.000000 0.444611
0.000000 0.000000 0.444611
0.145203 0.000000 0.444611
0.278076 0.000000 0.444611
0.444611 0.000000 0.444611
0.586975 0.000000 0.444611
0.755615 0.000000 0.444611
0.920013 0.000000 0.444611
1.000000 0.000000 0.444611
0.000000 0.000000 0.444611
0.000000 0.000000 0.445984
0.140076 0.000000 0.445984
0.276550 0.000000 0.445984
0.445984 0.000000 0.445984
0.587769 0.000000 0.444031
0.756226 0.000000 0.443024
0.920319 0.000000 0.442505
1.000000 0.000000 0.442200
0.000000 0.145203 0.444611
0.000000 0.140076 0.445984
0.124390 0.124390 0.448730
0.271484 0.124390 0.448730
0.448730 0.124390 0.448730
0.589447 0.124756 0.442352
0.757538 0.123413 0.439240
0.920868 0.122253 0.437347
1.000000 0.121429 0.436188
0.000000 0.278076 0.444611
0.000000 0.276550 0.445984
0.124390 0.271484 0.448730
0.258057 0.258057 0.450867
0.450867 0.258057 0.450867
0.591064 0.258606 0.439880
0.759125 0.253937 0.434082
0.921722 0.249847 0.429901
1.000000 0.246887 0.426971
0.000000 0.444611 0.444611
0.000000 0.445984 0.445984
0.124390 0.448730 0.448730
0.258057 0.450867 0.450867
0.444611 0.444611 0.444611
0.589417 0.441528 0.441528
0.759186 0.434418 0.434418
0.922119 0.427032 0.427032
1.000000 0.420807 0.420807
0.000000 0.586975 0.444611
0.000000 0.587769 0.444000
0.121704 0.589630 0.441895
0.248322 0.592072 0.436737
0.426086 0.592896 0.426086
0.592896 0.592896 0.426086
0.759186 0.584625 0.434418
0.922119 0.579041 0.427032
1.000000 0.574158 0.420807
0.000000 0.755615 0.444611
0.000000 0.756226 0.442993
0.120361 0.757660 0.438477
0.243225 0.759918 0.429199
0.414124 0.761963 0.414124
0.578522 0.761963 0.414124
0.761963 0.761963 0.414124
0.922668 0.750671 0.418762
1.000000 0.746216 0.420807
0.000000 0.920013 0.444611
0.000000 0.920319 0.442474
0.119659 0.920929 0.436615
0.240387 0.921967 0.424927
0.406952 0.923248 0.406952
0.570160 0.923248 0.406952
0.748138 0.923248 0.406952
0.923248 0.923248 0.406952
1.000000 0.913757 0.405609
0.000000 1.000000 0.444611
0.000000 1.000000 0.442139
0.119202 1.000000 0.435455
0.238647 1.000000 0.422272
0.402313 1.000000 0.402313
0.564911 1.000000 0.402313
0.739349 1.000000 0.402313
0.913269 1.000000 0.402313
1.000000 1.000000 0.402313
0.000000 0.000000 0.586975
0.000000 0.000000 0.586975
0.145203 0.000000 0.586975
0.278076 0.000000 0.586975
0.444611 0.000000 0.586975
0.586975 0.000000 0.586975
0.755615 0.000000 0.586975
0.920013 0.000000 0.586975
1.000000 0.000000 0.586975
0.000000 0.000000 0.586975
0.000000 0.000000 0.587769
0.139221 0.000000 0.587769
0.275055 0.000000 0.587769
0.444000 0.000000 0.587769
0.587769 0.000000 0.587769
0.756226 0.000000 0.586609
0.920319 0.000000 0.585968
1.000000 0.000000 0.585602
0.000000 0.145203 0.586975
0.000000 0.139221 0.587769
0.121704 0.121704 0.589630
0.266479 0.121704 0.589630
0.441895 0.121704 0.589630
0.589630 0.121704 0.589630
0.757599 0.122101 0.585632
0.920868 0.121552 0.583496
1.000000 0.121002 0.582214
0.000000 0.278076 0.586975
0.000000 0.275055 0.587769
0.121704 0.266479 0.589630
0.248322 0.248322 0.592072
0.436737 0.248322 0.592072
0.592072 0.248322 0.592072
0.759491 0.249451 0.583893
0.921783 0.247437 0.579681
1.000000 0.245361 0.576904
0.000000 0.444611 0.586975
0.000000 0.444000 0.587769
0.121704 0.441895 0.589630
0.248322 0.436737 0.592072
0.426086 0.426086 0.592896
0.592896 0.426086 0.592896
0.760468 0.426971 0.582428
0.922455 0.422363 0.576935
1.000000 0.417694 0.572540
0.000000 0.586975 0.586975
0.000000 0.587769 0.587769
0.121704 0.589630 0.589630
0.248322 0.592072 0.592072
0.426086 0.592896 0.592896
0.586975 0.586975 0.586975
0.757843 0.584991 0.584991
0.921906 0.580231 0.580231
1.000000 0.574921 0.574921
0.000000 0.755615 0.586975
0.000000 0.756226 0.586609
0.120361 0.757660 0.585480
0.243225 0.759918 0.582977
0.414124 0.761963 0.578522
0.573151 0.761688 0.573151
0.761688 0.761688 0.573151
0.921906 0.752991 0.580231
1.000000 0.746796 0.574921
0.000000 0.920013 0.586975
0.000000 0.920319 0.585938
0.119659 0.920929 0.583252
0.240387 0.921967 0.577942
0.406952 0.923248 0.570160
0.562958 0.923920 0.562958
0.744476 0.923920 0.562958
0.923920 0.923920 0.562958
1.000000 0.913452 0.565460
0.000000 1.000000 0.586975
0.000000 1.000000 0.585602
0.119202 1.000000 0.581879
0.238647 1.000000 0.574921
0.402313 1.000000 0.564911
0.556152 1.000000 0.556152
0.732788 1.000000 0.556152
0.910583 1.000000 0.556152
1.000000 1.000000 0.556152
0.000000 0.000000 0.755615
0.000000 0.000000 0.755615
0.145203 0.000000 0.755615
0.278076 0.000000 0.755615
0.444611 0.000000 0.755615
0.586975 0.000000 0.755615
0.755615 0.000000 0.755615
0.920013 0.000000 0.755615
1.000000 0.000000 0.755615
0.000000 0.000000 0.755615
0.000000 0.000000 0.756226
0.138824 0.000000 0.756226
0.274292 0.000000 0.756226
0.442993 0.000000 0.756226
0.586609 0.000000 0.756226
0.756226 0.000000 0.756226
0.920319 0.000000 0.755188
1.000000 0.000000 0.754608
0.000000 0.145203 0.755615
0.000000 0.138824 0.756226
0.120361 0.120361 0.757660
0.263977 0.120361 0.757660
0.438477 0.120361 0.757660
0.585480 0.120361 0.757660
0.757660 0.120361 0.757660
0.920929 0.120667 0.754150
1.000000 0.120453 0.752075
0.000000 0.278076 0.755615
0.000000 0.274292 0.756226
0.120361 0.263977 0.757660
0.243225 0.243225 0.759918
0.429199 0.243225 0.759918
0.582977 0.243225 0.759918
0.759918 0.243225 0.759918
0.921875 0.244202 0.752228
1.000000 0.243408 0.747772
0.000000 0.444611 0.755615
0.000000 0.442993 0.756226
0.120361 0.438477 0.757660
0.243225 0.429199 0.759918
0.414124 0.414124 0.761963
0.578522 0.414124 0.761963
0.761963 0.414124 0.761963
0.922821 0.415710 0.750000
1.000000 0.413513 0.743439
0.000000 0.586975 0.755615
0.000000 0.586609 0.756226
0.120361 0.585480 0.757660
0.243225 0.582977 0.759918
0.414124 0.578522 0.761963
0.573151 0.573151 0.761688
0.761688 0.573151 0.761688
0.922821 0.573578 0.749786
1.000000 0.570190 0.743256
0.000000 0.755615 0.755615
0.000000 0.756226 0.756226
0.120361 0.757660 0.757660
0.243225 0.759918 0.759918
0.414124 0.761963 0.761963
0.573151 0.761688 0.761688
0.755615 0.755615 0.755615
0.921143 0.753845 0.753845
1.000000 0.749664 0.749664
0.000000 0.920013 0.755615
0.000000 0.920319 0.755188
0.119659 0.920929 0.754059
0.240387 0.921967 0.751770
0.406952 0.923248 0.748138
0.562958 0.923920 0.744476
0.742981 0.923218 0.742981
0.923218 0.923218 0.742981
1.000000 0.917542 0.749664
0.000000 1.000000 0.755615
0.000000 1.000000 0.754578
0.119202 1.000000 0.751892
0.238647 1.000000 0.746796
0.402313 1.000000 0.739349
0.556152 1.000000 0.732788
0.731354 1.000000 0.731354
0.910004 1.000000 0.731354
1.000000 1.000000 0.731354
0.000000 0.000000 0.920013
0.000000 0.000000 0.920013
0.145203 0.000000 0.920013
0.278076 0.000000 0.920013
0.444611 0.000000 0.920013
0.586975 0.000000 0.920013
0.755615 0.000000 0.920013
0.920013 0.000000 0.920013
1.000000 0.000000 0.920013
0.000000 0.000000 0.920013
0.000000 0.000000 0.920319
0.138641 0.000000 0.920319
0.273895 0.000000 0.920319
0.442474 0.000000 0.920319
0.585938 0.000000 0.920319
0.755188 0.000000 0.920319
0.920319 0.000000 0.920319
1.000000 0.000000 0.919617
0.000000 0.145203 0.920013
0.000000 0.138641 0.920319
0.119659 0.119659 0.920929
0.262604 0.119659 0.920929
0.436615 0.119659 0.920929
0.583252 0.119659 0.920929
0.754059 0.119659 0.920929
0.920929 0.119659 0.920929
1.000000 0.119873 0.918518
0.000000 0.278076 0.920013
0.000000 0.273895 0.920319
0.119659 0.262604 0.920929
0.240387 0.240387 0.921967
0.424927 0.240387 0.921967
0.577942 0.240387 0.921967
0.751770 0.240387 0.921967
0.921967 0.240387 0.921967
1.000000 0.241150 0.916565
0.000000 0.444611 0.920013
0.000000 0.442474 0.920319
0.119659 0.436615 0.920929
0.240387 0.424927 0.921967
0.406952 0.406952 0.923248
0.570160 0.406952 0.923248
0.748138 0.406952 0.923248
0.923248 0.406952 0.923248
1.000000 0.408356 0.914215
0.000000 0.586975 0.920013
0.000000 0.585938 0.920319
0.119659 0.583252 0.920929
0.240387 0.577942 0.921967
0.406952 0.570160 0.923248
0.562958 0.562958 0.923920
0.744476 0.562958 0.923920
0.923920 0.562958 0.923920
1.000000 0.563965 0.912994
0.000000 0.755615 0.920013
0.000000 0.755188 0.920319
0.119659 0.754059 0.920929
0.240387 0.751770 0.921967
0.406952 0.748138 0.923248
0.562958 0.744476 0.923920
0.742981 0.742981 0.923218
0.923218 0.742981 0.923218
1.000000 0.742371 0.914520
0.000000 0.920013 0.920013
0.000000 0.920319 0.920319
0.119659 0.920929 0.920929
0.240387 0.921967 0.921967
0.406952 0.923248 0.923248
0.562958 0.923920 0.923920
0.742981 0.923218 0.923218
0.920013 0.920013 0.920013
1.000000 0.918884 0.918884
0.000000 1.000000 0.920013
0.000000 1.000000 0.919617
0.119202 1.000000 0.918488
0.238647 1.000000 0.916382
0.402313 1.000000 0.913269
0.556152 1.000000 0.910583
0.731354 1.000000 0.910004
0.913025 1.000000 0.913025
1.000000 1.000000 0.913025
0.000000 0.000000 1.000000
0.000000 0.000000 1.000000
0.145203 0.000000 1.000000
0.278076 0.000000 1.000000
0.444611 0.000000 1.000000
0.586975 0.000000 1.000000
0.755615 0.000000 1.000000
0.920013 0.000000 1.000000
1.000000 0.000000 1.000000
0.000000 0.000000 1.000000
0.000000 0.000000 1.000000
0.138489 0.000000 1.000000
0.273651 0.000000 1.000000
0.442139 0.000000 1.000000
0.585602 0.000000 1.000000
0.754578 0.000000 1.000000
0.919617 0.000000 1.000000
1.000000 0.000000 1.000000
0.000000 0.145203 1.000000
0.000000 0.138489 1.000000
0.119202 0.119202 1.000000
0.261810 0.119202 1.000000
0.435455 0.119202 1.000000
0.581879 0.119202 1.000000
0.751892 0.119202 1.000000
0.918488 0.119202 1.000000
1.000000 0.119202 1.000000
0.000000 0.278076 1.000000
0.000000 0.273651 1.000000
0.119202 0.261810 1.000000
0.238647 0.238647 1.000000
0.422272 0.238647 1.000000
0.574921 0.238647 1.000000
0.746796 0.238647 1.000000
0.916382 0.238647 1.000000
1.000000 0.238647 1.000000
0.000000 0.444611 1.000000
0.000000 0.442139 1.000000
0.119202 0.435455 1.000000
0.238647 0.422272 1.000000
0.402313 0.402313 1.000000
0.564911 0.402313 1.000000
0.739349 0.402313 1.000000
0.913269 0.402313 1.000000
1.000000 0.402313 1.000000
0.000000 0.586975 1.000000
0.000000 0.585602 1.000000
0.119202 0.581879 1.000000
0.238647 0.574921 1.000000
0.402313 0.564911 1.000000
0.556152 0.556152 1.000000
0.732788 0.556152 1.000000
0.910583 0.556152 1.000000
1.000000 0.556152 1.000000
0.000000 0.755615 1.000000
0.000000 0.754578 1.000000
0.119202 0.751892 1.000000
0.238647 0.746796 1.000000
0.402313 0.739349 1.000000
0.556152 0.732788 1.000000
0.731354 0.731354 1.000000
0.910004 0.731354 1.000000
1.000000 0.731354 1.000000
0.000000 0.920013 1.000000
0.000000 0.919617 1.000000
0.119202 0.918488 1.000000
0.238647 0.916382 1.000000
0.402313 0.913269 1.000000
0.556152 0.910583 1.000000
0.731354 0.910004 1.000000
0.913025 0.913025 1.000000
1.000000 0.913025 1.000000
0.000000 1.000000 1.000000
0.000000 1.000000 1.000000
0.119202 1.000000 1.000000
0.238647 1.000000 1.000000
0.402313 1.000000 1.000000
0.556152 1.000000 1.000000
0.731354 1.000000 1.000000
0.913025 1.000000 1.000000
1.000000 1.000000 1.000000
