custom_nodes/comfyui-vrgamedevgirl/LUTS/High_Contrast_Vivid_Warm_Cinematic.cube
#Created by: Adobe Photoshop Export Color Lookup Plugin
TITLE "Contrast_.png"
#LUT size
LUT_3D_SIZE 5
#data domain
DOMAIN_MIN 0.0 0.0 0.0
DOMAIN_MAX 1.0 1.0 1.0
#LUT data points
0.000000 0.000000 0.000000
0.145203 0.000000 0.000000
0.444611 0.000000 0.000000
0.755615 0.000000 0.000000
1.000000 0.000000 0.000000
0.000000 0.145203 0.000000
0.145203 0.145203 0.000000
0.444611 0.145203 0.000000
0.755615 0.145203 0.000000
1.000000 0.145203 0.000000
0.000000 0.444611 0.000000
0.145203 0.444611 0.000000
0.444611 0.444611 0.000000
0.755615 0.444611 0.000000
1.000000 0.444611 0.000000
0.000000 0.755615 0.000000
0.145203 0.755615 0.000000
0.444611 0.755615 0.000000
0.755615 0.755615 0.000000
1.000000 0.755615 0.000000
0.000000 1.000000 0.000000
0.145203 1.000000 0.000000
0.444611 1.000000 0.000000
0.755615 1.000000 0.000000
1.000000 1.000000 0.000000
0.000000 0.000000 0.145203
0.145203 0.000000 0.145203
0.444611 0.000000 0.145203
0.755615 0.000000 0.145203
1.000000 0.000000 0.145203
0.000000 0.145203 0.145203
0.145203 0.145203 0.145203
0.447693 0.133026 0.133026
0.757416 0.124878 0.124878
1.000000 0.121887 0.121887
0.000000 0.444611 0.145203
0.124390 0.448730 0.124390
0.448730 0.448730 0.124390
0.757416 0.439606 0.124878
1.000000 0.436340 0.121887
0.000000 0.755615 0.145203
0.120361 0.757660 0.120361
0.438477 0.757660 0.120361
0.757660 0.757660 0.120361
1.000000 0.752228 0.121460
0.000000 1.000000 0.145203
0.119202 1.000000 0.119202
0.435455 1.000000 0.119202
0.751892 1.000000 0.119202
1.000000 1.000000 0.119202
0.000000 0.000000 0.444611
0.145203 0.000000 0.444611
0.444611 0.000000 0.444611
0.755615 0.000000 0.444611
1.000000 0.000000 0.444611
0.000000 0.145203 0.444611
0.124390 0.124390 0.448730
0.448730 0.124390 0.448730
0.757538 0.123413 0.439240
1.000000 0.121429 0.436188
0.000000 0.444611 0.444611
0.124390 0.448730 0.448730
0.444611 0.444611 0.444611
0.759186 0.434418 0.434418
1.000000 0.420807 0.420807
0.000000 0.755615 0.444611
0.120361 0.757660 0.438477
0.414124 0.761963 0.414124
0.761963 0.761963 0.414124
1.000000 0.746216 0.420807
0.000000 1.000000 0.444611
0.119202 1.000000 0.435455
0.402313 1.000000 0.402313
0.739349 1.000000 0.402313
1.000000 1.000000 0.402313
0.000000 0.000000 0.755615
0.145203 0.000000 0.755615
0.444611 0.000000 0.755615
0.755615 0.000000 0.755615
1.000000 0.000000 0.755615
0.000000 0.145203 0.755615
0.120361 0.120361 0.757660
0.438477 0.120361 0.757660
0.757660 0.120361 0.757660
1.000000 0.120453 0.752075
0.000000 0.444611 0.755615
0.120361 0.438477 0.757660
0.414124 0.414124 0.761963
0.761963 0.414124 0.761963
1.000000 0.413513 0.743439
0.000000 0.755615 0.755615
0.120361 0.757660 0.757660
0.414124 0.761963 0.761963
0.755615 0.755615 0.755615
1.000000 0.749664 0.749664
0.000000 1.000000 0.755615
0.119202 1.000000 0.751892
0.402313 1.000000 0.739349
0.731354 1.000000 0.731354
1.000000 1.000000 0.731354
0.000000 0.000000 1.000000
0.145203 0.000000 1.000000
0.444611 0.000000 1.000000
0.755615 0.000000 1.000000
1.000000 0.000000 1.000000
0.000000 0.145203 1.000000
0.119202 0.119202 1.000000
0.435455 0.119202 1.000000
0.751892 0.119202 1.000000
1.000000 0.119202 1.000000
0.000000 0.444611 1.000000
0.119202 0.435455 1.000000
0.402313 0.402313 1.000000
0.739349 0.402313 1.000000
1.000000 0.402313 1.000000
0.000000 0.755615 1.000000
0.119202 0.751892 1.000000
0.402313 0.739349 1.000000
0.731354 0.731354 1.000000
1.000000 0.731354 1.000000
0.000000 1.000000 1.000000
0.119202 1.000000 1.000000
0.402313 1.000000 1.000000
0.731354 1.000000 1.000000
1.000000 1.000000 1.000000
