custom_nodes/comfyui-vrgamedevgirl/LUTS/High_Contrast_Cinematic.cube
#Created by: Adobe Photoshop Export Color Lookup Plugin
#Copyright: (C) Copyright 2017 PremiumBeat
TITLE "Seattle"
#LUT size
LUT_3D_SIZE 64
#data domain
DOMAIN_MIN 0.0 0.0 0.0
DOMAIN_MAX 1.0 1.0 1.0
#LUT data points
0.042084 0.047272 0.048737
0.046143 0.047363 0.048828
0.051056 0.047943 0.049438
0.057312 0.049744 0.051117
0.063904 0.051636 0.053040
0.070892 0.053802 0.055176
0.078308 0.056152 0.057495
0.086090 0.058655 0.059967
0.094208 0.061249 0.062469
0.102753 0.063843 0.065063
0.111725 0.066467 0.067688
0.121155 0.069183 0.070343
0.131104 0.071686 0.072845
0.141418 0.074036 0.075165
0.152252 0.076141 0.077301
0.163635 0.078003 0.079132
0.175537 0.079468 0.080658
0.188019 0.080475 0.081665
0.201080 0.080963 0.082123
0.214783 0.080841 0.082031
0.229218 0.080170 0.081451
0.244293 0.079193 0.080475
0.260162 0.078369 0.079681
0.276733 0.078644 0.079926
0.294159 0.080933 0.082184
0.312347 0.083588 0.084808
0.331451 0.086456 0.087646
0.351318 0.089539 0.090698
0.372253 0.092865 0.093994
0.394104 0.096405 0.097504
0.416962 0.100250 0.101318
0.440979 0.104401 0.105438
0.466095 0.108917 0.109894
0.492279 0.113678 0.114563
0.519653 0.118805 0.119659
0.547821 0.124146 0.125000
0.576324 0.129730 0.130554
0.604797 0.135406 0.136139
0.633423 0.141205 0.141907
0.662079 0.147064 0.147736
0.690521 0.152954 0.153625
0.718384 0.158844 0.159485
0.745331 0.164581 0.165192
0.771118 0.170135 0.170715
0.795624 0.175446 0.175995
0.818420 0.180420 0.180969
0.839508 0.185089 0.185608
0.858612 0.189301 0.189819
0.875732 0.193115 0.193604
0.890564 0.196442 0.196899
0.903137 0.199219 0.199677
0.913300 0.201508 0.201965
0.920959 0.203217 0.203705
0.926086 0.204407 0.204834
0.928955 0.205048 0.205505
0.929840 0.205231 0.205688
0.929108 0.205078 0.205536
0.926971 0.204590 0.205048
0.923737 0.203857 0.204315
0.919525 0.202911 0.203369
0.914581 0.201782 0.202271
0.909180 0.200562 0.201050
0.903381 0.199280 0.199738
0.897369 0.197937 0.198395
0.042908 0.052063 0.049500
0.046936 0.052094 0.049561
0.051208 0.052155 0.049591
0.057129 0.053467 0.050903
0.063690 0.055328 0.052795
0.070709 0.057373 0.054932
0.078094 0.059723 0.057220
0.085876 0.062073 0.059753
0.093964 0.064545 0.062256
0.102539 0.067108 0.064850
0.111542 0.069763 0.067505
0.120941 0.072327 0.070160
0.130859 0.074799 0.072693
0.141174 0.077148 0.075043
0.152008 0.079315 0.077148
0.163391 0.081238 0.079041
0.175262 0.082733 0.080566
0.187744 0.083771 0.081573
0.200836 0.084320 0.082092
0.214508 0.084320 0.082001
0.228943 0.083801 0.081451
0.244049 0.082977 0.080566
0.259918 0.082275 0.079742
0.276520 0.082581 0.080048
0.293945 0.084778 0.082306
0.312164 0.087372 0.084930
0.331238 0.090179 0.087769
0.351196 0.093140 0.090820
0.372101 0.096375 0.094086
0.393951 0.099854 0.097626
0.416840 0.103607 0.101410
0.440887 0.107666 0.105560
0.465973 0.112030 0.109985
0.492188 0.116669 0.114685
0.519592 0.121643 0.119751
0.547791 0.126953 0.125092
0.576294 0.132416 0.130646
0.604736 0.137939 0.136200
0.633392 0.143646 0.141998
0.662018 0.149414 0.147797
0.690521 0.155273 0.153687
0.718353 0.161041 0.159515
0.745300 0.166718 0.165253
0.771118 0.172180 0.170776
0.795593 0.177460 0.176056
0.818420 0.182343 0.181030
0.839539 0.186981 0.185669
0.858612 0.191132 0.189850
0.875702 0.194916 0.193665
0.890564 0.198181 0.196960
0.903107 0.200958 0.199738
0.913330 0.203247 0.201996
0.920990 0.204956 0.203735
0.926117 0.206116 0.204895
0.928955 0.206726 0.205536
0.929871 0.206940 0.205750
0.929169 0.206787 0.205566
0.927002 0.206299 0.205078
0.923767 0.205566 0.204376
0.919556 0.204620 0.203430
0.914612 0.203522 0.202301
0.909210 0.202301 0.201080
0.903381 0.201019 0.199768
0.897400 0.199677 0.198456
0.044525 0.057770 0.050903
0.048431 0.057800 0.050964
0.052582 0.057770 0.050964
0.057037 0.057648 0.050781
0.063416 0.059235 0.052429
0.070435 0.061218 0.054596
0.077850 0.063354 0.056915
0.085663 0.065674 0.059418
0.093750 0.068115 0.061951
0.102386 0.070618 0.064575
0.111359 0.073181 0.067200
0.120758 0.075653 0.069855
0.130707 0.078094 0.072388
0.141083 0.080505 0.074738
0.151917 0.082642 0.076874
0.163300 0.084534 0.078735
0.175171 0.086029 0.080261
0.187653 0.087128 0.081299
0.200745 0.087738 0.081757
0.214447 0.087799 0.081726
0.228851 0.087372 0.081146
0.243958 0.086639 0.080200
0.259827 0.086029 0.079437
0.276459 0.086395 0.079681
0.293884 0.088531 0.081940
0.312103 0.091064 0.084625
0.331177 0.093750 0.087463
0.351135 0.096619 0.090515
0.372070 0.099823 0.093811
0.393951 0.103210 0.097321
0.416809 0.106873 0.101166
0.440857 0.110840 0.105286
0.466003 0.115051 0.109711
0.492188 0.119598 0.114410
0.519592 0.124481 0.119537
0.547791 0.129669 0.124878
0.576294 0.135040 0.130402
0.604736 0.140472 0.136017
0.633392 0.146057 0.141785
0.662048 0.151733 0.147644
0.690521 0.157501 0.153503
0.718384 0.163239 0.159363
0.745331 0.168823 0.165070
0.771149 0.174225 0.170624
0.795624 0.179413 0.175903
0.818451 0.184296 0.180878
0.839539 0.188843 0.185516
0.858643 0.192993 0.189728
0.875763 0.196716 0.193512
0.890625 0.199921 0.196838
0.903168 0.202698 0.199585
0.913361 0.204956 0.201874
0.921021 0.206665 0.203613
0.926147 0.207794 0.204773
0.929016 0.208405 0.205414
0.929932 0.208618 0.205627
0.929199 0.208466 0.205444
0.927032 0.207977 0.204956
0.923828 0.207275 0.204254
0.919586 0.206360 0.203278
0.914673 0.205261 0.202179
0.909241 0.204071 0.200958
0.903412 0.202759 0.199646
0.897430 0.201447 0.198303
0.046295 0.063904 0.052521
0.050110 0.063873 0.052521
0.054169 0.063843 0.052521
0.058563 0.063721 0.052368
0.063232 0.063568 0.052216
0.070129 0.065338 0.054199
0.077576 0.067444 0.056519
0.085388 0.069672 0.059021
0.093506 0.072021 0.061584
0.102142 0.074432 0.064209
0.111176 0.076874 0.066833
0.120605 0.079376 0.069519
0.130524 0.081848 0.072052
0.140900 0.084167 0.074432
0.151733 0.086304 0.076538
0.163147 0.088196 0.078400
0.175049 0.089752 0.079895
0.187531 0.090912 0.080933
0.200592 0.091553 0.081421
0.214325 0.091705 0.081329
0.228790 0.091400 0.080750
0.243896 0.090759 0.079803
0.259766 0.090240 0.079010
0.276367 0.090637 0.079315
0.293823 0.092712 0.081573
0.312012 0.095184 0.084198
0.331146 0.097778 0.087067
0.351105 0.100616 0.090149
0.372040 0.103668 0.093445
0.393921 0.106995 0.096954
0.416809 0.110565 0.100830
0.440826 0.114380 0.104950
0.465973 0.118530 0.109436
0.492188 0.122925 0.114166
0.519592 0.127747 0.119232
0.547791 0.132812 0.124603
0.576294 0.138031 0.130157
0.604767 0.143402 0.135773
0.633423 0.148865 0.141541
0.662079 0.154449 0.147430
0.690521 0.160126 0.153290
0.718384 0.165741 0.159149
0.745361 0.171265 0.164886
0.771179 0.176605 0.170441
0.795654 0.181702 0.175720
0.818481 0.186554 0.180695
0.839569 0.191010 0.185364
0.858673 0.195129 0.189545
0.875793 0.198792 0.193359
0.890656 0.201996 0.196655
0.903198 0.204742 0.199432
0.913391 0.206970 0.201721
0.921051 0.208649 0.203461
0.926178 0.209747 0.204620
0.929047 0.210388 0.205261
0.929962 0.210571 0.205475
0.929230 0.210419 0.205292
0.927063 0.209961 0.204803
0.923859 0.209259 0.204102
0.919647 0.208344 0.203125
0.914703 0.207245 0.202026
0.909271 0.206085 0.200806
0.903442 0.204803 0.199493
0.897461 0.203491 0.198151
0.048187 0.070374 0.054291
0.051910 0.070343 0.054321
0.055908 0.070282 0.054291
0.060242 0.070129 0.054108
0.064789 0.070038 0.053955
0.069824 0.069855 0.053741
0.077271 0.071838 0.056122
0.085083 0.073975 0.058594
0.093262 0.076202 0.061157
0.101898 0.078583 0.063812
0.110931 0.081024 0.066437
0.120392 0.083496 0.069122
0.130371 0.085876 0.071655
0.140686 0.088196 0.074036
0.151581 0.090332 0.076172
0.162964 0.092224 0.078003
0.174896 0.093750 0.079498
0.187408 0.094971 0.080536
0.200500 0.095673 0.081024
0.214233 0.095917 0.080933
0.228638 0.095673 0.080322
0.243774 0.095184 0.079346
0.259674 0.094788 0.078552
0.276306 0.095215 0.078857
0.293732 0.097198 0.081146
0.311981 0.099609 0.083801
0.331085 0.102173 0.086670
0.351044 0.104919 0.089752
0.372009 0.107910 0.093048
0.393890 0.111115 0.096588
0.416779 0.114532 0.100464
0.440826 0.118286 0.104584
0.465942 0.122284 0.109070
0.492157 0.126648 0.113831
0.519592 0.131348 0.118927
0.547791 0.136230 0.124268
0.576294 0.141388 0.129852
0.604767 0.146606 0.135498
0.633423 0.151978 0.141296
0.662079 0.157471 0.147156
0.690552 0.163055 0.153046
0.718414 0.168549 0.158936
0.745392 0.173981 0.164673
0.771210 0.179230 0.170227
0.795685 0.184265 0.175507
0.818512 0.189026 0.180481
0.839630 0.193451 0.185150
0.858734 0.197479 0.189362
0.875824 0.201111 0.193146
0.890686 0.204315 0.196472
0.903259 0.207001 0.199249
0.913422 0.209198 0.201538
0.921082 0.210846 0.203278
0.926239 0.211975 0.204437
0.929108 0.212585 0.205078
0.929993 0.212769 0.205292
0.929260 0.212616 0.205109
0.927124 0.212158 0.204651
0.923889 0.211456 0.203918
0.919678 0.210541 0.202942
0.914734 0.209473 0.201843
0.909302 0.208313 0.200592
0.903473 0.207062 0.199310
0.897491 0.205780 0.197998
0.050232 0.077240 0.056213
0.053864 0.077118 0.056213
0.057800 0.077026 0.056152
0.062042 0.076904 0.056030
0.066559 0.076813 0.055878
0.071472 0.076660 0.055695
0.076874 0.076599 0.055603
0.084778 0.078674 0.058075
0.092957 0.080902 0.060699
0.101624 0.083221 0.063324
0.110657 0.085571 0.065979
0.120148 0.088013 0.068695
0.130096 0.090363 0.071198
0.140472 0.092651 0.073608
0.151398 0.094757 0.075714
0.162811 0.096619 0.077576
0.174744 0.098267 0.079041
0.187225 0.099457 0.080078
0.200317 0.100250 0.080536
0.214081 0.100586 0.080444
0.228546 0.100494 0.079803
0.243652 0.100098 0.078827
0.259552 0.099762 0.078033
0.276215 0.100281 0.078308
0.293671 0.102264 0.080627
0.311890 0.104553 0.083313
0.331024 0.107056 0.086182
0.350983 0.109711 0.089264
0.371948 0.112610 0.092590
0.393829 0.115692 0.096161
0.416748 0.119019 0.100037
0.440796 0.122620 0.104187
0.465912 0.126556 0.108673
0.492157 0.130768 0.113464
0.519562 0.135284 0.118591
0.547791 0.140076 0.123932
0.576294 0.145081 0.129517
0.604767 0.150177 0.135193
0.633453 0.155457 0.140991
0.662079 0.160828 0.146851
0.690552 0.166260 0.152771
0.718445 0.171661 0.158661
0.745392 0.177002 0.164398
0.771210 0.182159 0.169983
0.795715 0.187164 0.175293
0.818542 0.191833 0.180267
0.839661 0.196198 0.184906
0.858765 0.200134 0.189148
0.875885 0.203766 0.192932
0.890747 0.206909 0.196259
0.903290 0.209534 0.199036
0.913452 0.211731 0.201324
0.921112 0.213348 0.203064
0.926239 0.214447 0.204224
0.929138 0.215057 0.204865
0.930023 0.215240 0.205078
0.929321 0.215088 0.204926
0.927155 0.214630 0.204437
0.923920 0.213928 0.203705
0.919708 0.213043 0.202759
0.914795 0.212006 0.201630
0.909332 0.210846 0.200409
0.903534 0.209595 0.199097
0.897552 0.208344 0.197784
0.052307 0.084473 0.058197
0.055939 0.084351 0.058228
0.059845 0.084259 0.058197
0.063965 0.084137 0.058044
0.068420 0.084045 0.057892
0.073242 0.083893 0.057678
0.078461 0.083710 0.057465
0.084351 0.083771 0.057495
0.092621 0.085907 0.060150
0.101257 0.088165 0.062805
0.110352 0.090485 0.065460
0.119873 0.092834 0.068146
0.129852 0.095184 0.070709
0.140198 0.097412 0.073120
0.151123 0.099548 0.075226
0.162567 0.101440 0.077057
0.174500 0.103119 0.078522
0.187073 0.104340 0.079529
0.200165 0.105225 0.080017
0.213928 0.105652 0.079865
0.228363 0.105682 0.079224
0.243530 0.105408 0.078247
0.259460 0.105194 0.077423
0.276093 0.105743 0.077728
0.293549 0.107697 0.080048
0.311798 0.109924 0.082733
0.330933 0.112335 0.085602
0.350922 0.114838 0.088745
0.371887 0.117645 0.092102
0.393799 0.120636 0.095673
0.416687 0.123840 0.099518
0.440765 0.127380 0.103699
0.465881 0.131195 0.108215
0.492126 0.135254 0.113037
0.519562 0.139618 0.118134
0.547760 0.144318 0.123535
0.576263 0.149170 0.129089
0.604767 0.154144 0.134827
0.633423 0.159271 0.140625
0.662079 0.164520 0.146515
0.690582 0.169861 0.152466
0.718445 0.175140 0.158356
0.745422 0.180359 0.164124
0.771240 0.185455 0.169678
0.795746 0.190308 0.174988
0.818573 0.194916 0.179993
0.839661 0.199188 0.184662
0.858765 0.203125 0.188873
0.875885 0.206665 0.192688
0.890747 0.209747 0.196014
0.903290 0.212372 0.198822
0.913513 0.214508 0.201080
0.921173 0.216156 0.202850
0.926300 0.217224 0.204010
0.929169 0.217804 0.204651
0.930084 0.217987 0.204834
0.929352 0.217834 0.204681
0.927185 0.217407 0.204224
0.923950 0.216736 0.203461
0.919739 0.215820 0.202515
0.914795 0.214783 0.201385
0.909363 0.213654 0.200165
0.903564 0.212433 0.198853
0.897583 0.211182 0.197540
0.054443 0.092102 0.060303
0.058044 0.091919 0.060333
0.061890 0.091827 0.060303
0.065948 0.091736 0.060181
0.070343 0.091614 0.060028
0.075073 0.091492 0.059845
0.080322 0.091339 0.059631
0.085907 0.091187 0.059387
0.092194 0.091309 0.059509
0.100891 0.093475 0.062195
0.109985 0.095734 0.064850
0.119568 0.098083 0.067535
0.129517 0.100342 0.070099
0.139923 0.102631 0.072540
0.150879 0.104706 0.074646
0.162323 0.106659 0.076477
0.174286 0.108337 0.077942
0.186829 0.109680 0.078949
0.199982 0.110626 0.079376
0.213745 0.111145 0.079254
0.228180 0.111267 0.078552
0.243378 0.111115 0.077576
0.259308 0.111023 0.076782
0.275940 0.111572 0.077057
0.293457 0.113495 0.079346
0.311676 0.115631 0.082092
0.330841 0.117950 0.084991
0.350830 0.120422 0.088135
0.371796 0.123077 0.091522
0.393707 0.126007 0.095123
0.416656 0.129120 0.098999
0.440704 0.132507 0.103180
0.465851 0.136169 0.107666
0.492096 0.140106 0.112549
0.519531 0.144409 0.117645
0.547760 0.148926 0.123077
0.576294 0.153625 0.128693
0.604736 0.158478 0.134399
0.633423 0.163483 0.140198
0.662109 0.168610 0.146149
0.690582 0.173798 0.152069
0.718475 0.178986 0.157990
0.745453 0.184113 0.163788
0.771271 0.189087 0.169373
0.795746 0.193878 0.174683
0.818573 0.198334 0.179688
0.839722 0.202576 0.184357
0.858826 0.206451 0.188599
0.875946 0.209900 0.192413
0.890808 0.212921 0.195740
0.903351 0.215515 0.198547
0.913513 0.217621 0.200806
0.921234 0.219238 0.202576
0.926331 0.220276 0.203735
0.929199 0.220886 0.204376
0.930084 0.221069 0.204590
0.929382 0.220947 0.204437
0.927246 0.220490 0.203949
0.923981 0.219788 0.203186
0.919769 0.218933 0.202240
0.914856 0.217896 0.201111
0.909393 0.216797 0.199890
0.903595 0.215576 0.198608
0.897614 0.214355 0.197266
0.056641 0.100098 0.062347
0.060272 0.099854 0.062408
0.063995 0.099701 0.062408
0.068024 0.099640 0.062256
0.072327 0.099518 0.062103
0.076996 0.099396 0.061951
0.082245 0.099304 0.061737
0.087738 0.099121 0.061493
0.093628 0.098969 0.061249
0.100433 0.099182 0.061493
0.109589 0.101410 0.064148
0.119171 0.103699 0.066864
0.129150 0.106018 0.069458
0.139587 0.108215 0.071869
0.150604 0.110352 0.074036
0.162048 0.112305 0.075836
0.174011 0.113983 0.077271
0.186584 0.115387 0.078247
0.199738 0.116425 0.078674
0.213501 0.117035 0.078522
0.227997 0.117249 0.077820
0.243195 0.117218 0.076843
0.259125 0.117249 0.076019
0.275787 0.117889 0.076263
0.293304 0.119720 0.078583
0.311584 0.121796 0.081360
0.330719 0.124054 0.084290
0.350708 0.126465 0.087433
0.371704 0.129059 0.090820
0.393616 0.131866 0.094452
0.416565 0.134857 0.098358
0.440643 0.138153 0.102570
0.465820 0.141693 0.107086
0.492065 0.145508 0.111969
0.519501 0.149628 0.117126
0.547729 0.153992 0.122559
0.576263 0.158569 0.128174
0.604767 0.163300 0.133942
0.633423 0.168152 0.139740
0.662109 0.173126 0.145721
0.690613 0.178192 0.151672
0.718475 0.183228 0.157593
0.745422 0.188263 0.163391
0.771271 0.193115 0.168976
0.795776 0.197784 0.174316
0.818604 0.202209 0.179352
0.839722 0.206360 0.184021
0.858826 0.210114 0.188263
0.875946 0.213531 0.192078
0.890808 0.216522 0.195404
0.903381 0.219055 0.198242
0.913574 0.221130 0.200500
0.921234 0.222687 0.202271
0.926361 0.223724 0.203430
0.929260 0.224304 0.204102
0.930145 0.224487 0.204285
0.929413 0.224335 0.204132
0.927277 0.223907 0.203644
0.924011 0.223267 0.202881
0.919800 0.222412 0.201935
0.914856 0.221405 0.200806
0.909454 0.220306 0.199585
0.903625 0.219116 0.198273
0.897614 0.217896 0.196960
0.058807 0.108459 0.064362
0.062378 0.108185 0.064453
0.066071 0.108032 0.064484
0.070099 0.107941 0.064362
0.074310 0.107849 0.064178
0.078949 0.107758 0.064026
0.084137 0.107605 0.063812
0.089630 0.107483 0.063599
0.095490 0.107330 0.063324
0.101807 0.107117 0.063019
0.109100 0.107483 0.063385
0.118744 0.109741 0.066071
0.128784 0.112000 0.068726
0.139252 0.114197 0.071106
0.150269 0.116333 0.073303
0.161743 0.118317 0.075104
0.173706 0.120056 0.076538
0.186310 0.121460 0.077484
0.199493 0.122589 0.077881
0.213257 0.123322 0.077698
0.227753 0.123688 0.076996
0.242981 0.123779 0.075989
0.258942 0.123901 0.075134
0.275604 0.124603 0.075409
0.293121 0.126434 0.077728
0.311432 0.128448 0.080505
0.330566 0.130646 0.083466
0.350586 0.132965 0.086609
0.371582 0.135437 0.090057
0.393524 0.138123 0.093689
0.416473 0.141052 0.097626
0.440552 0.144196 0.101868
0.465729 0.147583 0.106445
0.492004 0.151245 0.111298
0.519470 0.155243 0.116516
0.547668 0.159485 0.121918
0.576233 0.163940 0.127625
0.604706 0.168488 0.133392
0.633392 0.173218 0.139221
0.662109 0.178070 0.145233
0.690582 0.182983 0.151184
0.718475 0.187927 0.157135
0.745453 0.192780 0.162933
0.771301 0.197540 0.168549
0.795807 0.202087 0.173920
0.818634 0.206451 0.178955
0.839752 0.210480 0.183624
0.858856 0.214203 0.187897
0.875977 0.217529 0.191711
0.890839 0.220459 0.195068
0.903381 0.222961 0.197876
0.913605 0.224976 0.200165
0.921265 0.226532 0.201904
0.926392 0.227539 0.203064
0.929260 0.228119 0.203735
0.930176 0.228302 0.203949
0.929443 0.228180 0.203766
0.927277 0.227722 0.203278
0.924072 0.227081 0.202545
0.919830 0.226227 0.201569
0.914886 0.225220 0.200470
0.909485 0.224152 0.199219
0.903656 0.222992 0.197937
0.897644 0.221802 0.196594
0.060883 0.117249 0.066376
0.064423 0.116974 0.066498
0.068146 0.116791 0.066528
0.072113 0.116730 0.066376
0.076263 0.116608 0.066254
0.080933 0.116547 0.066071
0.086060 0.116425 0.065857
0.091522 0.116302 0.065643
0.097321 0.116150 0.065369
0.103668 0.115997 0.065063
0.110413 0.115753 0.064758
0.118256 0.116211 0.065186
0.128326 0.118439 0.067810
0.138824 0.120636 0.070251
0.149872 0.122772 0.072418
0.161346 0.124786 0.074249
0.173370 0.126587 0.075653
0.185974 0.128113 0.076599
0.199158 0.129303 0.076996
0.212982 0.130157 0.076782
0.227478 0.130646 0.076050
0.242737 0.130890 0.075012
0.258698 0.131134 0.074158
0.275421 0.131866 0.074432
0.292938 0.133636 0.076752
0.311249 0.135590 0.079529
0.330444 0.137695 0.082489
0.350464 0.139893 0.085693
0.371460 0.142334 0.089142
0.393433 0.144958 0.092804
0.416382 0.147705 0.096771
0.440491 0.150757 0.101074
0.465668 0.154022 0.105652
0.491943 0.157593 0.110565
0.519409 0.161438 0.115814
0.547638 0.165497 0.121246
0.576172 0.169800 0.126984
0.604706 0.174194 0.132751
0.633392 0.178772 0.138641
0.662048 0.183441 0.144653
0.690582 0.188293 0.150635
0.718475 0.193054 0.156616
0.745453 0.197784 0.162445
0.771301 0.202423 0.168060
0.795807 0.206909 0.173431
0.818665 0.211121 0.178497
0.839752 0.215057 0.183167
0.858887 0.218689 0.187469
0.876007 0.221954 0.191284
0.890869 0.224823 0.194641
0.903442 0.227264 0.197479
0.913635 0.229248 0.199768
0.921295 0.230774 0.201508
0.926422 0.231781 0.202667
0.929321 0.232330 0.203339
0.930206 0.232513 0.203552
0.929474 0.232361 0.203400
0.927307 0.231934 0.202881
0.924072 0.231323 0.202148
0.919861 0.230469 0.201172
0.914917 0.229492 0.200073
0.909515 0.228455 0.198822
0.903687 0.227325 0.197540
0.897675 0.226166 0.196198
0.062805 0.126556 0.068268
0.066376 0.126221 0.068451
0.070099 0.126007 0.068512
0.074005 0.125946 0.068359
0.078156 0.125854 0.068237
0.082794 0.125763 0.068054
0.087921 0.125641 0.067841
0.093323 0.125549 0.067596
0.099182 0.125366 0.067352
0.105499 0.125244 0.067017
0.112213 0.125031 0.066681
0.119415 0.124817 0.066315
0.127808 0.125336 0.066803
0.138336 0.127563 0.069275
0.149414 0.129730 0.071442
0.160919 0.131744 0.073303
0.172974 0.133606 0.074677
0.185638 0.135193 0.075592
0.198822 0.136475 0.075958
0.212646 0.137421 0.075745
0.227203 0.138031 0.075012
0.242432 0.138397 0.073914
0.258423 0.138733 0.073029
0.275177 0.139526 0.073334
0.292694 0.141266 0.075653
0.311035 0.143188 0.078369
0.330261 0.145233 0.081421
0.350281 0.147369 0.084656
0.371307 0.149719 0.088135
0.393280 0.152161 0.091858
0.416260 0.154877 0.095856
0.440369 0.157776 0.100159
0.465576 0.160950 0.104736
0.491882 0.164368 0.109711
0.519318 0.168060 0.114960
0.547607 0.171997 0.120483
0.576141 0.176117 0.126221
0.604675 0.180359 0.132050
0.633362 0.184814 0.137970
0.662048 0.189362 0.143982
0.690582 0.194000 0.150024
0.718475 0.198639 0.156036
0.745453 0.203278 0.161896
0.771301 0.207764 0.167511
0.795837 0.212128 0.172913
0.818665 0.216248 0.178009
0.839783 0.220062 0.182678
0.858887 0.223602 0.186981
0.876007 0.226807 0.190796
0.890869 0.229584 0.194183
0.903473 0.231995 0.197021
0.913635 0.233917 0.199310
0.921326 0.235413 0.201050
0.926453 0.236389 0.202240
0.929321 0.236938 0.202911
0.930237 0.237122 0.203094
0.929535 0.237000 0.202942
0.927368 0.236572 0.202454
0.924103 0.235931 0.201691
0.919891 0.235138 0.200714
0.914948 0.234192 0.199615
0.909515 0.233124 0.198395
0.903717 0.232056 0.197083
0.897705 0.230896 0.195709
0.064484 0.136261 0.069916
0.068146 0.135895 0.070160
0.071869 0.135681 0.070251
0.075714 0.135620 0.070099
0.079926 0.135529 0.069946
0.084564 0.135468 0.069794
0.089691 0.135345 0.069611
0.095093 0.135223 0.069366
0.100922 0.135101 0.069122
0.107239 0.134949 0.068817
0.113983 0.134796 0.068481
0.121185 0.134552 0.068085
0.128876 0.134338 0.067627
0.137787 0.134918 0.068115
0.148865 0.137085 0.070312
0.160431 0.139160 0.072174
0.172485 0.141083 0.073578
0.185181 0.142761 0.074493
0.198425 0.144135 0.074799
0.212280 0.145203 0.074554
0.226837 0.145935 0.073792
0.242126 0.146423 0.072632
0.258118 0.146881 0.071686
0.274902 0.147766 0.071991
0.292450 0.149445 0.074371
0.310791 0.151276 0.077118
0.330048 0.153259 0.080200
0.350098 0.155365 0.083466
0.371155 0.157593 0.086945
0.393127 0.159973 0.090729
0.416107 0.162598 0.094788
0.440247 0.165344 0.099121
0.465454 0.168396 0.103760
0.491791 0.171692 0.108765
0.519257 0.175232 0.114075
0.547516 0.179047 0.119659
0.576080 0.182983 0.125397
0.604614 0.187134 0.131256
0.633331 0.191376 0.137207
0.662018 0.195770 0.143250
0.690552 0.200256 0.149353
0.718445 0.204803 0.155334
0.745453 0.209259 0.161224
0.771301 0.213623 0.166901
0.795807 0.217834 0.172302
0.818665 0.221832 0.177399
0.839783 0.225586 0.182098
0.858917 0.229034 0.186432
0.876038 0.232178 0.190277
0.890930 0.234894 0.193665
0.903473 0.237244 0.196503
0.913666 0.239105 0.198792
0.921356 0.240540 0.200531
0.926453 0.241516 0.201721
0.929352 0.242035 0.202393
0.930267 0.242218 0.202606
0.929535 0.242096 0.202423
0.927368 0.241699 0.201935
0.924103 0.241058 0.201172
0.919891 0.240265 0.200195
0.914978 0.239349 0.199097
0.909546 0.238342 0.197876
0.903717 0.237274 0.196564
0.897736 0.236145 0.195190
0.065857 0.146393 0.071289
0.069641 0.146027 0.071564
0.073364 0.145782 0.071686
0.077179 0.145721 0.071564
0.081482 0.145660 0.071411
0.086090 0.145569 0.071228
0.091248 0.145447 0.071045
0.096619 0.145386 0.070801
0.102509 0.145233 0.070526
0.108887 0.145111 0.070251
0.115631 0.144958 0.069916
0.122864 0.144745 0.069550
0.130615 0.144531 0.069122
0.138702 0.144287 0.068604
0.148285 0.144928 0.069061
0.159882 0.147034 0.070862
0.171997 0.148987 0.072296
0.184723 0.150726 0.073212
0.197968 0.152222 0.073517
0.211853 0.153412 0.073242
0.226440 0.154297 0.072357
0.241760 0.154938 0.071167
0.257751 0.155518 0.070190
0.274567 0.156433 0.070496
0.292175 0.158081 0.072937
0.310547 0.159851 0.075714
0.329834 0.161835 0.078766
0.349884 0.163818 0.082092
0.370972 0.165955 0.085663
0.392944 0.168274 0.089447
0.415955 0.170776 0.093536
0.440094 0.173431 0.097931
0.465332 0.176331 0.102661
0.491669 0.179504 0.107697
0.519135 0.182892 0.113068
0.547424 0.186554 0.118683
0.576019 0.190369 0.124420
0.604553 0.194366 0.130371
0.633270 0.198425 0.136322
0.661987 0.202667 0.142426
0.690491 0.207001 0.148529
0.718414 0.211365 0.154572
0.745453 0.215698 0.160492
0.771301 0.219940 0.166199
0.795807 0.223999 0.171631
0.818695 0.227905 0.176727
0.839783 0.231567 0.181458
0.858917 0.234894 0.185822
