custom_nodes/comfyui-vrgamedevgirl/LUTS/High_Contrast_Vivid_Warm_Cinematic_3.cube
#Created by: Adobe Photoshop Export Color Lookup Plugin
TITLE "new.png"
#LUT size
LUT_3D_SIZE 5
#data domain
DOMAIN_MIN 0.0 0.0 0.0
DOMAIN_MAX 1.0 1.0 1.0
#LUT data points
0.000000 0.000000 0.000000
0.208923 0.000000 0.000000
0.517548 0.000000 0.000000
0.820068 0.000000 0.000000
1.000000 0.000000 0.000000
0.000000 0.208923 0.000000
0.208923 0.208923 0.000000
0.517548 0.208923 0.000000
0.820068 0.208923 0.000000
1.000000 0.208923 0.000000
0.000000 0.517548 0.000000
0.208923 0.517548 0.000000
0.517548 0.517548 0.000000
0.820068 0.517548 0.000000
1.000000 0.517548 0.000000
0.000000 0.820068 0.000000
0.208923 0.820068 0.000000
0.517548 0.820068 0.000000
0.820068 0.820068 0.000000
1.000000 0.820068 0.000000
0.000000 1.000000 0.000000
0.208923 1.000000 0.000000
0.517548 1.000000 0.000000
0.820068 1.000000 0.000000
1.000000 1.000000 0.000000
0.000000 0.000000 0.208923
0.208923 0.000000 0.208923
0.517548 0.000000 0.208923
0.820068 0.000000 0.208923
1.000000 0.000000 0.208923
0.000000 0.208923 0.208923
0.208923 0.208923 0.208923
0.519196 0.199890 0.199890
0.820648 0.194794 0.194794
1.000000 0.193512 0.193512
0.000000 0.517548 0.208923
0.194763 0.519684 0.194763
0.519684 0.519684 0.194763
0.820648 0.514771 0.194794
1.000000 0.513519 0.193512
0.000000 0.820068 0.208923
0.192383 0.820709 0.192383
0.514282 0.820709 0.192383
0.820709 0.820709 0.192383
1.000000 0.818970 0.192688
0.000000 1.000000 0.208923
0.191895 1.000000 0.191895
0.513123 1.000000 0.191895
0.818939 1.000000 0.191895
1.000000 1.000000 0.191895
0.000000 0.000000 0.517548
0.208923 0.000000 0.517548
0.517548 0.000000 0.517548
0.820068 0.000000 0.517548
1.000000 0.000000 0.517548
0.000000 0.208923 0.517548
0.194763 0.194763 0.519684
0.519684 0.194763 0.519684
0.820679 0.194061 0.514618
1.000000 0.193176 0.513458
0.000000 0.517548 0.517548
0.194763 0.519684 0.519684
0.517548 0.517548 0.517548
0.821411 0.511353 0.511353
1.000000 0.505157 0.505157
0.000000 0.820068 0.517548
0.192383 0.820709 0.514282
0.499268 0.822632 0.499268
0.822632 0.822632 0.499268
1.000000 0.816620 0.504028
0.000000 1.000000 0.517548
0.191895 1.000000 0.513123
0.493866 1.000000 0.493866
0.814056 1.000000 0.493866
1.000000 1.000000 0.493866
0.000000 0.000000 0.820068
0.208923 0.000000 0.820068
0.517548 0.000000 0.820068
0.820068 0.000000 0.820068
1.000000 0.000000 0.820068
0.000000 0.208923 0.820068
0.192383 0.192383 0.820709
0.514282 0.192383 0.820709
0.820709 0.192383 0.820709
1.000000 0.192505 0.818970
0.000000 0.517548 0.820068
0.192383 0.514282 0.820709
0.499268 0.499268 0.822632
0.822632 0.499268 0.822632
1.000000 0.499634 0.815521
0.000000 0.820068 0.820068
0.192383 0.820709 0.820709
0.499268 0.822632 0.822632
0.820068 0.820068 0.820068
1.000000 0.818756 0.818756
0.000000 1.000000 0.820068
0.191895 1.000000 0.818939
0.493866 1.000000 0.814056
0.812195 1.000000 0.812195
1.000000 1.000000 0.812195
0.000000 0.000000 1.000000
0.208923 0.000000 1.000000
0.517548 0.000000 1.000000
0.820068 0.000000 1.000000
1.000000 0.000000 1.000000
0.000000 0.208923 1.000000
0.191895 0.191895 1.000000
0.513123 0.191895 1.000000
0.818939 0.191895 1.000000
1.000000 0.191895 1.000000
0.000000 0.517548 1.000000
0.191895 0.513123 1.000000
0.493866 0.493866 1.000000
0.814056 0.493866 1.000000
1.000000 0.493866 1.000000
0.000000 0.820068 1.000000
0.191895 0.818939 1.000000
0.493866 0.814056 1.000000
0.812195 0.812195 1.000000
1.000000 0.812195 1.000000
0.000000 1.000000 1.000000
0.191895 1.000000 1.000000
0.493866 1.000000 1.000000
0.812195 1.000000 1.000000
1.000000 1.000000 1.000000
