custom_nodes/comfyui-vrgamedevgirl/LUTS/High_Contrast_Vivid_Warm_Cinematic.cube
#Created by: Adobe Photoshop Export Color Lookup Plugin
TITLE "Contrast_.png"
#LUT size
LUT_3D_SIZE 65
#data domain
DOMAIN_MIN 0.0 0.0 0.0
DOMAIN_MAX 1.0 1.0 1.0
#LUT data points
0.000000 0.000000 0.000000
0.000000 0.000000 0.000000
0.000000 0.000000 0.000000
0.000000 0.000000 0.000000
0.000000 0.000000 0.000000
0.000000 0.000000 0.000000
0.000000 0.000000 0.000000
0.000000 0.000000 0.000000
0.000000 0.000000 0.000000
0.036163 0.000000 0.000000
0.056824 0.000000 0.000000
0.073242 0.000000 0.000000
0.088196 0.000000 0.000000
0.102509 0.000000 0.000000
0.116669 0.000000 0.000000
0.130829 0.000000 0.000000
0.145203 0.000000 0.000000
0.159882 0.000000 0.000000
0.174957 0.000000 0.000000
0.190582 0.000000 0.000000
0.206726 0.000000 0.000000
0.223480 0.000000 0.000000
0.240936 0.000000 0.000000
0.259125 0.000000 0.000000
0.278076 0.000000 0.000000
0.297791 0.000000 0.000000
0.318237 0.000000 0.000000
0.339111 0.000000 0.000000
0.360321 0.000000 0.000000
0.381622 0.000000 0.000000
0.402863 0.000000 0.000000
0.423859 0.000000 0.000000
0.444611 0.000000 0.000000
0.459839 0.000000 0.000000
0.479492 0.000000 0.000000
0.498474 0.000000 0.000000
0.516754 0.000000 0.000000
0.534393 0.000000 0.000000
0.551788 0.000000 0.000000
0.569183 0.000000 0.000000
0.586975 0.000000 0.000000
0.605438 0.000000 0.000000
0.624939 0.000000 0.000000
0.645538 0.000000 0.000000
0.667053 0.000000 0.000000
0.688995 0.000000 0.000000
0.711365 0.000000 0.000000
0.733612 0.000000 0.000000
0.755615 0.000000 0.000000
0.777313 0.000000 0.000000
0.798676 0.000000 0.000000
0.819672 0.000000 0.000000
0.840302 0.000000 0.000000
0.860687 0.000000 0.000000
0.880798 0.000000 0.000000
0.900543 0.000000 0.000000
0.920013 0.000000 0.000000
0.939209 0.000000 0.000000
0.958130 0.000000 0.000000
0.976746 0.000000 0.000000
0.995087 0.000000 0.000000
1.000000 0.000000 0.000000
1.000000 0.000000 0.000000
1.000000 0.000000 0.000000
1.000000 0.000000 0.000000
0.000000 0.000000 0.000000
0.000000 0.000000 0.000000
0.000000 0.000000 0.000000
0.000000 0.000000 0.000000
0.000000 0.000000 0.000000
0.000000 0.000000 0.000000
0.000000 0.000000 0.000000
0.000000 0.000000 0.000000
0.000000 0.000000 0.000000
0.036163 0.000000 0.000000
0.056824 0.000000 0.000000
0.073242 0.000000 0.000000
0.088196 0.000000 0.000000
0.102509 0.000000 0.000000
0.116669 0.000000 0.000000
0.130829 0.000000 0.000000
0.145203 0.000000 0.000000
0.159882 0.000000 0.000000
0.174957 0.000000 0.000000
0.190582 0.000000 0.000000
0.206726 0.000000 0.000000
0.223480 0.000000 0.000000
0.240936 0.000000 0.000000
0.259125 0.000000 0.000000
0.278076 0.000000 0.000000
0.297791 0.000000 0.000000
0.318237 0.000000 0.000000
0.339111 0.000000 0.000000
0.360321 0.000000 0.000000
0.381622 0.000000 0.000000
0.402863 0.000000 0.000000
0.423859 0.000000 0.000000
0.444611 0.000000 0.000000
0.459839 0.000000 0.000000
0.479492 0.000000 0.000000
0.498474 0.000000 0.000000
0.516754 0.000000 0.000000
0.534393 0.000000 0.000000
0.551788 0.000000 0.000000
0.569183 0.000000 0.000000
0.586975 0.000000 0.000000
0.605438 0.000000 0.000000
0.624939 0.000000 0.000000
0.645538 0.000000 0.000000
0.667053 0.000000 0.000000
0.688995 0.000000 0.000000
0.711365 0.000000 0.000000
0.733612 0.000000 0.000000
0.755615 0.000000 0.000000
0.777313 0.000000 0.000000
0.798676 0.000000 0.000000
0.819672 0.000000 0.000000
0.840302 0.000000 0.000000
0.860687 0.000000 0.000000
0.880798 0.000000 0.000000
0.900543 0.000000 0.000000
0.920013 0.000000 0.000000
0.939209 0.000000 0.000000
0.958130 0.000000 0.000000
0.976746 0.000000 0.000000
0.995087 0.000000 0.000000
1.000000 0.000000 0.000000
1.000000 0.000000 0.000000
1.000000 0.000000 0.000000
1.000000 0.000000 0.000000
0.000000 0.000000 0.000000
0.000000 0.000000 0.000000
0.000000 0.000000 0.000000
0.000000 0.000000 0.000000
0.000000 0.000000 0.000000
0.000000 0.000000 0.000000
0.000000 0.000000 0.000000
0.000000 0.000000 0.000000
0.000000 0.000000 0.000000
0.036163 0.000000 0.000000
0.056824 0.000000 0.000000
0.073242 0.000000 0.000000
0.088196 0.000000 0.000000
0.102509 0.000000 0.000000
0.116669 0.000000 0.000000
0.130829 0.000000 0.000000
0.145203 0.000000 0.000000
0.159882 0.000000 0.000000
0.174957 0.000000 0.000000
0.190582 0.000000 0.000000
0.206726 0.000000 0.000000
0.223480 0.000000 0.000000
0.240936 0.000000 0.000000
0.259125 0.000000 0.000000
0.278076 0.000000 0.000000
0.297791 0.000000 0.000000
0.318237 0.000000 0.000000
0.339111 0.000000 0.000000
0.360321 0.000000 0.000000
0.381622 0.000000 0.000000
0.402863 0.000000 0.000000
0.423859 0.000000 0.000000
0.444611 0.000000 0.000000
0.459839 0.000000 0.000000
0.479492 0.000000 0.000000
0.498474 0.000000 0.000000
0.516754 0.000000 0.000000
0.534393 0.000000 0.000000
0.551788 0.000000 0.000000
0.569183 0.000000 0.000000
0.586975 0.000000 0.000000
0.605438 0.000000 0.000000
0.624939 0.000000 0.000000
0.645538 0.000000 0.000000
0.667053 0.000000 0.000000
0.688995 0.000000 0.000000
0.711365 0.000000 0.000000
0.733612 0.000000 0.000000
0.755615 0.000000 0.000000
0.777313 0.000000 0.000000
0.798676 0.000000 0.000000
0.819672 0.000000 0.000000
0.840302 0.000000 0.000000
0.860687 0.000000 0.000000
0.880798 0.000000 0.000000
0.900543 0.000000 0.000000
0.920013 0.000000 0.000000
0.939209 0.000000 0.000000
0.958130 0.000000 0.000000
0.976746 0.000000 0.000000
0.995087 0.000000 0.000000
1.000000 0.000000 0.000000
1.000000 0.000000 0.000000
1.000000 0.000000 0.000000
1.000000 0.000000 0.000000
0.000000 0.000000 0.000000
0.000000 0.000000 0.000000
0.000000 0.000000 0.000000
0.000000 0.000000 0.000000
0.000000 0.000000 0.000000
0.000000 0.000000 0.000000
0.000000 0.000000 0.000000
0.000000 0.000000 0.000000
0.000000 0.000000 0.000000
0.036163 0.000000 0.000000
0.056824 0.000000 0.000000
0.073242 0.000000 0.000000
0.088196 0.000000 0.000000
0.102509 0.000000 0.000000
0.116669 0.000000 0.000000
0.130829 0.000000 0.000000
0.145203 0.000000 0.000000
0.159882 0.000000 0.000000
0.174957 0.000000 0.000000
0.190582 0.000000 0.000000
0.206726 0.000000 0.000000
0.223480 0.000000 0.000000
0.240936 0.000000 0.000000
0.259125 0.000000 0.000000
0.278076 0.000000 0.000000
0.297791 0.000000 0.000000
0.318237 0.000000 0.000000
0.339111 0.000000 0.000000
0.360321 0.000000 0.000000
0.381622 0.000000 0.000000
0.402863 0.000000 0.000000
0.423859 0.000000 0.000000
0.444611 0.000000 0.000000
0.459839 0.000000 0.000000
0.479492 0.000000 0.000000
0.498474 0.000000 0.000000
0.516754 0.000000 0.000000
0.534393 0.000000 0.000000
0.551788 0.000000 0.000000
0.569183 0.000000 0.000000
0.586975 0.000000 0.000000
0.605438 0.000000 0.000000
0.624939 0.000000 0.000000
0.645538 0.000000 0.000000
0.667053 0.000000 0.000000
0.688995 0.000000 0.000000
0.711365 0.000000 0.000000
0.733612 0.000000 0.000000
0.755615 0.000000 0.000000
0.777313 0.000000 0.000000
0.798676 0.000000 0.000000
0.819672 0.000000 0.000000
0.840302 0.000000 0.000000
0.860687 0.000000 0.000000
0.880798 0.000000 0.000000
0.900543 0.000000 0.000000
0.920013 0.000000 0.000000
0.939209 0.000000 0.000000
0.958130 0.000000 0.000000
0.976746 0.000000 0.000000
0.995087 0.000000 0.000000
1.000000 0.000000 0.000000
1.000000 0.000000 0.000000
1.000000 0.000000 0.000000
1.000000 0.000000 0.000000
0.000000 0.000000 0.000000
0.000000 0.000000 0.000000
0.000000 0.000000 0.000000
0.000000 0.000000 0.000000
0.000000 0.000000 0.000000
0.000000 0.000000 0.000000
0.000000 0.000000 0.000000
0.000000 0.000000 0.000000
0.000000 0.000000 0.000000
0.036163 0.000000 0.000000
0.056824 0.000000 0.000000
0.073242 0.000000 0.000000
0.088196 0.000000 0.000000
0.102509 0.000000 0.000000
0.116669 0.000000 0.000000
0.130829 0.000000 0.000000
0.145203 0.000000 0.000000
0.159882 0.000000 0.000000
0.174957 0.000000 0.000000
0.190582 0.000000 0.000000
0.206726 0.000000 0.000000
0.223480 0.000000 0.000000
0.240936 0.000000 0.000000
0.259125 0.000000 0.000000
0.278076 0.000000 0.000000
0.297791 0.000000 0.000000
0.318237 0.000000 0.000000
0.339111 0.000000 0.000000
0.360321 0.000000 0.000000
0.381622 0.000000 0.000000
0.402863 0.000000 0.000000
0.423859 0.000000 0.000000
0.444611 0.000000 0.000000
0.459839 0.000000 0.000000
0.479492 0.000000 0.000000
0.498474 0.000000 0.000000
0.516754 0.000000 0.000000
0.534393 0.000000 0.000000
0.551788 0.000000 0.000000
0.569183 0.000000 0.000000
0.586975 0.000000 0.000000
0.605438 0.000000 0.000000
0.624939 0.000000 0.000000
0.645538 0.000000 0.000000
0.667053 0.000000 0.000000
0.688995 0.000000 0.000000
0.711365 0.000000 0.000000
0.733612 0.000000 0.000000
0.755615 0.000000 0.000000
0.777313 0.000000 0.000000
0.798676 0.000000 0.000000
0.819672 0.000000 0.000000
0.840302 0.000000 0.000000
0.860687 0.000000 0.000000
0.880798 0.000000 0.000000
0.900543 0.000000 0.000000
0.920013 0.000000 0.000000
0.939209 0.000000 0.000000
0.958130 0.000000 0.000000
0.976746 0.000000 0.000000
0.995087 0.000000 0.000000
1.000000 0.000000 0.000000
1.000000 0.000000 0.000000
1.000000 0.000000 0.000000
1.000000 0.000000 0.000000
0.000000 0.000000 0.000000
0.000000 0.000000 0.000000
0.000000 0.000000 0.000000
0.000000 0.000000 0.000000
0.000000 0.000000 0.000000
0.000000 0.000000 0.000000
0.000000 0.000000 0.000000
0.000000 0.000000 0.000000
0.000000 0.000000 0.000000
0.036163 0.000000 0.000000
0.056824 0.000000 0.000000
0.073242 0.000000 0.000000
0.088196 0.000000 0.000000
0.102509 0.000000 0.000000
0.116669 0.000000 0.000000
0.130829 0.000000 0.000000
0.145203 0.000000 0.000000
0.159882 0.000000 0.000000
0.174957 0.000000 0.000000
0.190582 0.000000 0.000000
0.206726 0.000000 0.000000
0.223480 0.000000 0.000000
0.240936 0.000000 0.000000
0.259125 0.000000 0.000000
0.278076 0.000000 0.000000
0.297791 0.000000 0.000000
0.318237 0.000000 0.000000
0.339111 0.000000 0.000000
0.360321 0.000000 0.000000
0.381622 0.000000 0.000000
0.402863 0.000000 0.000000
0.423859 0.000000 0.000000
0.444611 0.000000 0.000000
0.459839 0.000000 0.000000
0.479492 0.000000 0.000000
0.498474 0.000000 0.000000
0.516754 0.000000 0.000000
0.534393 0.000000 0.000000
0.551788 0.000000 0.000000
0.569183 0.000000 0.000000
0.586975 0.000000 0.000000
0.605438 0.000000 0.000000
0.624939 0.000000 0.000000
0.645538 0.000000 0.000000
0.667053 0.000000 0.000000
0.688995 0.000000 0.000000
0.711365 0.000000 0.000000
0.733612 0.000000 0.000000
0.755615 0.000000 0.000000
0.777313 0.000000 0.000000
0.798676 0.000000 0.000000
0.819672 0.000000 0.000000
0.840302 0.000000 0.000000
0.860687 0.000000 0.000000
0.880798 0.000000 0.000000
0.900543 0.000000 0.000000
0.920013 0.000000 0.000000
0.939209 0.000000 0.000000
0.958130 0.000000 0.000000
0.976746 0.000000 0.000000
0.995087 0.000000 0.000000
1.000000 0.000000 0.000000
1.000000 0.000000 0.000000
1.000000 0.000000 0.000000
1.000000 0.000000 0.000000
0.000000 0.000000 0.000000
0.000000 0.000000 0.000000
0.000000 0.000000 0.000000
0.000000 0.000000 0.000000
0.000000 0.000000 0.000000
0.000000 0.000000 0.000000
0.000000 0.000000 0.000000
0.000000 0.000000 0.000000
0.000000 0.000000 0.000000
0.036163 0.000000 0.000000
0.056824 0.000000 0.000000
0.073242 0.000000 0.000000
0.088196 0.000000 0.000000
0.102509 0.000000 0.000000
0.116669 0.000000 0.000000
0.130829 0.000000 0.000000
0.145203 0.000000 0.000000
0.159882 0.000000 0.000000
0.174957 0.000000 0.000000
0.190582 0.000000 0.000000
0.206726 0.000000 0.000000
0.223480 0.000000 0.000000
0.240936 0.000000 0.000000
0.259125 0.000000 0.000000
0.278076 0.000000 0.000000
0.297791 0.000000 0.000000
0.318237 0.000000 0.000000
0.339111 0.000000 0.000000
0.360321 0.000000 0.000000
0.381622 0.000000 0.000000
0.402863 0.000000 0.000000
0.423859 0.000000 0.000000
0.444611 0.000000 0.000000
0.459839 0.000000 0.000000
0.479492 0.000000 0.000000
0.498474 0.000000 0.000000
0.516754 0.000000 0.000000
0.534393 0.000000 0.000000
0.551788 0.000000 0.000000
0.569183 0.000000 0.000000
0.586975 0.000000 0.000000
0.605438 0.000000 0.000000
0.624939 0.000000 0.000000
0.645538 0.000000 0.000000
0.667053 0.000000 0.000000
0.688995 0.000000 0.000000
0.711365 0.000000 0.000000
0.733612 0.000000 0.000000
0.755615 0.000000 0.000000
0.777313 0.000000 0.000000
0.798676 0.000000 0.000000
0.819672 0.000000 0.000000
0.840302 0.000000 0.000000
0.860687 0.000000 0.000000
0.880798 0.000000 0.000000
0.900543 0.000000 0.000000
0.920013 0.000000 0.000000
0.939209 0.000000 0.000000
0.958130 0.000000 0.000000
0.976746 0.000000 0.000000
0.995087 0.000000 0.000000
1.000000 0.000000 0.000000
1.000000 0.000000 0.000000
1.000000 0.000000 0.000000
1.000000 0.000000 0.000000
0.000000 0.000000 0.000000
0.000000 0.000000 0.000000
0.000000 0.000000 0.000000
0.000000 0.000000 0.000000
0.000000 0.000000 0.000000
0.000000 0.000000 0.000000
0.000000 0.000000 0.000000
0.000000 0.000000 0.000000
0.000000 0.000000 0.000000
0.036163 0.000000 0.000000
0.056824 0.000000 0.000000
0.073242 0.000000 0.000000
0.088196 0.000000 0.000000
0.102509 0.000000 0.000000
0.116669 0.000000 0.000000
0.130829 0.000000 0.000000
0.145203 0.000000 0.000000
0.159882 0.000000 0.000000
0.174957 0.000000 0.000000
0.190582 0.000000 0.000000
0.206726 0.000000 0.000000
0.223480 0.000000 0.000000
0.240936 0.000000 0.000000
0.259125 0.000000 0.000000
0.278076 0.000000 0.000000
0.297791 0.000000 0.000000
0.318237 0.000000 0.000000
0.339111 0.000000 0.000000
0.360321 0.000000 0.000000
0.381622 0.000000 0.000000
0.402863 0.000000 0.000000
0.423859 0.000000 0.000000
0.444611 0.000000 0.000000
0.459839 0.000000 0.000000
0.479492 0.000000 0.000000
0.498474 0.000000 0.000000
0.516754 0.000000 0.000000
0.534393 0.000000 0.000000
0.551788 0.000000 0.000000
0.569183 0.000000 0.000000
0.586975 0.000000 0.000000
0.605438 0.000000 0.000000
0.624939 0.000000 0.000000
0.645538 0.000000 0.000000
0.667053 0.000000 0.000000
0.688995 0.000000 0.000000
0.711365 0.000000 0.000000
0.733612 0.000000 0.000000
0.755615 0.000000 0.000000
0.777313 0.000000 0.000000
0.798676 0.000000 0.000000
0.819672 0.000000 0.000000
0.840302 0.000000 0.000000
0.860687 0.000000 0.000000
0.880798 0.000000 0.000000
0.900543 0.000000 0.000000
0.920013 0.000000 0.000000
0.939209 0.000000 0.000000
0.958130 0.000000 0.000000
0.976746 0.000000 0.000000
0.995087 0.000000 0.000000
1.000000 0.000000 0.000000
1.000000 0.000000 0.000000
1.000000 0.000000 0.000000
1.000000 0.000000 0.000000
0.000000 0.000000 0.000000
0.000000 0.000000 0.000000
0.000000 0.000000 0.000000
0.000000 0.000000 0.000000
0.000000 0.000000 0.000000
0.000000 0.000000 0.000000
0.000000 0.000000 0.000000
0.000000 0.000000 0.000000
0.000000 0.000000 0.000000
0.036163 0.000000 0.000000
0.056824 0.000000 0.000000
0.073242 0.000000 0.000000
0.088196 0.000000 0.000000
0.102509 0.000000 0.000000
0.116669 0.000000 0.000000
0.130829 0.000000 0.000000
0.145203 0.000000 0.000000
0.159882 0.000000 0.000000
0.174957 0.000000 0.000000
0.190582 0.000000 0.000000
0.206726 0.000000 0.000000
0.223480 0.000000 0.000000
0.240936 0.000000 0.000000
0.259125 0.000000 0.000000
0.278076 0.000000 0.000000
0.297791 0.000000 0.000000
0.318237 0.000000 0.000000
0.339111 0.000000 0.000000
0.360321 0.000000 0.000000
0.381622 0.000000 0.000000
0.402863 0.000000 0.000000
0.423859 0.000000 0.000000
0.444611 0.000000 0.000000
0.459839 0.000000 0.000000
0.479492 0.000000 0.000000
0.498474 0.000000 0.000000
0.516754 0.000000 0.000000
0.534393 0.000000 0.000000
0.551788 0.000000 0.000000
0.569183 0.000000 0.000000
0.586975 0.000000 0.000000
0.605438 0.000000 0.000000
0.624939 0.000000 0.000000
0.645538 0.000000 0.000000
0.667053 0.000000 0.000000
0.688995 0.000000 0.000000
0.711365 0.000000 0.000000
0.733612 0.000000 0.000000
0.755615 0.000000 0.000000
0.777313 0.000000 0.000000
0.798676 0.000000 0.000000
0.819672 0.000000 0.000000
0.840302 0.000000 0.000000
0.860687 0.000000 0.000000
0.880798 0.000000 0.000000
0.900543 0.000000 0.000000
0.920013 0.000000 0.000000
0.939209 0.000000 0.000000
0.958130 0.000000 0.000000
0.976746 0.000000 0.000000
0.995087 0.000000 0.000000
1.000000 0.000000 0.000000
1.000000 0.000000 0.000000
1.000000 0.000000 0.000000
1.000000 0.000000 0.000000
0.000000 0.036163 0.000000
0.000000 0.036163 0.000000
0.000000 0.036163 0.000000
0.000000 0.036163 0.000000
0.000000 0.036163 0.000000
0.000000 0.036163 0.000000
0.000000 0.036163 0.000000
0.000000 0.036163 0.000000
0.000000 0.036163 0.000000
0.036163 0.036163 0.000000
0.056824 0.036163 0.000000
0.073242 0.036163 0.000000
0.088196 0.036163 0.000000
0.102509 0.036163 0.000000
0.116669 0.036163 0.000000
0.130829 0.036163 0.000000
0.145203 0.036163 0.000000
0.159882 0.036163 0.000000
0.174957 0.036163 0.000000
0.190582 0.036163 0.000000
0.206726 0.036163 0.000000
0.223480 0.036163 0.000000
0.240936 0.036163 0.000000
0.259125 0.036163 0.000000
0.278076 0.036163 0.000000
0.297791 0.036163 0.000000
0.318237 0.036163 0.000000
0.339111 0.036163 0.000000
0.360321 0.036163 0.000000
0.381622 0.036163 0.000000
0.402863 0.036163 0.000000
0.423859 0.036163 0.000000
0.444611 0.036163 0.000000
0.459839 0.036163 0.000000
0.479492 0.036163 0.000000
0.498474 0.036163 0.000000
0.516754 0.036163 0.000000
0.534393 0.036163 0.000000
0.551788 0.036163 0.000000
0.569183 0.036163 0.000000
0.586975 0.036163 0.000000
0.605438 0.036163 0.000000
0.624939 0.036163 0.000000
0.645538 0.036163 0.000000
0.667053 0.036163 0.000000
0.688995 0.036163 0.000000
0.711365 0.036163 0.000000
0.733612 0.036163 0.000000
0.755615 0.036163 0.000000
0.777313 0.036163 0.000000
0.798676 0.036163 0.000000
0.819672 0.036163 0.000000
0.840302 0.036163 0.000000
0.860687 0.036163 0.000000
0.880798 0.036163 0.000000
0.900543 0.036163 0.000000
0.920013 0.036163 0.000000
0.939209 0.036163 0.000000
0.958130 0.036163 0.000000
0.976746 0.036163 0.000000
0.995087 0.036163 0.000000
1.000000 0.036163 0.000000
1.000000 0.036163 0.000000
1.000000 0.036163 0.000000
1.000000 0.036163 0.000000
0.000000 0.056824 0.000000
0.000000 0.056824 0.000000
0.000000 0.056824 0.000000
0.000000 0.056824 0.000000
0.000000 0.056824 0.000000
0.000000 0.056824 0.000000
0.000000 0.056824 0.000000
0.000000 0.056824 0.000000
0.000000 0.056824 0.000000
0.036163 0.056824 0.000000
0.056824 0.056824 0.000000
0.073242 0.056824 0.000000
0.088196 0.056824 0.000000
0.102509 0.056824 0.000000
0.116669 0.056824 0.000000
0.130829 0.056824 0.000000
0.145203 0.056824 0.000000
0.159882 0.056824 0.000000
0.174957 0.056824 0.000000
0.190582 0.056824 0.000000
0.206726 0.056824 0.000000
0.223480 0.056824 0.000000
0.240936 0.056824 0.000000
0.259125 0.056824 0.000000
0.278076 0.056824 0.000000
0.297791 0.056824 0.000000
0.318237 0.056824 0.000000
0.339111 0.056824 0.000000
0.360321 0.056824 0.000000
0.381622 0.056824 0.000000
0.402863 0.056824 0.000000
0.423859 0.056824 0.000000
0.444611 0.056824 0.000000
0.459839 0.056824 0.000000
0.479492 0.056824 0.000000
0.498474 0.056824 0.000000
0.516754 0.056824 0.000000
0.534393 0.056824 0.000000
0.551788 0.056824 0.000000
0.569183 0.056824 0.000000
0.586975 0.056824 0.000000
0.605438 0.056824 0.000000
0.624939 0.056824 0.000000
0.645538 0.056824 0.000000
0.667053 0.056824 0.000000
0.688995 0.056824 0.000000
0.711365 0.056824 0.000000
0.733612 0.056824 0.000000
0.755615 0.056824 0.000000
0.777313 0.056824 0.000000
0.798676 0.056824 0.000000
0.819672 0.056824 0.000000
0.840302 0.056824 0.000000
0.860687 0.056824 0.000000
0.880798 0.056824 0.000000
0.900543 0.056824 0.000000
0.920013 0.056824 0.000000
0.939209 0.056824 0.000000
0.958130 0.056824 0.000000
0.976746 0.056824 0.000000
0.995087 0.056824 0.000000
1.000000 0.056824 0.000000
1.000000 0.056824 0.000000
1.000000 0.056824 0.000000
1.000000 0.056824 0.000000
0.000000 0.073242 0.000000
0.000000 0.073242 0.000000
0.000000 0.073242 0.000000
0.000000 0.073242 0.000000
0.000000 0.073242 0.000000
0.000000 0.073242 0.000000
0.000000 0.073242 0.000000
0.000000 0.073242 0.000000
0.000000 0.073242 0.000000
0.036163 0.073242 0.000000
0.056824 0.073242 0.000000
0.073242 0.073242 0.000000
0.088196 0.073242 0.000000
0.102509 0.073242 0.000000
0.116669 0.073242 0.000000
0.130829 0.073242 0.000000
0.145203 0.073242 0.000000
0.159882 0.073242 0.000000
0.174957 0.073242 0.000000
0.190582 0.073242 0.000000
0.206726 0.073242 0.000000
0.223480 0.073242 0.000000
0.240936 0.073242 0.000000
0.259125 0.073242 0.000000
0.278076 0.073242 0.000000
0.297791 0.073242 0.000000
0.318237 0.073242 0.000000
0.339111 0.073242 0.000000
0.360321 0.073242 0.000000
0.381622 0.073242 0.000000
0.402863 0.073242 0.000000
0.423859 0.073242 0.000000
0.444611 0.073242 0.000000
0.459839 0.073242 0.000000
0.479492 0.073242 0.000000
0.498474 0.073242 0.000000
0.516754 0.073242 0.000000
0.534393 0.073242 0.000000
0.551788 0.073242 0.000000
0.569183 0.073242 0.000000
0.586975 0.073242 0.000000
0.605438 0.073242 0.000000
0.624939 0.073242 0.000000
0.645538 0.073242 0.000000
0.667053 0.073242 0.000000
0.688995 0.073242 0.000000
0.711365 0.073242 0.000000
0.733612 0.073242 0.000000
0.755615 0.073242 0.000000
0.777313 0.073242 0.000000
0.798676 0.073242 0.000000
0.819672 0.073242 0.000000
0.840302 0.073242 0.000000
0.860687 0.073242 0.000000
0.880798 0.073242 0.000000
0.900543 0.073242 0.000000
0.920013 0.073242 0.000000
0.939209 0.073242 0.000000
0.958130 0.073242 0.000000
0.976746 0.073242 0.000000
0.995087 0.073242 0.000000
1.000000 0.073242 0.000000
1.000000 0.073242 0.000000
1.000000 0.073242 0.000000
1.000000 0.073242 0.000000
0.000000 0.088196 0.000000
0.000000 0.088196 0.000000
0.000000 0.088196 0.000000
0.000000 0.088196 0.000000
0.000000 0.088196 0.000000
0.000000 0.088196 0.000000
0.000000 0.088196 0.000000
0.000000 0.088196 0.000000
0.000000 0.088196 0.000000
0.036163 0.088196 0.000000
0.056824 0.088196 0.000000
0.073242 0.088196 0.000000
0.088196 0.088196 0.000000
0.102509 0.088196 0.000000
0.116669 0.088196 0.000000
0.130829 0.088196 0.000000
0.145203 0.088196 0.000000
0.159882 0.088196 0.000000
0.174957 0.088196 0.000000
0.190582 0.088196 0.000000
0.206726 0.088196 0.000000
0.223480 0.088196 0.000000
0.240936 0.088196 0.000000
0.259125 0.088196 0.000000
0.278076 0.088196 0.000000
0.297791 0.088196 0.000000
0.318237 0.088196 0.000000
0.339111 0.088196 0.000000
0.360321 0.088196 0.000000
0.381622 0.088196 0.000000
0.402863 0.088196 0.000000
0.423859 0.088196 0.000000
0.444611 0.088196 0.000000
0.459839 0.088196 0.000000
0.479492 0.088196 0.000000
0.498474 0.088196 0.000000
0.516754 0.088196 0.000000
0.534393 0.088196 0.000000
0.551788 0.088196 0.000000
0.569183 0.088196 0.000000
0.586975 0.088196 0.000000
0.605438 0.088196 0.000000
0.624939 0.088196 0.000000
0.645538 0.088196 0.000000
0.667053 0.088196 0.000000
0.688995 0.088196 0.000000
0.711365 0.088196 0.000000
0.733612 0.088196 0.000000
0.755615 0.088196 0.000000
0.777313 0.088196 0.000000
0.798676 0.088196 0.000000
0.819672 0.088196 0.000000
0.840302 0.088196 0.000000
0.860687 0.088196 0.000000
0.880798 0.088196 0.000000
0.900543 0.088196 0.000000
0.920013 0.088196 0.000000
0.939209 0.088196 0.000000
0.958130 0.088196 0.000000
0.976746 0.088196 0.000000
0.995087 0.088196 0.000000
1.000000 0.088196 0.000000
1.000000 0.088196 0.000000
1.000000 0.088196 0.000000
1.000000 0.088196 0.000000
0.000000 0.102509 0.000000
0.000000 0.102509 0.000000
0.000000 0.102509 0.000000
0.000000 0.102509 0.000000
0.000000 0.102509 0.000000
0.000000 0.102509 0.000000
0.000000 0.102509 0.000000
0.000000 0.102509 0.000000
0.000000 0.102509 0.000000
0.036163 0.102509 0.000000
0.056824 0.102509 0.000000
0.073242 0.102509 0.000000
0.088196 0.102509 0.000000
0.102509 0.102509 0.000000
0.116669 0.102509 0.000000
0.130829 0.102509 0.000000
0.145203 0.102509 0.000000
0.159882 0.102509 0.000000
0.174957 0.102509 0.000000
0.190582 0.102509 0.000000
0.206726 0.102509 0.000000
0.223480 0.102509 0.000000
0.240936 0.102509 0.000000
0.259125 0.102509 0.000000
0.278076 0.102509 0.000000
0.297791 0.102509 0.000000
0.318237 0.102509 0.000000
0.339111 0.102509 0.000000
0.360321 0.102509 0.000000
0.381622 0.102509 0.000000
0.402863 0.102509 0.000000
0.423859 0.102509 0.000000
0.444611 0.102509 0.000000
0.459839 0.102509 0.000000
0.479492 0.102509 0.000000
0.498474 0.102509 0.000000
0.516754 0.102509 0.000000
