custom_nodes/comfyui-vrgamedevgirl/LUTS/High_Contrast_Vivid_Warm_Cinematic_3.cube
#Created by: Adobe Photoshop Export Color Lookup Plugin
TITLE "new.png"
#LUT size
LUT_3D_SIZE 9
#data domain
DOMAIN_MIN 0.0 0.0 0.0
DOMAIN_MAX 1.0 1.0 1.0
#LUT data points
0.000000 0.000000 0.000000
0.091980 0.000000 0.000000
0.208923 0.000000 0.000000
0.350830 0.000000 0.000000
0.517548 0.000000 0.000000
0.682312 0.000000 0.000000
0.820068 0.000000 0.000000
0.925903 0.000000 0.000000
1.000000 0.000000 0.000000
0.000000 0.091980 0.000000
0.091980 0.091980 0.000000
0.208923 0.091980 0.000000
0.350830 0.091980 0.000000
0.517548 0.091980 0.000000
0.682312 0.091980 0.000000
0.820068 0.091980 0.000000
0.925903 0.091980 0.000000
1.000000 0.091980 0.000000
0.000000 0.208923 0.000000
0.091980 0.208923 0.000000
0.208923 0.208923 0.000000
0.350830 0.208923 0.000000
0.517548 0.208923 0.000000
0.682312 0.208923 0.000000
0.820068 0.208923 0.000000
0.925903 0.208923 0.000000
1.000000 0.208923 0.000000
0.000000 0.350830 0.000000
0.091980 0.350830 0.000000
0.208923 0.350830 0.000000
0.350830 0.350830 0.000000
0.517548 0.350830 0.000000
0.682312 0.350830 0.000000
0.820068 0.350830 0.000000
0.925903 0.350830 0.000000
1.000000 0.350830 0.000000
0.000000 0.517548 0.000000
0.091980 0.517548 0.000000
0.208923 0.517548 0.000000
0.350830 0.517548 0.000000
0.517548 0.517548 0.000000
0.682312 0.517548 0.000000
0.820068 0.517548 0.000000
0.925903 0.517548 0.000000
1.000000 0.517548 0.000000
0.000000 0.682312 0.000000
0.091980 0.682312 0.000000
0.208923 0.682312 0.000000
0.350830 0.682312 0.000000
0.517548 0.682312 0.000000
0.682312 0.682312 0.000000
0.820068 0.682312 0.000000
0.925903 0.682312 0.000000
1.000000 0.682312 0.000000
0.000000 0.820068 0.000000
0.091980 0.820068 0.000000
0.208923 0.820068 0.000000
0.350830 0.820068 0.000000
0.517548 0.820068 0.000000
0.682312 0.820068 0.000000
0.820068 0.820068 0.000000
0.925903 0.820068 0.000000
1.000000 0.820068 0.000000
0.000000 0.925903 0.000000
0.091980 0.925903 0.000000
0.208923 0.925903 0.000000
0.350830 0.925903 0.000000
0.517548 0.925903 0.000000
0.682312 0.925903 0.000000
0.820068 0.925903 0.000000
0.925903 0.925903 0.000000
1.000000 0.925903 0.000000
0.000000 1.000000 0.000000
0.091980 1.000000 0.000000
0.208923 1.000000 0.000000
0.350830 1.000000 0.000000
0.517548 1.000000 0.000000
0.682312 1.000000 0.000000
0.820068 1.000000 0.000000
0.925903 1.000000 0.000000
1.000000 1.000000 0.000000
0.000000 0.000000 0.091980
0.091980 0.000000 0.091980
0.208923 0.000000 0.091980
0.350830 0.000000 0.091980
0.517548 0.000000 0.091980
0.682312 0.000000 0.091980
0.820068 0.000000 0.091980
0.925903 0.000000 0.091980
1.000000 0.000000 0.091980
0.000000 0.091980 0.091980
0.091980 0.091980 0.091980
0.209839 0.089294 0.089294
0.351776 0.084991 0.084991
0.518127 0.083313 0.083313
0.682648 0.082642 0.082642
0.820221 0.082367 0.082367
0.925964 0.082245 0.082245
1.000000 0.082184 0.082184
0.000000 0.208923 0.091980
0.086365 0.210297 0.086365
0.210297 0.210297 0.086365
0.351776 0.207336 0.084991
0.518127 0.205933 0.083313
0.682648 0.205322 0.082642
0.820221 0.205078 0.082367
0.925964 0.204956 0.082245
1.000000 0.204895 0.082184
0.000000 0.350830 0.091980
0.083008 0.351929 0.083008
0.206879 0.351929 0.083008
0.351929 0.351929 0.083008
0.518127 0.350067 0.083313
0.682648 0.349335 0.082642
0.820221 0.348999 0.082367
0.925964 0.348846 0.082245
1.000000 0.348785 0.082184
0.000000 0.517548 0.091980
0.082336 0.518188 0.082336
0.205597 0.518188 0.082336
0.349945 0.518188 0.082336
0.518188 0.518188 0.082336
0.682648 0.517181 0.082581
0.820221 0.516754 0.082367
0.925964 0.516571 0.082245
1.000000 0.516449 0.082184
0.000000 0.682312 0.091980
0.082092 0.682648 0.082092
0.205109 0.682648 0.082092
0.349243 0.682648 0.082092
0.517151 0.682648 0.082092
0.682648 0.682648 0.082092
0.820251 0.682129 0.082153
0.925964 0.681885 0.082245
1.000000 0.681732 0.082184
0.000000 0.820068 0.091980
0.082001 0.820251 0.082001
0.204926 0.820251 0.082001
0.348938 0.820251 0.082001
0.516724 0.820251 0.082001
0.682129 0.820251 0.082001
0.820251 0.820251 0.082001
0.925964 0.819946 0.081970
1.000000 0.819794 0.082031
0.000000 0.925903 0.091980
0.081970 0.925964 0.081970
0.204834 0.925964 0.081970
0.348785 0.925964 0.081970
0.516541 0.925964 0.081970
0.681854 0.925964 0.081970
0.819946 0.925964 0.081970
0.925964 0.925964 0.081970
1.000000 0.925781 0.081940
0.000000 1.000000 0.091980
0.081940 1.000000 0.081940
0.204803 1.000000 0.081940
0.348724 1.000000 0.081940
0.516449 1.000000 0.081940
0.681732 1.000000 0.081940
0.819794 1.000000 0.081940
0.925781 1.000000 0.081940
1.000000 1.000000 0.081940
0.000000 0.000000 0.208923
0.091980 0.000000 0.208923
0.208923 0.000000 0.208923
0.350830 0.000000 0.208923
0.517548 0.000000 0.208923
0.682312 0.000000 0.208923
0.820068 0.000000 0.208923
0.925903 0.000000 0.208923
1.000000 0.000000 0.208923
0.000000 0.091980 0.208923
0.086365 0.086365 0.210297
0.210297 0.086365 0.210297
0.351807 0.084442 0.207214
0.518158 0.083191 0.205872
0.682648 0.082611 0.205322
0.820221 0.082367 0.205078
0.925964 0.082245 0.204956
1.000000 0.082153 0.204895
0.000000 0.208923 0.208923
0.086365 0.210297 0.210297
0.208923 0.208923 0.208923
0.352356 0.205719 0.205719
0.519196 0.199890 0.199890
0.683411 0.196472 0.196472
0.820648 0.194794 0.194794
0.926147 0.193939 0.193939
1.000000 0.193512 0.193512
0.000000 0.350830 0.208923
0.083008 0.351929 0.206879
0.198914 0.353729 0.198914
0.353729 0.353729 0.198914
0.519196 0.348480 0.199890
0.683411 0.345703 0.196472
0.820648 0.344269 0.194794
0.926147 0.343536 0.193939
1.000000 0.343170 0.193512
0.000000 0.517548 0.208923
0.082336 0.518188 0.205597
0.194763 0.519684 0.194763
0.346985 0.519684 0.194763
0.519684 0.519684 0.194763
0.683411 0.516296 0.196442
0.820648 0.514771 0.194794
0.926147 0.513977 0.193939
1.000000 0.513519 0.193512
0.000000 0.682312 0.208923
0.082092 0.682648 0.205109
0.193085 0.683563 0.193085
0.344330 0.683563 0.193085
0.515869 0.683563 0.193085
0.683563 0.683563 0.193085
0.820679 0.681549 0.193451
0.926147 0.680695 0.193939
1.000000 0.680206 0.193512
0.000000 0.820068 0.208923
0.082001 0.820251 0.204926
0.192383 0.820709 0.192383
0.343201 0.820709 0.192383
0.514282 0.820709 0.192383
0.681488 0.820709 0.192383
0.820709 0.820709 0.192383
0.926147 0.819519 0.192047
1.000000 0.818970 0.192688
0.000000 0.925903 0.208923
0.081970 0.925964 0.204834
0.192047 0.926147 0.192047
0.342682 0.926147 0.192047
0.513519 0.926147 0.192047
0.680511 0.926147 0.192047
0.819519 0.926147 0.192047
0.926147 0.926147 0.192047
1.000000 0.925476 0.191895
0.000000 1.000000 0.208923
0.081940 1.000000 0.204803
0.191895 1.000000 0.191895
0.342407 1.000000 0.191895
0.513123 1.000000 0.191895
0.679993 1.000000 0.191895
0.818939 1.000000 0.191895
0.925476 1.000000 0.191895
1.000000 1.000000 0.191895
0.000000 0.000000 0.350830
0.091980 0.000000 0.350830
0.208923 0.000000 0.350830
0.350830 0.000000 0.350830
0.517548 0.000000 0.350830
0.682312 0.000000 0.350830
0.820068 0.000000 0.350830
0.925903 0.000000 0.350830
1.000000 0.000000 0.350830
0.000000 0.091980 0.350830
0.083008 0.083008 0.351929
0.206879 0.083008 0.351929
0.351929 0.083008 0.351929
0.518158 0.082916 0.350006
0.682648 0.082520 0.349304
0.820221 0.082306 0.348999
0.925964 0.082214 0.348846
1.000000 0.082153 0.348785
0.000000 0.208923 0.350830
0.083008 0.206879 0.351929
0.198914 0.198914 0.353729
0.353729 0.198914 0.353729
0.519348 0.198303 0.348022
0.683441 0.195923 0.345490
0.820679 0.194550 0.344177
0.926147 0.193787 0.343475
1.000000 0.193390 0.343109
0.000000 0.350830 0.350830
0.083008 0.351929 0.351929
0.198914 0.353729 0.353729
0.350830 0.350830 0.350830
0.519226 0.347870 0.347870
0.684143 0.341827 0.341827
0.821259 0.337524 0.337524
0.926422 0.334991 0.334991
1.000000 0.333557 0.333557
0.000000 0.517548 0.350830
0.082336 0.518188 0.349945
0.194763 0.519684 0.346985
0.338562 0.521301 0.338562
0.521301 0.521301 0.338562
0.684143 0.515320 0.341827
0.821259 0.511932 0.337524
0.926422 0.509827 0.334991
1.000000 0.508606 0.333557
0.000000 0.682312 0.350830
0.082092 0.682648 0.349243
0.193085 0.683563 0.344330
0.332642 0.685089 0.332642
0.512604 0.685089 0.332642
0.685089 0.685089 0.332642
0.821411 0.680603 0.334747
0.926422 0.678864 0.334991
1.000000 0.677643 0.333557
0.000000 0.820068 0.350830
0.082001 0.820251 0.348938
0.192383 0.820709 0.343201
0.329987 0.821625 0.329987
0.508728 0.821625 0.329987
0.679993 0.821625 0.329987
0.821625 0.821625 0.329987
0.926514 0.818665 0.329285
1.000000 0.817505 0.331451
0.000000 0.925903 0.350830
0.081970 0.925964 0.348785
0.192047 0.926147 0.342682
0.328674 0.926514 0.328674
0.506775 0.926514 0.328674
0.677490 0.926514 0.328674
0.818604 0.926514 0.328674
0.926514 0.926514 0.328674
1.000000 0.924774 0.327972
0.000000 1.000000 0.350830
0.081940 1.000000 0.348724
0.191895 1.000000 0.342407
0.327972 1.000000 0.327972
0.505768 1.000000 0.327972
0.676178 1.000000 0.327972
0.817047 1.000000 0.327972
0.924774 1.000000 0.327972
1.000000 1.000000 0.327972
0.000000 0.000000 0.517548
0.091980 0.000000 0.517548
0.208923 0.000000 0.517548
0.350830 0.000000 0.517548
0.517548 0.000000 0.517548
0.682312 0.000000 0.517548
0.820068 0.000000 0.517548
0.925903 0.000000 0.517548
1.000000 0.000000 0.517548
0.000000 0.091980 0.517548
0.082336 0.082336 0.518188
0.205597 0.082336 0.518188
0.349945 0.082336 0.518188
0.518188 0.082336 0.518188
0.682648 0.082367 0.517181
0.820221 0.082245 0.516754
0.925964 0.082153 0.516571
1.000000 0.082123 0.516449
0.000000 0.208923 0.517548
0.082336 0.205597 0.518188
0.194763 0.194763 0.519684
0.346985 0.194763 0.519684
0.519684 0.194763 0.519684
0.683502 0.194824 0.516083
0.820679 0.194061 0.514618
0.926147 0.193512 0.513855
1.000000 0.193176 0.513458
0.000000 0.350830 0.517548
0.082336 0.349945 0.518188
0.194763 0.346985 0.519684
0.338562 0.338562 0.521301
0.521301 0.338562 0.521301
0.684509 0.338562 0.514374
0.821350 0.335876 0.511230
0.926422 0.333984 0.509308
1.000000 0.332794 0.508209
0.000000 0.517548 0.517548
0.082336 0.518188 0.518188
0.194763 0.519684 0.519684
0.338562 0.521301 0.521301
0.517548 0.517548 0.517548
0.683624 0.515594 0.515594
0.821411 0.511353 0.511353
0.926575 0.507660 0.507660
1.000000 0.505157 0.505157
0.000000 0.682312 0.517548
0.082092 0.682648 0.517151
0.193085 0.683563 0.515869
0.332642 0.685089 0.512604
0.505890 0.685974 0.505890
0.685974 0.685974 0.505890
0.821411 0.680817 0.511353
0.926575 0.677948 0.507660
1.000000 0.675873 0.505157
0.000000 0.820068 0.517548
0.082001 0.820251 0.516724
0.192383 0.820709 0.514282
0.329987 0.821625 0.508728
0.499268 0.822632 0.499268
0.677216 0.822632 0.499268
0.822632 0.822632 0.499268
0.926880 0.817719 0.500122
1.000000 0.816620 0.504028
0.000000 0.925903 0.517548
0.081970 0.925964 0.516541
0.192047 0.926147 0.513519
0.328674 0.926514 0.506775
0.495758 0.927002 0.495758
0.672577 0.927002 0.495758
0.817078 0.927002 0.495758
0.927002 0.927002 0.495758
1.000000 0.923645 0.493866
0.000000 1.000000 0.517548
0.081940 1.000000 0.516449
0.191895 1.000000 0.513123
0.327972 1.000000 0.505768
0.493866 1.000000 0.493866
0.670074 1.000000 0.493866
0.814056 1.000000 0.493866
0.923645 1.000000 0.493866
1.000000 1.000000 0.493866
0.000000 0.000000 0.682312
0.091980 0.000000 0.682312
0.208923 0.000000 0.682312
0.350830 0.000000 0.682312
0.517548 0.000000 0.682312
0.682312 0.000000 0.682312
0.820068 0.000000 0.682312
0.925903 0.000000 0.682312
1.000000 0.000000 0.682312
0.000000 0.091980 0.682312
0.082092 0.082092 0.682648
0.205109 0.082092 0.682648
0.349243 0.082092 0.682648
0.517151 0.082092 0.682648
0.682648 0.082092 0.682648
0.820251 0.082123 0.682129
0.925964 0.082092 0.681854
1.000000 0.082062 0.681732
0.000000 0.208923 0.682312
0.082092 0.205109 0.682648
0.193085 0.193085 0.683563
0.344330 0.193085 0.683563
0.515869 0.193085 0.683563
0.683563 0.193085 0.683563
0.820709 0.193268 0.681549
0.926147 0.193054 0.680603
1.000000 0.192871 0.680115
0.000000 0.350830 0.682312
0.082092 0.349243 0.682648
0.193085 0.344330 0.683563
0.332642 0.332642 0.685089
0.512604 0.332642 0.685089
0.685089 0.332642 0.685089
0.821472 0.333252 0.680420
0.926453 0.332367 0.678284
1.000000 0.331635 0.677124
0.000000 0.517548 0.682312
0.082092 0.517151 0.682648
0.193085 0.515869 0.683563
0.332642 0.512604 0.685089
0.505890 0.505890 0.685974
0.685974 0.505890 0.685974
0.821991 0.506470 0.679413
0.926727 0.504425 0.676483
1.000000 0.502686 0.674591
0.000000 0.682312 0.682312
0.082092 0.682648 0.682648
0.193085 0.683563 0.683563
0.332642 0.685089 0.685089
0.505890 0.685974 0.685974
0.682312 0.682312 0.682312
0.820770 0.681366 0.681366
0.926422 0.679230 0.679230
1.000000 0.677216 0.677216
0.000000 0.820068 0.682312
0.082001 0.820251 0.682129
0.192383 0.820709 0.681488
0.329987 0.821625 0.679993
0.499268 0.822632 0.677216
0.674225 0.822540 0.674225
0.822540 0.822540 0.674225
0.926483 0.819061 0.678741
1.000000 0.817566 0.677216
0.000000 0.925903 0.682312
0.081970 0.925964 0.681854
0.192047 0.926147 0.680511
0.328674 0.926514 0.677490
0.495758 0.927002 0.672577
0.668518 0.927246 0.668518
0.815704 0.927246 0.668518
0.927246 0.927246 0.668518
1.000000 0.923065 0.666901
0.000000 1.000000 0.682312
0.081940 1.000000 0.681732
0.191895 1.000000 0.679993
0.327972 1.000000 0.676178
0.493866 1.000000 0.670074
0.665192 1.000000 0.665192
0.811707 1.000000 0.665192
0.922760 1.000000 0.665192
1.000000 1.000000 0.665192
0.000000 0.000000 0.820068
0.091980 0.000000 0.820068
0.208923 0.000000 0.820068
0.350830 0.000000 0.820068
0.517548 0.000000 0.820068
0.682312 0.000000 0.820068
0.820068 0.000000 0.820068
0.925903 0.000000 0.820068
1.000000 0.000000 0.820068
0.000000 0.091980 0.820068
0.082001 0.082001 0.820251
0.204926 0.082001 0.820251
0.348938 0.082001 0.820251
0.516724 0.082001 0.820251
0.682129 0.082001 0.820251
0.820251 0.082001 0.820251
0.925964 0.082031 0.819946
1.000000 0.082031 0.819794
0.000000 0.208923 0.820068
0.082001 0.204926 0.820251
0.192383 0.192383 0.820709
0.343201 0.192383 0.820709
0.514282 0.192383 0.820709
0.681488 0.192383 0.820709
0.820709 0.192383 0.820709
0.926147 0.192535 0.819550
1.000000 0.192505 0.818970
0.000000 0.350830 0.820068
0.082001 0.348938 0.820251
0.192383 0.343201 0.820709
0.329987 0.329987 0.821625
0.508728 0.329987 0.821625
0.679993 0.329987 0.821625
0.821625 0.329987 0.821625
0.926483 0.330505 0.818756
1.000000 0.330322 0.817352
0.000000 0.517548 0.820068
0.082001 0.516724 0.820251
0.192383 0.514282 0.820709
0.329987 0.508728 0.821625
0.499268 0.499268 0.822632
0.677216 0.499268 0.822632
0.822632 0.499268 0.822632
0.926880 0.500214 0.817749
1.000000 0.499634 0.815521
0.000000 0.682312 0.820068
0.082001 0.682129 0.820251
0.192383 0.681488 0.820709
0.329987 0.679993 0.821625
0.499268 0.677216 0.822632
0.674225 0.674225 0.822540
0.822540 0.674225 0.822540
0.926849 0.674683 0.817749
1.000000 0.673553 0.815765
0.000000 0.820068 0.820068
0.082001 0.820251 0.820251
0.192383 0.820709 0.820709
0.329987 0.821625 0.821625
0.499268 0.822632 0.822632
0.674225 0.822540 0.822540
0.820068 0.820068 0.820068
0.926147 0.819641 0.819641
1.000000 0.818756 0.818756
0.000000 0.925903 0.820068
0.081970 0.925964 0.819946
0.192047 0.926147 0.819519
0.328674 0.926514 0.818604
0.495758 0.927002 0.817078
0.668518 0.927246 0.815704
0.815735 0.926941 0.815735
0.926941 0.926941 0.815735
1.000000 0.925018 0.817719
0.000000 1.000000 0.820068
0.081940 1.000000 0.819794
0.191895 1.000000 0.818939
0.327972 1.000000 0.817047
0.493866 1.000000 0.814056
0.665192 1.000000 0.811707
0.812195 1.000000 0.812195
0.922943 1.000000 0.812195
1.000000 1.000000 0.812195
0.000000 0.000000 0.925903
0.091980 0.000000 0.925903
0.208923 0.000000 0.925903
0.350830 0.000000 0.925903
0.517548 0.000000 0.925903
0.682312 0.000000 0.925903
0.820068 0.000000 0.925903
0.925903 0.000000 0.925903
1.000000 0.000000 0.925903
0.000000 0.091980 0.925903
0.081970 0.081970 0.925964
0.204834 0.081970 0.925964
0.348785 0.081970 0.925964
0.516541 0.081970 0.925964
0.681854 0.081970 0.925964
0.819946 0.081970 0.925964
0.925964 0.081970 0.925964
1.000000 0.081970 0.925781
0.000000 0.208923 0.925903
0.081970 0.204834 0.925964
0.192047 0.192047 0.926147
0.342682 0.192047 0.926147
0.513519 0.192047 0.926147
0.680511 0.192047 0.926147
0.819519 0.192047 0.926147
0.926147 0.192047 0.926147
1.000000 0.192169 0.925476
0.000000 0.350830 0.925903
0.081970 0.348785 0.925964
0.192047 0.342682 0.926147
0.328674 0.328674 0.926514
0.506775 0.328674 0.926514
0.677490 0.328674 0.926514
0.818604 0.328674 0.926514
0.926514 0.328674 0.926514
1.000000 0.329041 0.924805
0.000000 0.517548 0.925903
0.081970 0.516541 0.925964
0.192047 0.513519 0.926147
0.328674 0.506775 0.926514
0.495758 0.495758 0.927002
0.672577 0.495758 0.927002
0.817078 0.495758 0.927002
0.927002 0.495758 0.927002
1.000000 0.496521 0.923889
0.000000 0.682312 0.925903
0.081970 0.681854 0.925964
0.192047 0.680511 0.926147
0.328674 0.677490 0.926514
0.495758 0.672577 0.927002
0.668518 0.668518 0.927246
0.815704 0.668518 0.927246
0.927246 0.668518 0.927246
1.000000 0.669250 0.923492
0.000000 0.820068 0.925903
0.081970 0.819946 0.925964
0.192047 0.819519 0.926147
0.328674 0.818604 0.926514
0.495758 0.817078 0.927002
0.668518 0.815704 0.927246
0.815735 0.815735 0.926941
0.926941 0.815735 0.926941
1.000000 0.815765 0.924286
0.000000 0.925903 0.925903
0.081970 0.925964 0.925964
0.192047 0.926147 0.926147
0.328674 0.926514 0.926514
0.495758 0.927002 0.927002
0.668518 0.927246 0.927246
0.815735 0.926941 0.926941
0.925903 0.925903 0.925903
1.000000 0.925720 0.925720
0.000000 1.000000 0.925903
0.081940 1.000000 0.925781
0.191895 1.000000 0.925476
0.327972 1.000000 0.924774
0.493866 1.000000 0.923645
0.665192 1.000000 0.922760
0.812195 1.000000 0.922943
0.924194 1.000000 0.924194
1.000000 1.000000 0.924194
0.000000 0.000000 1.000000
0.091980 0.000000 1.000000
0.208923 0.000000 1.000000
0.350830 0.000000 1.000000
0.517548 0.000000 1.000000
0.682312 0.000000 1.000000
0.820068 0.000000 1.000000
0.925903 0.000000 1.000000
1.000000 0.000000 1.000000
0.000000 0.091980 1.000000
0.081940 0.081940 1.000000
0.204803 0.081940 1.000000
0.348724 0.081940 1.000000
0.516449 0.081940 1.000000
0.681732 0.081940 1.000000
0.819794 0.081940 1.000000
0.925781 0.081940 1.000000
1.000000 0.081940 1.000000
0.000000 0.208923 1.000000
0.081940 0.204803 1.000000
0.191895 0.191895 1.000000
0.342407 0.191895 1.000000
0.513123 0.191895 1.000000
0.679993 0.191895 1.000000
0.818939 0.191895 1.000000
0.925476 0.191895 1.000000
1.000000 0.191895 1.000000
0.000000 0.350830 1.000000
0.081940 0.348724 1.000000
0.191895 0.342407 1.000000
0.327972 0.327972 1.000000
0.505768 0.327972 1.000000
0.676178 0.327972 1.000000
0.817047 0.327972 1.000000
0.924774 0.327972 1.000000
1.000000 0.327972 1.000000
0.000000 0.517548 1.000000
0.081940 0.516449 1.000000
0.191895 0.513123 1.000000
0.327972 0.505768 1.000000
0.493866 0.493866 1.000000
0.670074 0.493866 1.000000
0.814056 0.493866 1.000000
0.923645 0.493866 1.000000
1.000000 0.493866 1.000000
0.000000 0.682312 1.000000
0.081940 0.681732 1.000000
0.191895 0.679993 1.000000
0.327972 0.676178 1.000000
0.493866 0.670074 1.000000
0.665192 0.665192 1.000000
0.811707 0.665192 1.000000
0.922760 0.665192 1.000000
1.000000 0.665192 1.000000
0.000000 0.820068 1.000000
0.081940 0.819794 1.000000
0.191895 0.818939 1.000000
0.327972 0.817047 1.000000
0.493866 0.814056 1.000000
0.665192 0.811707 1.000000
0.812195 0.812195 1.000000
0.922943 0.812195 1.000000
1.000000 0.812195 1.000000
0.000000 0.925903 1.000000
0.081940 0.925781 1.000000
0.191895 0.925476 1.000000
0.327972 0.924774 1.000000
0.493866 0.923645 1.000000
0.665192 0.922760 1.000000
0.812195 0.922943 1.000000
0.924194 0.924194 1.000000
1.000000 0.924194 1.000000
0.000000 1.000000 1.000000
0.081940 1.000000 1.000000
0.191895 1.000000 1.000000
0.327972 1.000000 1.000000
0.493866 1.000000 1.000000
0.665192 1.000000 1.000000
0.812195 1.000000 1.000000
0.924194 1.000000 1.000000
1.000000 1.000000 1.000000
