custom_nodes/comfyui-vrgamedevgirl/LUTS/High_Contrast_Cinematic_Cine_Grade.cube
#Copyright Tim Martin Presetpro.com StockPresets.com
TITLE "01 - POL - Cine"
#LUT size
LUT_3D_SIZE 4
#LUT data points
0.007843 0.027451 0.039216
0.231373 0.039216 0.054902
0.580392 0.015686 0.082353
0.980392 0.101961 0.113725
0.000000 0.227451 0.078431
0.250980 0.235294 0.047059
0.623529 0.258824 0.090196
0.996078 0.317647 0.129412
0.082353 0.458824 0.098039
0.243137 0.443137 0.082353
0.576471 0.482353 0.003922
1.000000 0.615686 0.007843
0.450980 0.913725 0.000000
0.552941 0.913725 0.000000
0.811765 0.929412 0.000000
1.000000 0.972549 0.000000
0.000000 0.121569 0.270588
0.247059 0.137255 0.294118
0.619608 0.129412 0.294118
0.988235 0.160784 0.305882
0.000000 0.305882 0.305882
0.290196 0.305882 0.317647
0.635294 0.298039 0.301961
0.992157 0.333333 0.301961
0.137255 0.549020 0.286275
0.294118 0.513725 0.266667
0.611765 0.521569 0.207843
1.000000 0.647059 0.301961
0.407843 0.929412 0.235294
0.517647 0.921569 0.215686
0.792157 0.937255 0.149020
1.000000 0.980392 0.000000
0.000000 0.329412 0.603922
0.000000 0.282353 0.623529
0.729412 0.384314 0.690196
0.992157 0.513725 0.705882
0.003922 0.443137 0.588235
0.243137 0.443137 0.627451
0.741176 0.509804 0.698039
0.992157 0.572549 0.713725
0.003922 0.694118 0.643137
0.321569 0.698039 0.658824
0.749020 0.705882 0.698039
0.996078 0.682353 0.639216
0.219608 0.972549 0.607843
0.376471 0.968627 0.588235
0.721569 0.949020 0.545098
0.996078 0.988235 0.419608
0.321569 0.705882 0.960784
0.458824 0.682353 0.960784
0.772549 0.705882 0.972549
0.976471 0.807843 0.976471
0.415686 0.776471 0.960784
0.533333 0.756863 0.956863
0.780392 0.749020 0.972549
0.980392 0.843137 0.976471
0.007843 0.886275 0.964706
0.333333 0.874510 0.956863
0.772549 0.866667 0.976471
0.984314 0.909804 0.984314
0.447059 0.996078 0.984314
0.545098 1.000000 0.996078
0.756863 1.000000 0.996078
0.996078 1.000000 1.000000
