custom_nodes/comfyui-vrgamedevgirl/LUTS/High_Contrast_Muted_Cool_Green_Tint.cube
#Created by: Adobe Photoshop Export Color Lookup Plugin
#Copyright: (C) Copyright 2017 PremiumBeat.com
TITLE "Basin"
#LUT size
LUT_3D_SIZE 64
#data domain
DOMAIN_MIN 0.0 0.0 0.0
DOMAIN_MAX 1.0 1.0 1.0
#LUT data points
0.000000 0.000000 0.000000
0.000031 0.000031 0.000031
0.000122 0.000122 0.000122
0.000275 0.000275 0.000275
0.000793 0.000793 0.000793
0.001770 0.001770 0.001770
0.003479 0.003479 0.003479
0.006317 0.006317 0.006317
0.010803 0.010803 0.010803
0.016632 0.016632 0.016632
0.020172 0.020172 0.020172
0.024384 0.024384 0.024384
0.028961 0.028961 0.028961
0.033966 0.033966 0.033966
0.039398 0.039398 0.039398
0.045319 0.045319 0.045319
0.051697 0.051697 0.051697
0.058594 0.058594 0.058594
0.066010 0.066010 0.066010
0.073944 0.073944 0.073944
0.082428 0.082428 0.082428
0.091461 0.091461 0.091461
0.101044 0.101044 0.101044
0.111206 0.111206 0.111206
0.121979 0.121979 0.121979
0.133331 0.133331 0.133331
0.145325 0.145325 0.145325
0.157898 0.157898 0.157898
0.171173 0.171173 0.171173
0.185059 0.185059 0.185059
0.199615 0.199615 0.199615
0.214844 0.214844 0.214844
0.230774 0.230774 0.230774
0.247375 0.247375 0.247375
0.264740 0.264740 0.264740
0.282867 0.282867 0.282867
0.301819 0.301819 0.301819
0.321411 0.321411 0.321411
0.340973 0.340973 0.340973
0.360413 0.360413 0.360413
0.379730 0.379730 0.379730
0.398895 0.398895 0.398895
0.417908 0.417908 0.417908
0.436768 0.436768 0.436768
0.455505 0.455505 0.455505
0.474030 0.474030 0.474030
0.492371 0.492371 0.492371
0.510498 0.510498 0.510498
0.528412 0.528412 0.528412
0.546143 0.546143 0.546143
0.563629 0.563629 0.563629
0.580872 0.580872 0.580872
0.597931 0.597931 0.597931
0.614685 0.614685 0.614685
0.631134 0.631134 0.631134
0.647339 0.647339 0.647339
0.663208 0.663208 0.663208
0.678772 0.678772 0.678772
0.693909 0.693909 0.693909
0.708649 0.708649 0.708649
0.709930 0.709930 0.709930
0.709930 0.709930 0.709930
0.709930 0.709930 0.709930
0.709930 0.709930 0.709930
0.000031 0.000031 0.000031
0.000031 0.000031 0.000031
0.000122 0.000122 0.000122
0.000275 0.000275 0.000275
0.000793 0.000793 0.000793
0.001740 0.001740 0.001740
0.003479 0.003479 0.003479
0.006317 0.006317 0.006317
0.010803 0.010803 0.010803
0.016632 0.016632 0.016632
0.020172 0.020172 0.020172
0.024384 0.024384 0.024384
0.028931 0.028931 0.028931
0.033966 0.033966 0.033966
0.039398 0.039398 0.039398
0.045288 0.045288 0.045288
0.051697 0.051697 0.051697
0.058594 0.058594 0.058594
0.066010 0.066010 0.066010
0.073944 0.073944 0.073944
0.082428 0.082428 0.082428
0.091461 0.091461 0.091461
0.101044 0.101044 0.101044
0.111206 0.111206 0.111206
0.121979 0.121979 0.121979
0.133331 0.133331 0.133331
0.145325 0.145325 0.145325
0.157898 0.157898 0.157898
0.171173 0.171173 0.171173
0.185059 0.185059 0.185059
0.199615 0.199615 0.199615
0.214844 0.214844 0.214844
0.230774 0.230774 0.230774
0.247375 0.247375 0.247375
0.264740 0.264740 0.264740
0.282867 0.282867 0.282867
0.301819 0.301819 0.301819
0.321411 0.321411 0.321411
0.340973 0.340973 0.340973
0.360413 0.360413 0.360413
0.379730 0.379730 0.379730
0.398895 0.398895 0.398895
0.417908 0.417908 0.417908
0.436768 0.436768 0.436768
0.455475 0.455475 0.455475
0.473999 0.473999 0.473999
0.492371 0.492371 0.492371
0.510498 0.510498 0.510498
0.528412 0.528412 0.528412
0.546143 0.546143 0.546143
0.563629 0.563629 0.563629
0.580872 0.580872 0.580872
0.597931 0.597931 0.597931
0.614685 0.614685 0.614685
0.631134 0.631134 0.631134
0.647339 0.647339 0.647339
0.663208 0.663208 0.663208
0.678772 0.678772 0.678772
0.693909 0.693909 0.693909
0.708649 0.708649 0.708649
0.709930 0.709930 0.709930
0.709930 0.709930 0.709930
0.709930 0.709930 0.709930
0.709930 0.709930 0.709930
0.000061 0.000061 0.000061
0.000092 0.000092 0.000092
0.000092 0.000092 0.000092
0.000275 0.000275 0.000275
0.000763 0.000763 0.000763
0.001740 0.001740 0.001740
0.003479 0.003479 0.003479
0.006317 0.006317 0.006317
0.010773 0.010773 0.010773
0.016632 0.016632 0.016632
0.020172 0.020172 0.020172
0.024384 0.024384 0.024384
0.028931 0.028931 0.028931
0.033966 0.033966 0.033966
0.039398 0.039398 0.039398
0.045288 0.045288 0.045288
0.051697 0.051697 0.051697
0.058594 0.058594 0.058594
0.066010 0.066010 0.066010
0.073944 0.073944 0.073944
0.082428 0.082428 0.082428
0.091461 0.091461 0.091461
0.101013 0.101013 0.101013
0.111206 0.111206 0.111206
0.121979 0.121979 0.121979
0.133331 0.133331 0.133331
0.145325 0.145325 0.145325
0.157898 0.157898 0.157898
0.171173 0.171173 0.171173
0.185059 0.185059 0.185059
0.199615 0.199615 0.199615
0.214844 0.214844 0.214844
0.230774 0.230774 0.230774
0.247375 0.247375 0.247375
0.264740 0.264740 0.264740
0.282837 0.282837 0.282837
0.301819 0.301819 0.301819
0.321411 0.321411 0.321411
0.340973 0.340973 0.340973
0.360413 0.360413 0.360413
0.379730 0.379730 0.379730
0.398895 0.398895 0.398895
0.417908 0.417908 0.417908
0.436768 0.436768 0.436768
0.455475 0.455475 0.455475
0.473999 0.473999 0.473999
0.492371 0.492371 0.492371
0.510498 0.510498 0.510498
0.528412 0.528412 0.528412
0.546143 0.546143 0.546143
0.563629 0.563629 0.563629
0.580872 0.580872 0.580872
0.597931 0.597931 0.597931
0.614655 0.614655 0.614655
0.631134 0.631134 0.631134
0.647339 0.647339 0.647339
0.663208 0.663208 0.663208
0.678772 0.678772 0.678772
0.693909 0.693909 0.693909
0.708649 0.708649 0.708649
0.709930 0.709930 0.709930
0.709930 0.709930 0.709930
0.709930 0.709930 0.709930
0.709930 0.709930 0.709930
0.000183 0.000183 0.000183
0.000183 0.000183 0.000183
0.000214 0.000214 0.000214
0.000275 0.000275 0.000275
0.000763 0.000763 0.000763
0.001740 0.001740 0.001740
0.003479 0.003479 0.003479
0.006317 0.006317 0.006317
0.010773 0.010773 0.010773
0.016632 0.016632 0.016632
0.020172 0.020172 0.020172
0.024353 0.024353 0.024353
0.028931 0.028931 0.028931
0.033966 0.033966 0.033966
0.039398 0.039398 0.039398
0.045288 0.045288 0.045288
0.051697 0.051697 0.051697
0.058594 0.058594 0.058594
0.066010 0.066010 0.066010
0.073944 0.073944 0.073944
0.082397 0.082397 0.082397
0.091431 0.091431 0.091431
0.101013 0.101013 0.101013
0.111206 0.111206 0.111206
0.121979 0.121979 0.121979
0.133331 0.133331 0.133331
0.145294 0.145294 0.145294
0.157898 0.157898 0.157898
0.171173 0.171173 0.171173
0.185059 0.185059 0.185059
0.199615 0.199615 0.199615
0.214844 0.214844 0.214844
0.230774 0.230774 0.230774
0.247375 0.247375 0.247375
0.264740 0.264740 0.264740
0.282837 0.282837 0.282837
0.301819 0.301819 0.301819
0.321411 0.321411 0.321411
0.340973 0.340973 0.340973
0.360413 0.360413 0.360413
0.379730 0.379730 0.379730
0.398895 0.398895 0.398895
0.417877 0.417877 0.417877
0.436768 0.436768 0.436768
0.455475 0.455475 0.455475
0.473999 0.473999 0.473999
0.492371 0.492371 0.492371
0.510498 0.510498 0.510498
0.528412 0.528412 0.528412
0.546143 0.546143 0.546143
0.563629 0.563629 0.563629
0.580872 0.580872 0.580872
0.597931 0.597931 0.597931
0.614655 0.614655 0.614655
0.631134 0.631134 0.631134
0.647339 0.647339 0.647339
0.663208 0.663208 0.663208
0.678741 0.678741 0.678741
0.693909 0.693909 0.693909
0.708618 0.708618 0.708618
0.709930 0.709930 0.709930
0.709930 0.709930 0.709930
0.709930 0.709930 0.709930
0.709930 0.709930 0.709930
0.000488 0.000488 0.000488
0.000488 0.000488 0.000488
0.000519 0.000519 0.000519
0.000580 0.000580 0.000580
0.000763 0.000763 0.000763
0.001740 0.001740 0.001740
0.003479 0.003479 0.003479
0.006317 0.006317 0.006317
0.010773 0.010773 0.010773
0.016632 0.016632 0.016632
0.020142 0.020142 0.020142
0.024353 0.024353 0.024353
0.028931 0.028931 0.028931
0.033936 0.033936 0.033936
0.039398 0.039398 0.039398
0.045288 0.045288 0.045288
0.051666 0.051666 0.051666
0.058594 0.058594 0.058594
0.066010 0.066010 0.066010
0.073914 0.073914 0.073914
0.082397 0.082397 0.082397
0.091431 0.091431 0.091431
0.101013 0.101013 0.101013
0.111206 0.111206 0.111206
0.121948 0.121948 0.121948
0.133301 0.133301 0.133301
0.145294 0.145294 0.145294
0.157867 0.157867 0.157867
0.171173 0.171173 0.171173
0.185059 0.185059 0.185059
0.199585 0.199585 0.199585
0.214813 0.214813 0.214813
0.230743 0.230743 0.230743
0.247375 0.247375 0.247375
0.264709 0.264709 0.264709
0.282837 0.282837 0.282837
0.301819 0.301819 0.301819
0.321411 0.321411 0.321411
0.340973 0.340973 0.340973
0.360382 0.360382 0.360382
0.379700 0.379700 0.379700
0.398865 0.398865 0.398865
0.417877 0.417877 0.417877
0.436737 0.436737 0.436737
0.455475 0.455475 0.455475
0.473999 0.473999 0.473999
0.492340 0.492340 0.492340
0.510468 0.510468 0.510468
0.528412 0.528412 0.528412
0.546112 0.546112 0.546112
0.563599 0.563599 0.563599
0.580841 0.580841 0.580841
0.597900 0.597900 0.597900
0.614655 0.614655 0.614655
0.631104 0.631104 0.631104
0.647308 0.647308 0.647308
0.663177 0.663177 0.663177
0.678741 0.678741 0.678741
0.693878 0.693878 0.693878
0.708618 0.708618 0.708618
0.709930 0.709930 0.709930
0.709930 0.709930 0.709930
0.709930 0.709930 0.709930
0.709930 0.709930 0.709930
0.001099 0.001099 0.001099
0.001099 0.001099 0.001099
0.001129 0.001129 0.001129
0.001190 0.001190 0.001190
0.001373 0.001373 0.001373
0.001709 0.001709 0.001709
0.003448 0.003448 0.003448
0.006287 0.006287 0.006287
0.010742 0.010742 0.010742
0.016602 0.016602 0.016602
0.020111 0.020111 0.020111
0.024323 0.024323 0.024323
0.028900 0.028900 0.028900
0.033936 0.033936 0.033936
0.039368 0.039368 0.039368
0.045258 0.045258 0.045258
0.051636 0.051636 0.051636
0.058563 0.058563 0.058563
0.065979 0.065979 0.065979
0.073883 0.073883 0.073883
0.082367 0.082367 0.082367
0.091400 0.091400 0.091400
0.100983 0.100983 0.100983
0.111176 0.111176 0.111176
0.121918 0.121918 0.121918
0.133270 0.133270 0.133270
0.145264 0.145264 0.145264
0.157867 0.157867 0.157867
0.171143 0.171143 0.171143
0.185028 0.185028 0.185028
0.199554 0.199554 0.199554
0.214783 0.214783 0.214783
0.230713 0.230713 0.230713
0.247345 0.247345 0.247345
0.264679 0.264679 0.264679
0.282806 0.282806 0.282806
0.301788 0.301788 0.301788
0.321381 0.321381 0.321381
0.340942 0.340942 0.340942
0.360382 0.360382 0.360382
0.379669 0.379669 0.379669
0.398834 0.398834 0.398834
0.417847 0.417847 0.417847
0.436707 0.436707 0.436707
0.455444 0.455444 0.455444
0.473969 0.473969 0.473969
0.492310 0.492310 0.492310
0.510437 0.510437 0.510437
0.528381 0.528381 0.528381
0.546082 0.546082 0.546082
0.563568 0.563568 0.563568
0.580811 0.580811 0.580811
0.597870 0.597870 0.597870
0.614624 0.614624 0.614624
0.631104 0.631104 0.631104
0.647308 0.647308 0.647308
0.663147 0.663147 0.663147
0.678711 0.678711 0.678711
0.693848 0.693848 0.693848
0.708588 0.708588 0.708588
0.709900 0.709900 0.709900
0.709900 0.709900 0.709900
0.709900 0.709900 0.709900
0.709900 0.709900 0.709900
0.002167 0.002167 0.002167
0.002167 0.002167 0.002167
0.002197 0.002197 0.002197
0.002258 0.002258 0.002258
0.002441 0.002441 0.002441
0.002777 0.002777 0.002777
0.003387 0.003387 0.003387
0.006226 0.006226 0.006226
0.010681 0.010681 0.010681
0.016541 0.016541 0.016541
0.020081 0.020081 0.020081
0.024261 0.024261 0.024261
0.028839 0.028839 0.028839
0.033875 0.033875 0.033875
0.039307 0.039307 0.039307
0.045197 0.045197 0.045197
0.051605 0.051605 0.051605
0.058502 0.058502 0.058502
0.065918 0.065918 0.065918
0.073853 0.073853 0.073853
0.082306 0.082306 0.082306
0.091370 0.091370 0.091370
0.100922 0.100922 0.100922
0.111115 0.111115 0.111115
0.121887 0.121887 0.121887
0.133240 0.133240 0.133240
0.145203 0.145203 0.145203
0.157806 0.157806 0.157806
0.171082 0.171082 0.171082
0.184967 0.184967 0.184967
0.199524 0.199524 0.199524
0.214752 0.214752 0.214752
0.230682 0.230682 0.230682
0.247284 0.247284 0.247284
0.264648 0.264648 0.264648
0.282745 0.282745 0.282745
0.301727 0.301727 0.301727
0.321320 0.321320 0.321320
0.340881 0.340881 0.340881
0.360321 0.360321 0.360321
0.379639 0.379639 0.379639
0.398804 0.398804 0.398804
0.417816 0.417816 0.417816
0.436676 0.436676 0.436676
0.455383 0.455383 0.455383
0.473907 0.473907 0.473907
0.492279 0.492279 0.492279
0.510406 0.510406 0.510406
0.528320 0.528320 0.528320
0.546051 0.546051 0.546051
0.563538 0.563538 0.563538
0.580780 0.580780 0.580780
0.597839 0.597839 0.597839
0.614563 0.614563 0.614563
0.631042 0.631042 0.631042
0.647247 0.647247 0.647247
0.663116 0.663116 0.663116
0.678650 0.678650 0.678650
0.693817 0.693817 0.693817
0.708527 0.708527 0.708527
0.709839 0.709839 0.709839
0.709839 0.709839 0.709839
0.709839 0.709839 0.709839
0.709839 0.709839 0.709839
0.003906 0.003906 0.003906
0.003937 0.003937 0.003937
0.003967 0.003967 0.003967
0.004028 0.004028 0.004028
0.004181 0.004181 0.004181
0.004547 0.004547 0.004547
0.005157 0.005157 0.005157
0.006134 0.006134 0.006134
0.010620 0.010620 0.010620
0.016449 0.016449 0.016449
0.019989 0.019989 0.019989
0.024200 0.024200 0.024200
0.028778 0.028778 0.028778
0.033783 0.033783 0.033783
0.039246 0.039246 0.039246
0.045135 0.045135 0.045135
0.051514 0.051514 0.051514
0.058441 0.058441 0.058441
0.065826 0.065826 0.065826
0.073761 0.073761 0.073761
0.082245 0.082245 0.082245
0.091278 0.091278 0.091278
0.100861 0.100861 0.100861
0.111023 0.111023 0.111023
0.121796 0.121796 0.121796
0.133148 0.133148 0.133148
0.145142 0.145142 0.145142
0.157715 0.157715 0.157715
0.171021 0.171021 0.171021
0.184906 0.184906 0.184906
0.199432 0.199432 0.199432
0.214661 0.214661 0.214661
0.230591 0.230591 0.230591
0.247192 0.247192 0.247192
0.264557 0.264557 0.264557
0.282684 0.282684 0.282684
0.301666 0.301666 0.301666
0.321228 0.321228 0.321228
0.340820 0.340820 0.340820
0.360229 0.360229 0.360229
0.379547 0.379547 0.379547
0.398712 0.398712 0.398712
0.417725 0.417725 0.417725
0.436584 0.436584 0.436584
0.455322 0.455322 0.455322
0.473846 0.473846 0.473846
0.492188 0.492188 0.492188
0.510315 0.510315 0.510315
0.528229 0.528229 0.528229
0.545959 0.545959 0.545959
0.563446 0.563446 0.563446
0.580688 0.580688 0.580688
0.597748 0.597748 0.597748
0.614502 0.614502 0.614502
0.630951 0.630951 0.630951
0.647156 0.647156 0.647156
0.663025 0.663025 0.663025
0.678589 0.678589 0.678589
0.693726 0.693726 0.693726
0.708466 0.708466 0.708466
0.709747 0.709747 0.709747
0.709747 0.709747 0.709747
0.709747 0.709747 0.709747
0.709747 0.709747 0.709747
0.006683 0.006683 0.006683
0.006714 0.006714 0.006714
0.006714 0.006714 0.006714
0.006775 0.006775 0.006775
0.006958 0.006958 0.006958
0.007294 0.007294 0.007294
0.007904 0.007904 0.007904
0.008911 0.008911 0.008911
0.010498 0.010498 0.010498
0.016327 0.016327 0.016327
0.019867 0.019867 0.019867
0.024078 0.024078 0.024078
0.028656 0.028656 0.028656
0.033661 0.033661 0.033661
0.039093 0.039093 0.039093
0.045013 0.045013 0.045013
0.051392 0.051392 0.051392
0.058289 0.058289 0.058289
0.065704 0.065704 0.065704
0.073639 0.073639 0.073639
0.082123 0.082123 0.082123
0.091156 0.091156 0.091156
0.100739 0.100739 0.100739
0.110901 0.110901 0.110901
0.121674 0.121674 0.121674
0.133026 0.133026 0.133026
0.145020 0.145020 0.145020
0.157593 0.157593 0.157593
0.170868 0.170868 0.170868
0.184784 0.184784 0.184784
0.199310 0.199310 0.199310
0.214539 0.214539 0.214539
0.230469 0.230469 0.230469
0.247070 0.247070 0.247070
0.264435 0.264435 0.264435
0.282562 0.282562 0.282562
0.301514 0.301514 0.301514
0.321106 0.321106 0.321106
0.340668 0.340668 0.340668
0.360107 0.360107 0.360107
0.379425 0.379425 0.379425
0.398590 0.398590 0.398590
0.417603 0.417603 0.417603
0.436462 0.436462 0.436462
0.455200 0.455200 0.455200
0.473724 0.473724 0.473724
0.492065 0.492065 0.492065
0.510193 0.510193 0.510193
0.528107 0.528107 0.528107
0.545837 0.545837 0.545837
0.563324 0.563324 0.563324
0.580566 0.580566 0.580566
0.597626 0.597626 0.597626
0.614380 0.614380 0.614380
0.630829 0.630829 0.630829
0.647034 0.647034 0.647034
0.662903 0.662903 0.662903
0.678467 0.678467 0.678467
0.693604 0.693604 0.693604
0.708344 0.708344 0.708344
0.709625 0.709625 0.709625
0.709625 0.709625 0.709625
0.709625 0.709625 0.709625
0.709625 0.709625 0.709625
0.010315 0.010315 0.010315
0.010315 0.010315 0.010315
0.010345 0.010345 0.010345
0.010406 0.010406 0.010406
0.010590 0.010590 0.010590
0.010925 0.010925 0.010925
0.011536 0.011536 0.011536
0.012543 0.012543 0.012543
0.014099 0.014099 0.014099
0.016174 0.016174 0.016174
0.019714 0.019714 0.019714
0.023895 0.023895 0.023895
0.028473 0.028473 0.028473
0.033508 0.033508 0.033508
0.038940 0.038940 0.038940
0.044830 0.044830 0.044830
0.051239 0.051239 0.051239
0.058136 0.058136 0.058136
0.065552 0.065552 0.065552
0.073486 0.073486 0.073486
0.081940 0.081940 0.081940
0.090973 0.090973 0.090973
0.100555 0.100555 0.100555
0.110748 0.110748 0.110748
0.121521 0.121521 0.121521
0.132874 0.132874 0.132874
0.144836 0.144836 0.144836
0.157440 0.157440 0.157440
0.170715 0.170715 0.170715
0.184601 0.184601 0.184601
0.199127 0.199127 0.199127
0.214386 0.214386 0.214386
0.230286 0.230286 0.230286
0.246918 0.246918 0.246918
0.264282 0.264282 0.264282
0.282379 0.282379 0.282379
0.301361 0.301361 0.301361
0.320953 0.320953 0.320953
0.340515 0.340515 0.340515
0.359955 0.359955 0.359955
0.379242 0.379242 0.379242
0.398438 0.398438 0.398438
0.417419 0.417419 0.417419
0.436310 0.436310 0.436310
0.455017 0.455017 0.455017
0.473541 0.473541 0.473541
0.491882 0.491882 0.491882
0.510040 0.510040 0.510040
0.527954 0.527954 0.527954
0.545685 0.545685 0.545685
0.563171 0.563171 0.563171
0.580414 0.580414 0.580414
0.597443 0.597443 0.597443
0.614197 0.614197 0.614197
0.630676 0.630676 0.630676
0.646881 0.646881 0.646881
0.662750 0.662750 0.662750
0.678284 0.678284 0.678284
0.693451 0.693451 0.693451
0.708160 0.708160 0.708160
0.709473 0.709473 0.709473
0.709473 0.709473 0.709473
0.709473 0.709473 0.709473
0.709473 0.709473 0.709473
0.012512 0.012512 0.012512
0.012512 0.012512 0.012512
0.012543 0.012543 0.012543
0.012604 0.012604 0.012604
0.012787 0.012787 0.012787
0.013123 0.013123 0.013123
0.013733 0.013733 0.013733
0.014740 0.014740 0.014740
0.016296 0.016296 0.016296
0.018372 0.018372 0.018372
0.019592 0.019592 0.019592
0.023804 0.023804 0.023804
0.028381 0.028381 0.028381
0.033417 0.033417 0.033417
0.038849 0.038849 0.038849
0.044739 0.044739 0.044739
0.051117 0.051117 0.051117
0.058044 0.058044 0.058044
0.065460 0.065460 0.065460
0.073364 0.073364 0.073364
0.081848 0.081848 0.081848
0.090881 0.090881 0.090881
0.100464 0.100464 0.100464
0.110657 0.110657 0.110657
0.121399 0.121399 0.121399
0.132751 0.132751 0.132751
0.144745 0.144745 0.144745
0.157349 0.157349 0.157349
0.170624 0.170624 0.170624
0.184509 0.184509 0.184509
0.199036 0.199036 0.199036
0.214264 0.214264 0.214264
0.230194 0.230194 0.230194
0.246826 0.246826 0.246826
0.264160 0.264160 0.264160
0.282288 0.282288 0.282288
0.301270 0.301270 0.301270
0.320862 0.320862 0.320862
0.340424 0.340424 0.340424
0.359863 0.359863 0.359863
0.379150 0.379150 0.379150
0.398315 0.398315 0.398315
0.417328 0.417328 0.417328
0.436188 0.436188 0.436188
0.454926 0.454926 0.454926
0.473450 0.473450 0.473450
0.491791 0.491791 0.491791
0.509918 0.509918 0.509918
0.527863 0.527863 0.527863
0.545563 0.545563 0.545563
0.563049 0.563049 0.563049
0.580292 0.580292 0.580292
0.597351 0.597351 0.597351
0.614105 0.614105 0.614105
0.630585 0.630585 0.630585
0.646790 0.646790 0.646790
0.662628 0.662628 0.662628
0.678192 0.678192 0.678192
0.693329 0.693329 0.693329
0.708069 0.708069 0.708069
0.709381 0.709381 0.709381
0.709381 0.709381 0.709381
0.709381 0.709381 0.709381
0.709381 0.709381 0.709381
0.015106 0.015106 0.015106
0.015106 0.015106 0.015106
0.015137 0.015137 0.015137
0.015198 0.015198 0.015198
0.015381 0.015381 0.015381
0.015717 0.015717 0.015717
0.016327 0.016327 0.016327
0.017334 0.017334 0.017334
0.018890 0.018890 0.018890
0.020966 0.020966 0.020966
0.022217 0.022217 0.022217
0.023682 0.023682 0.023682
0.028259 0.028259 0.028259
0.033295 0.033295 0.033295
0.038727 0.038727 0.038727
0.044617 0.044617 0.044617
0.050995 0.050995 0.050995
0.057922 0.057922 0.057922
0.065338 0.065338 0.065338
0.073273 0.073273 0.073273
0.081726 0.081726 0.081726
0.090759 0.090759 0.090759
0.100342 0.100342 0.100342
0.110535 0.110535 0.110535
0.121307 0.121307 0.121307
0.132660 0.132660 0.132660
0.144623 0.144623 0.144623
0.157227 0.157227 0.157227
0.170502 0.170502 0.170502
0.184387 0.184387 0.184387
0.198914 0.198914 0.198914
0.214142 0.214142 0.214142
0.230072 0.230072 0.230072
0.246704 0.246704 0.246704
0.264038 0.264038 0.264038
0.282166 0.282166 0.282166
0.301147 0.301147 0.301147
0.320740 0.320740 0.320740
0.340302 0.340302 0.340302
0.359741 0.359741 0.359741
0.379028 0.379028 0.379028
0.398224 0.398224 0.398224
0.417206 0.417206 0.417206
0.436096 0.436096 0.436096
0.454803 0.454803 0.454803
0.473328 0.473328 0.473328
0.491669 0.491669 0.491669
0.509827 0.509827 0.509827
0.527740 0.527740 0.527740
0.545441 0.545441 0.545441
0.562927 0.562927 0.562927
0.580200 0.580200 0.580200
0.597229 0.597229 0.597229
0.613983 0.613983 0.613983
0.630463 0.630463 0.630463
0.646667 0.646667 0.646667
0.662506 0.662506 0.662506
0.678070 0.678070 0.678070
0.693207 0.693207 0.693207
0.707947 0.707947 0.707947
0.709259 0.709259 0.709259
0.709259 0.709259 0.709259
0.709259 0.709259 0.709259
0.709259 0.709259 0.709259
0.017944 0.017944 0.017944
0.017944 0.017944 0.017944
0.017975 0.017975 0.017975
0.018036 0.018036 0.018036
0.018219 0.018219 0.018219
0.018555 0.018555 0.018555
0.019165 0.019165 0.019165
0.020172 0.020172 0.020172
0.021729 0.021729 0.021729
0.023804 0.023804 0.023804
0.025055 0.025055 0.025055
0.026520 0.026520 0.026520
0.028137 0.028137 0.028137
0.033142 0.033142 0.033142
0.038605 0.038605 0.038605
0.044495 0.044495 0.044495
0.050873 0.050873 0.050873
0.057800 0.057800 0.057800
0.065216 0.065216 0.065216
0.073120 0.073120 0.073120
0.081604 0.081604 0.081604
0.090637 0.090637 0.090637
0.100220 0.100220 0.100220
0.110382 0.110382 0.110382
0.121155 0.121155 0.121155
0.132507 0.132507 0.132507
0.144501 0.144501 0.144501
0.157074 0.157074 0.157074
0.170380 0.170380 0.170380
0.184265 0.184265 0.184265
0.198792 0.198792 0.198792
0.214020 0.214020 0.214020
0.229950 0.229950 0.229950
0.246582 0.246582 0.246582
0.263916 0.263916 0.263916
0.282043 0.282043 0.282043
0.301025 0.301025 0.301025
0.320618 0.320618 0.320618
0.340179 0.340179 0.340179
0.359589 0.359589 0.359589
0.378906 0.378906 0.378906
0.398071 0.398071 0.398071
0.417084 0.417084 0.417084
0.435944 0.435944 0.435944
0.454681 0.454681 0.454681
0.473206 0.473206 0.473206
0.491547 0.491547 0.491547
0.509674 0.509674 0.509674
0.527588 0.527588 0.527588
0.545319 0.545319 0.545319
0.562805 0.562805 0.562805
0.580048 0.580048 0.580048
0.597107 0.597107 0.597107
0.613861 0.613861 0.613861
0.630310 0.630310 0.630310
0.646515 0.646515 0.646515
0.662384 0.662384 0.662384
0.677948 0.677948 0.677948
0.693085 0.693085 0.693085
0.707825 0.707825 0.707825
0.709137 0.709137 0.709137
0.709137 0.709137 0.709137
0.709137 0.709137 0.709137
0.709137 0.709137 0.709137
0.021057 0.021057 0.021057
0.021057 0.021057 0.021057
0.021088 0.021088 0.021088
0.021149 0.021149 0.021149
0.021332 0.021332 0.021332
0.021667 0.021667 0.021667
0.022278 0.022278 0.022278
0.023285 0.023285 0.023285
0.024841 0.024841 0.024841
0.026917 0.026917 0.026917
0.028168 0.028168 0.028168
0.029633 0.029633 0.029633
0.031250 0.031250 0.031250
0.033020 0.033020 0.033020
0.038452 0.038452 0.038452
0.044342 0.044342 0.044342
0.050751 0.050751 0.050751
0.057648 0.057648 0.057648
0.065063 0.065063 0.065063
0.072998 0.072998 0.072998
0.081451 0.081451 0.081451
0.090485 0.090485 0.090485
0.100067 0.100067 0.100067
0.110260 0.110260 0.110260
0.121033 0.121033 0.121033
0.132385 0.132385 0.132385
0.144348 0.144348 0.144348
0.156952 0.156952 0.156952
0.170227 0.170227 0.170227
0.184113 0.184113 0.184113
0.198639 0.198639 0.198639
0.213898 0.213898 0.213898
0.229797 0.229797 0.229797
0.246429 0.246429 0.246429
0.263794 0.263794 0.263794
0.281891 0.281891 0.281891
0.300873 0.300873 0.300873
0.320465 0.320465 0.320465
0.340027 0.340027 0.340027
0.359467 0.359467 0.359467
0.378754 0.378754 0.378754
0.397949 0.397949 0.397949
0.416931 0.416931 0.416931
0.435822 0.435822 0.435822
0.454529 0.454529 0.454529
0.473053 0.473053 0.473053
0.491394 0.491394 0.491394
0.509552 0.509552 0.509552
