custom_nodes/comfyui-vrgamedevgirl/LUTS/High_Contrast_Cinematic_Cine_Grade.cube
#Copyright Tim Martin Presetpro.com StockPresets.com
TITLE "01 - POL - Cine"
#LUT size
LUT_3D_SIZE 64
#LUT data points
0.007843 0.027451 0.039216
0.011765 0.027451 0.039216
0.011765 0.027451 0.039216
0.011765 0.027451 0.039216
0.027451 0.031373 0.039216
0.035294 0.035294 0.043137
0.043137 0.035294 0.039216
0.050980 0.035294 0.039216
0.058824 0.035294 0.035294
0.070588 0.039216 0.039216
0.082353 0.035294 0.035294
0.094118 0.039216 0.039216
0.101961 0.039216 0.039216
0.121569 0.043137 0.047059
0.129412 0.043137 0.050980
0.145098 0.043137 0.047059
0.160784 0.043137 0.043137
0.168627 0.043137 0.047059
0.184314 0.043137 0.043137
0.200000 0.043137 0.047059
0.215686 0.039216 0.050980
0.231373 0.039216 0.054902
0.254902 0.039216 0.058824
0.262745 0.043137 0.054902
0.282353 0.039216 0.058824
0.298039 0.035294 0.062745
0.313725 0.035294 0.058824
0.333333 0.039216 0.066667
0.345098 0.035294 0.058824
0.356863 0.031373 0.062745
0.384314 0.031373 0.070588
0.392157 0.027451 0.062745
0.407843 0.027451 0.066667
0.423529 0.027451 0.066667
0.443137 0.023529 0.062745
0.462745 0.023529 0.070588
0.478431 0.023529 0.074510
0.494118 0.023529 0.078431
0.513725 0.019608 0.074510
0.529412 0.019608 0.070588
0.545098 0.019608 0.078431
0.560784 0.019608 0.082353
0.580392 0.015686 0.082353
0.596078 0.015686 0.086275
0.615686 0.019608 0.086275
0.635294 0.011765 0.090196
0.650980 0.011765 0.086275
0.670588 0.015686 0.086275
0.694118 0.007843 0.090196
0.709804 0.007843 0.090196
0.729412 0.011765 0.090196
0.749020 0.015686 0.090196
0.760784 0.015686 0.094118
0.788235 0.015686 0.094118
0.803922 0.019608 0.094118
0.823529 0.023529 0.098039
0.843137 0.027451 0.090196
0.866667 0.035294 0.094118
0.886275 0.047059 0.109804
0.909804 0.058824 0.109804
0.925490 0.070588 0.105882
0.945098 0.078431 0.105882
0.964706 0.094118 0.113725
0.980392 0.101961 0.113725
0.000000 0.031373 0.039216
0.007843 0.027451 0.039216
0.011765 0.035294 0.035294
0.019608 0.035294 0.039216
0.023529 0.039216 0.043137
0.035294 0.043137 0.039216
0.043137 0.035294 0.039216
0.050980 0.035294 0.039216
0.058824 0.043137 0.039216
0.078431 0.047059 0.047059
0.082353 0.043137 0.039216
0.098039 0.043137 0.043137
0.105882 0.043137 0.043137
0.117647 0.039216 0.043137
0.129412 0.047059 0.043137
0.141176 0.047059 0.047059
0.164706 0.047059 0.054902
0.176471 0.050980 0.054902
0.192157 0.050980 0.050980
0.207843 0.050980 0.054902
0.223529 0.050980 0.054902
0.235294 0.043137 0.054902
0.247059 0.043137 0.050980
0.270588 0.050980 0.054902
0.286275 0.039216 0.070588
0.298039 0.043137 0.066667
0.317647 0.039216 0.062745
0.329412 0.035294 0.054902
0.349020 0.039216 0.062745
0.364706 0.043137 0.062745
0.384314 0.035294 0.062745
0.392157 0.035294 0.066667
0.411765 0.031373 0.066667
0.431373 0.035294 0.066667
0.447059 0.035294 0.070588
0.466667 0.027451 0.074510
0.482353 0.027451 0.070588
0.501961 0.031373 0.078431
0.521569 0.027451 0.082353
0.537255 0.027451 0.078431
0.549020 0.027451 0.078431
0.568627 0.027451 0.086275
0.580392 0.023529 0.078431
0.603922 0.023529 0.086275
0.619608 0.023529 0.082353
0.635294 0.019608 0.086275
0.654902 0.019608 0.082353
0.670588 0.019608 0.082353
0.694118 0.019608 0.082353
0.713725 0.019608 0.090196
0.725490 0.019608 0.086275
0.752941 0.023529 0.086275
0.768627 0.023529 0.094118
0.784314 0.023529 0.090196
0.807843 0.031373 0.098039
0.831373 0.039216 0.101961
0.850980 0.035294 0.098039
0.862745 0.043137 0.098039
0.890196 0.054902 0.101961
0.909804 0.066667 0.105882
0.929412 0.074510 0.109804
0.949020 0.082353 0.109804
0.960784 0.090196 0.109804
0.976471 0.105882 0.117647
0.000000 0.039216 0.035294
0.007843 0.043137 0.039216
0.015686 0.039216 0.039216
0.019608 0.035294 0.039216
0.031373 0.039216 0.035294
0.039216 0.047059 0.043137
0.043137 0.043137 0.043137
0.047059 0.043137 0.035294
0.058824 0.043137 0.039216
0.070588 0.050980 0.039216
0.086275 0.047059 0.043137
0.090196 0.047059 0.039216
0.105882 0.043137 0.043137
0.125490 0.054902 0.054902
0.133333 0.050980 0.047059
0.145098 0.050980 0.050980
0.168627 0.050980 0.050980
0.176471 0.054902 0.047059
0.192157 0.050980 0.050980
0.203922 0.047059 0.050980
0.215686 0.050980 0.054902
0.231373 0.050980 0.058824
0.247059 0.050980 0.054902
0.266667 0.054902 0.062745
0.282353 0.047059 0.054902
0.301961 0.050980 0.054902
0.317647 0.047059 0.058824
0.337255 0.043137 0.062745
0.345098 0.047059 0.058824
0.364706 0.043137 0.062745
0.392157 0.043137 0.070588
0.400000 0.043137 0.070588
0.415686 0.035294 0.070588
0.431373 0.043137 0.070588
0.450980 0.039216 0.074510
0.466667 0.035294 0.078431
0.478431 0.035294 0.074510
0.494118 0.035294 0.078431
0.513725 0.039216 0.078431
0.529412 0.035294 0.078431
0.552941 0.035294 0.086275
0.564706 0.031373 0.078431
0.576471 0.031373 0.074510
0.596078 0.035294 0.082353
0.615686 0.031373 0.086275
0.635294 0.035294 0.086275
0.650980 0.031373 0.086275
0.670588 0.027451 0.090196
0.690196 0.027451 0.086275
0.709804 0.027451 0.086275
0.729412 0.027451 0.082353
0.752941 0.031373 0.094118
0.768627 0.031373 0.090196
0.788235 0.035294 0.094118
0.807843 0.039216 0.094118
0.823529 0.043137 0.101961
0.854902 0.047059 0.098039
0.866667 0.054902 0.101961
0.890196 0.062745 0.098039
0.905882 0.074510 0.101961
0.921569 0.078431 0.101961
0.941176 0.090196 0.101961
0.964706 0.101961 0.109804
0.972549 0.113725 0.109804
0.007843 0.047059 0.043137
0.007843 0.047059 0.043137
0.011765 0.047059 0.035294
0.015686 0.050980 0.039216
0.023529 0.047059 0.039216
0.031373 0.050980 0.035294
0.047059 0.047059 0.039216
0.054902 0.050980 0.043137
0.058824 0.054902 0.039216
0.070588 0.054902 0.043137
0.086275 0.054902 0.043137
0.098039 0.054902 0.047059
0.105882 0.050980 0.047059
0.121569 0.050980 0.043137
0.133333 0.054902 0.050980
0.141176 0.058824 0.054902
0.168627 0.058824 0.054902
0.176471 0.058824 0.050980
0.192157 0.058824 0.050980
0.203922 0.054902 0.050980
0.219608 0.054902 0.058824
0.239216 0.058824 0.066667
0.250980 0.054902 0.058824
0.258824 0.054902 0.062745
0.282353 0.050980 0.058824
0.298039 0.054902 0.058824
0.321569 0.050980 0.062745
0.333333 0.050980 0.058824
0.349020 0.050980 0.062745
0.368627 0.050980 0.070588
0.384314 0.047059 0.066667
0.403922 0.047059 0.074510
0.415686 0.043137 0.066667
0.435294 0.047059 0.066667
0.447059 0.047059 0.070588
0.462745 0.043137 0.066667
0.482353 0.039216 0.070588
0.501961 0.043137 0.078431
0.513725 0.047059 0.078431
0.533333 0.043137 0.074510
0.549020 0.039216 0.086275
0.564706 0.043137 0.086275
0.580392 0.043137 0.082353
0.600000 0.039216 0.078431
0.619608 0.043137 0.086275
0.635294 0.043137 0.086275
0.654902 0.039216 0.082353
0.662745 0.039216 0.078431
0.694118 0.035294 0.094118
0.709804 0.035294 0.090196
0.729412 0.039216 0.090196
0.756863 0.043137 0.094118
0.768627 0.039216 0.094118
0.784314 0.043137 0.098039
0.815686 0.047059 0.101961
0.827451 0.054902 0.101961
0.850980 0.054902 0.098039
0.870588 0.058824 0.098039
0.886275 0.070588 0.101961
0.909804 0.078431 0.105882
0.929412 0.086275 0.109804
0.945098 0.098039 0.109804
0.956863 0.105882 0.101961
0.980392 0.121569 0.113725
0.007843 0.050980 0.035294
0.011765 0.054902 0.039216
0.011765 0.054902 0.039216
0.015686 0.050980 0.039216
0.027451 0.050980 0.035294
0.039216 0.058824 0.043137
0.047059 0.054902 0.035294
0.047059 0.054902 0.035294
0.058824 0.054902 0.039216
0.070588 0.054902 0.043137
0.082353 0.062745 0.050980
0.094118 0.054902 0.047059
0.101961 0.058824 0.050980
0.121569 0.062745 0.050980
0.137255 0.058824 0.054902
0.141176 0.058824 0.047059
0.160784 0.062745 0.047059
0.176471 0.066667 0.054902
0.188235 0.066667 0.054902
0.211765 0.062745 0.058824
0.215686 0.062745 0.050980
0.235294 0.054902 0.054902
0.258824 0.062745 0.058824
0.258824 0.058824 0.054902
0.290196 0.054902 0.054902
0.301961 0.062745 0.054902
0.313725 0.054902 0.054902
0.333333 0.058824 0.058824
0.349020 0.058824 0.062745
0.368627 0.054902 0.066667
0.388235 0.058824 0.066667
0.403922 0.054902 0.070588
0.411765 0.050980 0.070588
0.431373 0.054902 0.070588
0.447059 0.054902 0.066667
0.466667 0.054902 0.074510
0.482353 0.054902 0.078431
0.494118 0.054902 0.078431
0.517647 0.050980 0.074510
0.529412 0.058824 0.074510
0.549020 0.050980 0.078431
0.564706 0.050980 0.082353
0.584314 0.047059 0.078431
0.603922 0.050980 0.082353
0.619608 0.050980 0.086275
0.635294 0.050980 0.094118
0.658824 0.047059 0.090196
0.670588 0.047059 0.086275
0.694118 0.047059 0.082353
0.709804 0.050980 0.082353
0.733333 0.047059 0.082353
0.752941 0.050980 0.094118
0.768627 0.050980 0.098039
0.788235 0.054902 0.098039
0.807843 0.058824 0.098039
0.827451 0.062745 0.098039
0.843137 0.066667 0.094118
0.866667 0.074510 0.098039
0.886275 0.078431 0.098039
0.909804 0.086275 0.101961
0.925490 0.094118 0.109804
0.949020 0.101961 0.113725
0.964706 0.113725 0.109804
0.984314 0.125490 0.117647
0.007843 0.058824 0.031373
0.011765 0.062745 0.035294
0.011765 0.062745 0.035294
0.015686 0.058824 0.035294
0.027451 0.062745 0.043137
0.035294 0.062745 0.035294
0.050980 0.058824 0.039216
0.054902 0.058824 0.035294
0.066667 0.062745 0.043137
0.078431 0.066667 0.047059
0.086275 0.066667 0.043137
0.098039 0.070588 0.047059
0.105882 0.062745 0.047059
0.117647 0.062745 0.050980
0.137255 0.066667 0.050980
0.145098 0.070588 0.054902
0.164706 0.066667 0.047059
0.184314 0.070588 0.054902
0.200000 0.070588 0.050980
0.211765 0.062745 0.050980
0.223529 0.070588 0.058824
0.243137 0.070588 0.066667
0.254902 0.066667 0.058824
0.270588 0.070588 0.058824
0.286275 0.070588 0.062745
0.301961 0.066667 0.066667
0.317647 0.066667 0.062745
0.337255 0.062745 0.062745
0.345098 0.066667 0.066667
0.364706 0.066667 0.066667
0.380392 0.058824 0.066667
0.400000 0.062745 0.066667
0.415686 0.062745 0.070588
0.435294 0.066667 0.070588
0.450980 0.062745 0.074510
0.462745 0.062745 0.074510
0.478431 0.062745 0.078431
0.498039 0.066667 0.078431
0.517647 0.062745 0.074510
0.533333 0.062745 0.078431
0.549020 0.058824 0.082353
0.568627 0.062745 0.082353
0.588235 0.058824 0.082353
0.600000 0.058824 0.086275
0.615686 0.058824 0.082353
0.639216 0.058824 0.090196
0.654902 0.058824 0.086275
0.674510 0.058824 0.086275
0.694118 0.054902 0.090196
0.713725 0.058824 0.090196
0.729412 0.058824 0.090196
0.756863 0.062745 0.094118
0.772549 0.062745 0.090196
0.792157 0.066667 0.098039
0.815686 0.066667 0.098039
0.835294 0.070588 0.101961
0.850980 0.074510 0.094118
0.866667 0.082353 0.101961
0.886275 0.082353 0.101961
0.905882 0.094118 0.101961
0.925490 0.101961 0.105882
0.949020 0.109804 0.109804
0.964706 0.113725 0.109804
0.980392 0.133333 0.121569
0.007843 0.066667 0.039216
0.007843 0.066667 0.039216
0.007843 0.066667 0.039216
0.019608 0.070588 0.043137
0.023529 0.074510 0.039216
0.035294 0.074510 0.043137
0.047059 0.074510 0.043137
0.058824 0.070588 0.043137
0.066667 0.070588 0.039216
0.070588 0.070588 0.039216
0.090196 0.070588 0.047059
0.098039 0.070588 0.047059
0.105882 0.070588 0.043137
0.125490 0.074510 0.050980
0.141176 0.074510 0.047059
0.149020 0.074510 0.050980
0.164706 0.074510 0.050980
0.180392 0.074510 0.047059
0.196078 0.074510 0.054902
0.207843 0.078431 0.058824
0.223529 0.078431 0.054902
0.235294 0.074510 0.058824
0.250980 0.074510 0.054902
0.270588 0.078431 0.062745
0.290196 0.074510 0.066667
0.305882 0.070588 0.062745
0.325490 0.074510 0.066667
0.341176 0.074510 0.062745
0.352941 0.074510 0.066667
0.368627 0.074510 0.062745
0.384314 0.070588 0.066667
0.403922 0.074510 0.066667
0.415686 0.070588 0.066667
0.435294 0.078431 0.074510
0.458824 0.074510 0.078431
0.466667 0.070588 0.070588
0.482353 0.074510 0.078431
0.498039 0.074510 0.074510
0.517647 0.070588 0.070588
0.537255 0.074510 0.078431
0.549020 0.070588 0.082353
0.564706 0.070588 0.086275
0.588235 0.070588 0.090196
0.603922 0.070588 0.086275
0.623529 0.074510 0.086275
0.635294 0.066667 0.086275
0.658824 0.070588 0.078431
0.678431 0.074510 0.086275
0.694118 0.074510 0.094118
0.709804 0.074510 0.094118
0.729412 0.070588 0.090196
0.749020 0.074510 0.090196
0.768627 0.070588 0.094118
0.792157 0.078431 0.098039
0.815686 0.078431 0.101961
0.827451 0.082353 0.098039
0.850980 0.082353 0.098039
0.874510 0.090196 0.101961
0.890196 0.101961 0.105882
0.909804 0.101961 0.109804
0.921569 0.109804 0.109804
0.949020 0.121569 0.117647
0.968627 0.133333 0.117647
0.980392 0.141176 0.117647
0.007843 0.074510 0.043137
0.007843 0.074510 0.043137
0.007843 0.074510 0.043137
0.011765 0.070588 0.043137
0.015686 0.074510 0.047059
0.031373 0.074510 0.043137
0.047059 0.074510 0.043137
0.054902 0.074510 0.047059
0.066667 0.070588 0.039216
0.078431 0.078431 0.039216
0.090196 0.078431 0.043137
0.098039 0.082353 0.047059
0.109804 0.078431 0.039216
0.121569 0.082353 0.047059
0.137255 0.082353 0.047059
0.149020 0.082353 0.043137
0.160784 0.082353 0.047059
0.184314 0.090196 0.058824
0.200000 0.086275 0.054902
0.211765 0.082353 0.054902
0.231373 0.086275 0.062745
0.243137 0.086275 0.058824
0.258824 0.082353 0.062745
0.274510 0.082353 0.058824
0.290196 0.082353 0.062745
0.301961 0.086275 0.066667
0.321569 0.082353 0.070588
0.337255 0.082353 0.066667
0.349020 0.082353 0.070588
0.364706 0.086275 0.070588
0.388235 0.082353 0.074510
0.400000 0.082353 0.070588
0.423529 0.078431 0.074510
0.435294 0.086275 0.078431
0.454902 0.082353 0.074510
0.470588 0.082353 0.070588
0.478431 0.082353 0.074510
0.498039 0.086275 0.074510
0.517647 0.082353 0.074510
0.529412 0.082353 0.078431
0.552941 0.078431 0.082353
0.572549 0.086275 0.094118
0.588235 0.078431 0.086275
0.603922 0.078431 0.082353
0.619608 0.082353 0.082353
0.639216 0.082353 0.090196
0.654902 0.078431 0.082353
0.670588 0.078431 0.082353
0.694118 0.082353 0.094118
0.709804 0.082353 0.090196
0.733333 0.082353 0.090196
0.752941 0.086275 0.090196
0.772549 0.082353 0.094118
0.792157 0.086275 0.098039
0.819608 0.090196 0.101961
0.831373 0.098039 0.101961
0.854902 0.094118 0.090196
0.870588 0.105882 0.101961
0.890196 0.109804 0.105882
0.909804 0.113725 0.105882
0.929412 0.117647 0.109804
0.945098 0.125490 0.109804
0.968627 0.133333 0.109804
0.984314 0.145098 0.113725
0.003922 0.086275 0.050980
0.003922 0.090196 0.043137
0.007843 0.086275 0.043137
0.019608 0.086275 0.047059
0.019608 0.086275 0.047059
0.027451 0.090196 0.047059
0.039216 0.086275 0.047059
0.047059 0.086275 0.043137
0.062745 0.086275 0.039216
0.074510 0.090196 0.035294
0.090196 0.090196 0.043137
0.105882 0.090196 0.047059
0.117647 0.090196 0.050980
0.129412 0.090196 0.054902
0.141176 0.086275 0.050980
0.156863 0.090196 0.058824
0.168627 0.090196 0.062745
0.180392 0.090196 0.058824
0.196078 0.090196 0.054902
0.211765 0.094118 0.062745
0.227451 0.094118 0.058824
0.243137 0.090196 0.062745
0.258824 0.090196 0.058824
0.274510 0.090196 0.058824
0.294118 0.094118 0.074510
0.305882 0.090196 0.070588
0.325490 0.094118 0.070588
0.341176 0.094118 0.066667
0.356863 0.094118 0.070588
0.368627 0.094118 0.066667
0.392157 0.090196 0.066667
0.407843 0.090196 0.074510
0.423529 0.090196 0.078431
0.439216 0.090196 0.074510
0.458824 0.094118 0.074510
0.474510 0.090196 0.078431
0.486275 0.090196 0.074510
0.501961 0.090196 0.078431
0.525490 0.090196 0.082353
0.537255 0.094118 0.078431
0.552941 0.094118 0.074510
0.564706 0.090196 0.078431
0.584314 0.094118 0.078431
0.603922 0.098039 0.086275
0.623529 0.101961 0.086275
0.643137 0.094118 0.090196
0.658824 0.094118 0.090196
0.670588 0.094118 0.086275
0.698039 0.094118 0.094118
0.709804 0.094118 0.090196
0.737255 0.094118 0.090196
0.756863 0.094118 0.090196
0.776471 0.094118 0.098039
0.792157 0.098039 0.098039
0.823529 0.101961 0.101961
0.831373 0.098039 0.094118
0.854902 0.101961 0.113725
0.870588 0.109804 0.105882
0.890196 0.121569 0.105882
0.909804 0.125490 0.105882
0.929412 0.133333 0.117647
0.945098 0.137255 0.117647
0.964706 0.149020 0.117647
0.976471 0.152941 0.117647
0.007843 0.090196 0.054902
0.007843 0.090196 0.054902
0.007843 0.094118 0.047059
0.015686 0.094118 0.050980
0.015686 0.094118 0.050980
0.027451 0.098039 0.050980
0.031373 0.094118 0.050980
0.043137 0.094118 0.054902
0.066667 0.098039 0.039216
0.078431 0.101961 0.047059
0.090196 0.098039 0.047059
0.105882 0.098039 0.047059
0.121569 0.098039 0.050980
0.129412 0.098039 0.054902
0.149020 0.101961 0.054902
0.156863 0.101961 0.058824
0.168627 0.105882 0.054902
0.184314 0.105882 0.062745
0.196078 0.101961 0.054902
0.211765 0.101961 0.058824
0.231373 0.101961 0.066667
0.247059 0.101961 0.070588
0.266667 0.098039 0.066667
0.282353 0.098039 0.070588
0.290196 0.101961 0.054902
0.309804 0.105882 0.062745
0.325490 0.101961 0.066667
0.345098 0.098039 0.070588
0.356863 0.101961 0.078431
0.376471 0.101961 0.074510
0.392157 0.098039 0.074510
0.407843 0.098039 0.070588
0.423529 0.098039 0.074510
0.435294 0.105882 0.074510
0.454902 0.101961 0.070588
0.474510 0.101961 0.078431
0.490196 0.101961 0.078431
0.505882 0.101961 0.082353
0.521569 0.101961 0.078431
0.533333 0.101961 0.074510
0.556863 0.105882 0.086275
0.572549 0.105882 0.082353
0.584314 0.101961 0.082353
0.607843 0.101961 0.082353
0.619608 0.105882 0.090196
0.639216 0.105882 0.090196
0.658824 0.105882 0.098039
0.674510 0.105882 0.094118
0.698039 0.105882 0.094118
0.713725 0.105882 0.090196
0.737255 0.105882 0.094118
0.756863 0.109804 0.101961
0.776471 0.105882 0.098039
0.800000 0.105882 0.098039
0.819608 0.109804 0.098039
0.843137 0.117647 0.101961
0.850980 0.121569 0.094118
0.870588 0.125490 0.094118
0.890196 0.129412 0.094118
0.909804 0.133333 0.101961
0.925490 0.141176 0.109804
0.949020 0.149020 0.113725
0.964706 0.160784 0.117647
0.984314 0.168627 0.121569
0.000000 0.101961 0.050980
0.000000 0.105882 0.047059
0.007843 0.101961 0.047059
0.011765 0.105882 0.050980
0.011765 0.105882 0.050980
0.019608 0.105882 0.054902
0.035294 0.105882 0.050980
0.043137 0.109804 0.047059
0.062745 0.105882 0.043137
0.078431 0.109804 0.050980
0.094118 0.109804 0.050980
0.105882 0.109804 0.047059
0.113725 0.105882 0.047059
0.133333 0.109804 0.047059
0.141176 0.105882 0.039216
0.152941 0.109804 0.035294
0.172549 0.109804 0.058824
0.180392 0.109804 0.054902
0.200000 0.113725 0.054902
0.215686 0.113725 0.058824
0.231373 0.117647 0.062745
0.247059 0.113725 0.066667
0.266667 0.113725 0.062745
0.278431 0.113725 0.058824
0.294118 0.113725 0.062745
0.305882 0.109804 0.066667
0.325490 0.113725 0.066667
0.341176 0.113725 0.066667
0.356863 0.113725 0.070588
0.376471 0.117647 0.070588
0.388235 0.117647 0.066667
0.407843 0.117647 0.074510
0.423529 0.109804 0.074510
0.439216 0.117647 0.074510
0.458824 0.113725 0.074510
0.474510 0.109804 0.078431
0.494118 0.113725 0.078431
0.505882 0.113725 0.082353
0.533333 0.113725 0.082353
0.541176 0.117647 0.078431
0.556863 0.113725 0.082353
0.576471 0.113725 0.078431
0.596078 0.113725 0.086275
0.615686 0.117647 0.090196
0.631373 0.109804 0.082353
0.647059 0.113725 0.090196
0.662745 0.121569 0.090196
0.682353 0.117647 0.086275
0.701961 0.117647 0.094118
0.721569 0.121569 0.098039
0.741176 0.117647 0.094118
0.764706 0.121569 0.094118
0.780392 0.121569 0.090196
0.800000 0.121569 0.090196
0.823529 0.125490 0.094118
0.831373 0.125490 0.090196
0.854902 0.133333 0.101961
0.874510 0.137255 0.101961
0.898039 0.145098 0.105882
0.909804 0.149020 0.109804
0.929412 0.152941 0.117647
0.949020 0.156863 0.117647
0.968627 0.164706 0.121569
0.976471 0.172549 0.121569
0.003922 0.113725 0.058824
0.003922 0.113725 0.058824
0.007843 0.109804 0.058824
0.007843 0.109804 0.058824
0.015686 0.109804 0.054902
0.023529 0.109804 0.058824
0.031373 0.113725 0.054902
0.043137 0.113725 0.058824
0.062745 0.117647 0.050980
0.074510 0.117647 0.054902
0.090196 0.117647 0.054902
0.105882 0.121569 0.054902
0.117647 0.121569 0.050980
0.133333 0.121569 0.047059
0.149020 0.121569 0.050980
0.152941 0.121569 0.043137
0.168627 0.117647 0.054902
0.188235 0.121569 0.054902
0.207843 0.125490 0.058824
0.223529 0.121569 0.062745
0.235294 0.121569 0.058824
0.250980 0.121569 0.062745
0.266667 0.121569 0.058824
0.282353 0.121569 0.054902
0.301961 0.121569 0.070588
0.313725 0.125490 0.070588
0.333333 0.125490 0.070588
0.352941 0.125490 0.078431
0.360784 0.129412 0.074510
0.376471 0.129412 0.070588
0.392157 0.129412 0.066667
0.411765 0.129412 0.074510
0.427451 0.129412 0.078431
0.447059 0.125490 0.078431
0.462745 0.125490 0.074510
0.474510 0.129412 0.082353
0.494118 0.125490 0.086275
0.513725 0.129412 0.086275
0.529412 0.129412 0.082353
0.549020 0.125490 0.078431
0.556863 0.125490 0.082353
0.576471 0.129412 0.086275
0.592157 0.129412 0.082353
0.611765 0.125490 0.086275
0.631373 0.129412 0.086275
0.647059 0.129412 0.090196
0.662745 0.133333 0.090196
0.678431 0.129412 0.090196
0.701961 0.133333 0.090196
0.717647 0.129412 0.094118
0.737255 0.125490 0.090196
0.760784 0.133333 0.094118
0.776471 0.133333 0.090196
0.800000 0.137255 0.094118
0.819608 0.137255 0.094118
0.839216 0.141176 0.094118
0.862745 0.149020 0.105882
0.874510 0.149020 0.101961
0.898039 0.156863 0.109804
0.913725 0.156863 0.105882
0.929412 0.164706 0.117647
0.949020 0.168627 0.109804
0.976471 0.180392 0.121569
0.988235 0.188235 0.121569
0.000000 0.121569 0.058824
0.000000 0.121569 0.058824
0.000000 0.121569 0.058824
0.007843 0.117647 0.058824
0.011765 0.121569 0.062745
0.027451 0.121569 0.058824
0.031373 0.117647 0.058824
0.039216 0.121569 0.062745
0.066667 0.125490 0.050980
0.074510 0.125490 0.047059
0.094118 0.129412 0.054902
0.101961 0.133333 0.050980
0.117647 0.129412 0.047059
0.133333 0.129412 0.043137
0.149020 0.129412 0.043137
0.156863 0.133333 0.047059
0.176471 0.125490 0.050980
0.192157 0.133333 0.058824
0.203922 0.133333 0.054902
0.223529 0.133333 0.062745
0.239216 0.133333 0.066667
0.250980 0.129412 0.058824
0.270588 0.129412 0.066667
0.278431 0.133333 0.062745
0.301961 0.141176 0.074510
0.309804 0.141176 0.074510
0.329412 0.137255 0.070588
0.345098 0.137255 0.074510
0.364706 0.141176 0.082353
0.380392 0.137255 0.078431
0.396078 0.137255 0.074510
0.407843 0.137255 0.078431
0.435294 0.137255 0.074510
0.443137 0.141176 0.078431
0.462745 0.137255 0.074510
0.478431 0.137255 0.078431
0.498039 0.137255 0.078431
0.513725 0.137255 0.082353
0.525490 0.137255 0.078431
0.545098 0.141176 0.086275
0.560784 0.137255 0.086275
0.576471 0.137255 0.090196
0.600000 0.137255 0.090196
0.615686 0.137255 0.086275
0.627451 0.141176 0.094118
0.647059 0.141176 0.090196
0.666667 0.145098 0.094118
0.682353 0.145098 0.090196
0.701961 0.145098 0.098039
0.717647 0.149020 0.098039
0.741176 0.145098 0.094118
0.764706 0.145098 0.101961
0.780392 0.145098 0.098039
0.800000 0.152941 0.105882
0.823529 0.152941 0.094118
0.835294 0.156863 0.094118
0.866667 0.152941 0.109804
0.878431 0.160784 0.109804
0.898039 0.164706 0.113725
0.917647 0.168627 0.105882
0.929412 0.172549 0.105882
0.952941 0.180392 0.113725
0.964706 0.188235 0.113725
0.984314 0.200000 0.117647
0.000000 0.133333 0.066667
0.003922 0.133333 0.066667
0.003922 0.133333 0.066667
0.003922 0.133333 0.066667
0.007843 0.129412 0.058824
0.019608 0.133333 0.062745
0.027451 0.133333 0.058824
0.031373 0.137255 0.062745
0.050980 0.137255 0.054902
0.066667 0.133333 0.058824
0.086275 0.137255 0.058824
0.101961 0.137255 0.054902
0.109804 0.141176 0.050980
0.129412 0.137255 0.043137
0.149020 0.141176 0.050980
0.160784 0.145098 0.047059
0.172549 0.141176 0.050980
0.192157 0.145098 0.050980
0.207843 0.145098 0.054902
0.219608 0.137255 0.054902
0.231373 0.145098 0.054902
0.250980 0.145098 0.062745
0.270588 0.145098 0.062745
0.286275 0.145098 0.058824
0.301961 0.152941 0.070588
0.317647 0.152941 0.066667
0.337255 0.149020 0.070588
0.356863 0.152941 0.070588
0.364706 0.149020 0.070588
0.388235 0.149020 0.078431
0.403922 0.149020 0.078431
0.419608 0.149020 0.086275
0.431373 0.149020 0.070588
0.447059 0.152941 0.078431
0.466667 0.149020 0.074510
0.482353 0.149020 0.070588
0.494118 0.149020 0.074510
0.513725 0.149020 0.082353
0.529412 0.149020 0.082353
0.545098 0.149020 0.086275
0.564706 0.149020 0.094118
0.576471 0.156863 0.094118
0.596078 0.152941 0.090196
0.611765 0.152941 0.086275
0.631373 0.156863 0.090196
0.650980 0.160784 0.090196
0.670588 0.156863 0.086275
0.678431 0.160784 0.082353
0.709804 0.156863 0.090196
0.725490 0.156863 0.098039
0.749020 0.156863 0.094118
0.764706 0.160784 0.098039
