custom_nodes/comfyui-vrgamedevgirl/LUTS/High_Contrast_Muted_Cool_Green_Tint.cube
#Created by: Adobe Photoshop Export Color Lookup Plugin
#Copyright: (C) Copyright 2017 PremiumBeat.com
TITLE "Basin"
#LUT size
LUT_3D_SIZE 8
#data domain
DOMAIN_MIN 0.0 0.0 0.0
DOMAIN_MAX 1.0 1.0 1.0
#LUT data points
0.000000 0.000000 0.000000
0.016632 0.016632 0.016632
0.066010 0.066010 0.066010
0.157898 0.157898 0.157898
0.301819 0.301819 0.301819
0.474030 0.474030 0.474030
0.631134 0.631134 0.631134
0.709930 0.709930 0.709930
0.010315 0.010315 0.010315
0.016174 0.016174 0.016174
0.065552 0.065552 0.065552
0.157440 0.157440 0.157440
0.301361 0.301361 0.301361
0.473541 0.473541 0.473541
0.630676 0.630676 0.630676
0.709473 0.709473 0.709473
0.040924 0.040924 0.040924
0.046783 0.046783 0.046783
0.064148 0.064148 0.064148
0.156036 0.156036 0.156036
0.299957 0.299957 0.299957
0.472168 0.472168 0.472168
0.629272 0.629272 0.629272
0.708069 0.708069 0.708069
0.097839 0.097839 0.097839
0.103699 0.103699 0.103699
0.121094 0.121094 0.121094
0.153442 0.153442 0.153442
0.297394 0.297394 0.297394
0.469574 0.469574 0.469574
0.626678 0.626678 0.626678
0.705475 0.705475 0.705475
0.187042 0.187042 0.187042
0.192902 0.192902 0.192902
0.210297 0.210297 0.210297
0.242645 0.242645 0.242645
0.293335 0.293335 0.293335
0.465515 0.465515 0.465515
0.622620 0.622620 0.622620
0.701416 0.701416 0.701416
0.293732 0.293732 0.293732
0.299591 0.299591 0.299591
0.316986 0.316986 0.316986
0.349335 0.349335 0.349335
0.400024 0.400024 0.400024
0.460663 0.460663 0.460663
0.617767 0.617767 0.617767
0.696564 0.696564 0.696564
0.391083 0.391083 0.391083
0.396942 0.396942 0.396942
0.414337 0.414337 0.414337
0.446686 0.446686 0.446686
0.497375 0.497375 0.497375
0.558014 0.558014 0.558014
0.613342 0.613342 0.613342
0.692139 0.692139 0.692139
0.439941 0.439941 0.439941
0.445801 0.445801 0.445801
0.463165 0.463165 0.463165
0.495544 0.495544 0.495544
0.546204 0.546204 0.546204
0.606842 0.606842 0.606842
0.662170 0.662170 0.662170
0.689911 0.689911 0.689911
0.000000 0.000000 0.000000
0.013123 0.013123 0.013123
0.062500 0.062500 0.062500
0.154388 0.154388 0.154388
0.298309 0.298309 0.298309
0.470490 0.470490 0.470490
0.627625 0.627625 0.627625
0.706421 0.706421 0.706421
0.025543 0.025543 0.025543
0.023438 0.023438 0.023438
0.072815 0.072815 0.072815
0.164703 0.164703 0.164703
0.308624 0.308624 0.308624
0.480804 0.480804 0.480804
0.637939 0.637939 0.637939
0.716736 0.716736 0.716736
0.056152 0.056152 0.056152
0.054047 0.054047 0.054047
0.071411 0.071411 0.071411
0.163300 0.163300 0.163300
0.307251 0.307251 0.307251
0.479431 0.479431 0.479431
0.636536 0.636536 0.636536
0.715332 0.715332 0.715332
0.113068 0.113068 0.113068
0.110962 0.110962 0.110962
0.128357 0.128357 0.128357
0.160706 0.160706 0.160706
0.304657 0.304657 0.304657
0.476837 0.476837 0.476837
0.633942 0.633942 0.633942
0.712769 0.712769 0.712769
0.202271 0.202271 0.202271
0.200165 0.200165 0.200165
0.217560 0.217560 0.217560
0.249908 0.249908 0.249908
0.300598 0.300598 0.300598
0.472778 0.472778 0.472778
0.629883 0.629883 0.629883
0.708710 0.708710 0.708710
0.308960 0.308960 0.308960
0.306854 0.306854 0.306854
0.324249 0.324249 0.324249
0.356598 0.356598 0.356598
0.407288 0.407288 0.407288
0.467926 0.467926 0.467926
0.625031 0.625031 0.625031
0.703827 0.703827 0.703827
0.406342 0.406342 0.406342
0.404236 0.404236 0.404236
0.421600 0.421600 0.421600
0.453979 0.453979 0.453979
0.504639 0.504639 0.504639
0.565277 0.565277 0.565277
0.620605 0.620605 0.620605
0.699402 0.699402 0.699402
0.455170 0.455170 0.455170
0.453064 0.453064 0.453064
0.470428 0.470428 0.470428
0.502808 0.502808 0.502808
0.553467 0.553467 0.553467
0.614105 0.614105 0.614105
0.669434 0.669434 0.669434
0.697174 0.697174 0.697174
0.000000 0.000000 0.000000
0.000000 0.000000 0.000000
0.052063 0.052063 0.052063
0.143951 0.143951 0.143951
0.287872 0.287872 0.287872
0.460052 0.460052 0.460052
0.617188 0.617188 0.617188
0.695984 0.695984 0.695984
0.000000 0.000000 0.000000
0.000000 0.000000 0.000000
0.062378 0.062378 0.062378
0.154266 0.154266 0.154266
0.298187 0.298187 0.298187
0.470367 0.470367 0.470367
0.627502 0.627502 0.627502
0.706299 0.706299 0.706299
0.101349 0.101349 0.101349
0.099243 0.099243 0.099243
0.092987 0.092987 0.092987
0.184875 0.184875 0.184875
0.328796 0.328796 0.328796
0.500977 0.500977 0.500977
0.658112 0.658112 0.658112
0.736908 0.736908 0.736908
0.158295 0.158295 0.158295
0.156189 0.156189 0.156189
0.149933 0.149933 0.149933
0.182281 0.182281 0.182281
0.326202 0.326202 0.326202
0.498383 0.498383 0.498383
0.655518 0.655518 0.655518
0.734314 0.734314 0.734314
0.247467 0.247467 0.247467
0.245361 0.245361 0.245361
0.239105 0.239105 0.239105
0.271484 0.271484 0.271484
0.322144 0.322144 0.322144
0.494324 0.494324 0.494324
0.651459 0.651459 0.651459
0.730255 0.730255 0.730255
0.354156 0.354156 0.354156
0.352051 0.352051 0.352051
0.345825 0.345825 0.345825
0.378174 0.378174 0.378174
0.428864 0.428864 0.428864
0.489471 0.489471 0.489471
0.646606 0.646606 0.646606
0.725403 0.725403 0.725403
0.451538 0.451538 0.451538
0.449432 0.449432 0.449432
0.443176 0.443176 0.443176
0.475525 0.475525 0.475525
0.526215 0.526215 0.526215
0.586853 0.586853 0.586853
0.642181 0.642181 0.642181
0.720978 0.720978 0.720978
0.500366 0.500366 0.500366
0.498260 0.498260 0.498260
0.492004 0.492004 0.492004
0.524353 0.524353 0.524353
0.575043 0.575043 0.575043
0.635681 0.635681 0.635681
0.691010 0.691010 0.691010
0.718750 0.718750 0.718750
0.000000 0.000000 0.000000
0.000000 0.000000 0.000000
0.000000 0.000000 0.000000
0.124512 0.124512 0.124512
0.268433 0.268433 0.268433
0.440613 0.440613 0.440613
0.597748 0.597748 0.597748
0.676544 0.676544 0.676544
0.000000 0.000000 0.000000
0.000000 0.000000 0.000000
0.000000 0.000000 0.000000
0.134827 0.134827 0.134827
0.278748 0.278748 0.278748
0.450928 0.450928 0.450928
0.608063 0.608063 0.608063
0.686859 0.686859 0.686859
0.027588 0.027588 0.027588
0.025482 0.025482 0.025482
0.019226 0.019226 0.019226
0.165436 0.165436 0.165436
0.309357 0.309357 0.309357
0.481567 0.481567 0.481567
0.638672 0.638672 0.638672
0.717468 0.717468 0.717468
0.242401 0.242401 0.242401
0.240295 0.240295 0.240295
0.234039 0.234039 0.234039
0.222412 0.222412 0.222412
0.366333 0.366333 0.366333
0.538513 0.538513 0.538513
0.695648 0.695648 0.695648
0.774445 0.774445 0.774445
0.331573 0.331573 0.331573
0.329468 0.329468 0.329468
0.323242 0.323242 0.323242
0.311615 0.311615 0.311615
0.362274 0.362274 0.362274
0.534454 0.534454 0.534454
0.691589 0.691589 0.691589
0.770386 0.770386 0.770386
0.438293 0.438293 0.438293
0.436188 0.436188 0.436188
0.429932 0.429932 0.429932
0.418304 0.418304 0.418304
0.468964 0.468964 0.468964
0.529602 0.529602 0.529602
0.686737 0.686737 0.686737
0.765533 0.765533 0.765533
0.535645 0.535645 0.535645
0.533539 0.533539 0.533539
0.527283 0.527283 0.527283
0.515656 0.515656 0.515656
0.566345 0.566345 0.566345
0.626984 0.626984 0.626984
0.682312 0.682312 0.682312
0.761108 0.761108 0.761108
0.584473 0.584473 0.584473
0.582367 0.582367 0.582367
0.576111 0.576111 0.576111
0.564484 0.564484 0.564484
0.615173 0.615173 0.615173
0.675812 0.675812 0.675812
0.731140 0.731140 0.731140
0.758881 0.758881 0.758881
0.000000 0.000000 0.000000
0.000000 0.000000 0.000000
0.000000 0.000000 0.000000
0.009003 0.009003 0.009003
0.238007 0.238007 0.238007
0.410187 0.410187 0.410187
0.567291 0.567291 0.567291
0.646118 0.646118 0.646118
0.000000 0.000000 0.000000
0.000000 0.000000 0.000000
0.000000 0.000000 0.000000
0.019318 0.019318 0.019318
0.248322 0.248322 0.248322
0.420502 0.420502 0.420502
0.577637 0.577637 0.577637
0.656433 0.656433 0.656433
0.000000 0.000000 0.000000
0.000000 0.000000 0.000000
0.000000 0.000000 0.000000
0.049927 0.049927 0.049927
0.278931 0.278931 0.278931
0.451111 0.451111 0.451111
0.608246 0.608246 0.608246
0.687042 0.687042 0.687042
0.126862 0.126862 0.126862
0.124756 0.124756 0.124756
0.118530 0.118530 0.118530
0.106903 0.106903 0.106903
0.335907 0.335907 0.335907
0.508087 0.508087 0.508087
0.665222 0.665222 0.665222
0.744019 0.744019 0.744019
0.463348 0.463348 0.463348
0.461243 0.461243 0.461243
0.454987 0.454987 0.454987
0.443359 0.443359 0.443359
0.425140 0.425140 0.425140
0.597321 0.597321 0.597321
0.754456 0.754456 0.754456
0.833252 0.833252 0.833252
0.570038 0.570038 0.570038
0.567932 0.567932 0.567932
0.561676 0.561676 0.561676
0.550049 0.550049 0.550049
0.531830 0.531830 0.531830
0.592468 0.592468 0.592468
0.749603 0.749603 0.749603
0.828400 0.828400 0.828400
0.667389 0.667389 0.667389
0.665283 0.665283 0.665283
0.659058 0.659058 0.659058
0.647430 0.647430 0.647430
0.629211 0.629211 0.629211
0.689819 0.689819 0.689819
0.745148 0.745148 0.745148
0.823975 0.823975 0.823975
0.716217 0.716217 0.716217
0.714111 0.714111 0.714111
0.707886 0.707886 0.707886
0.696259 0.696259 0.696259
0.678040 0.678040 0.678040
0.738647 0.738647 0.738647
0.793976 0.793976 0.793976
0.821747 0.821747 0.821747
0.000000 0.000000 0.000000
0.000000 0.000000 0.000000
0.000000 0.000000 0.000000
0.000000 0.000000 0.000000
0.099792 0.099792 0.099792
0.373779 0.373779 0.373779
0.530884 0.530884 0.530884
0.609680 0.609680 0.609680
0.000000 0.000000 0.000000
0.000000 0.000000 0.000000
0.000000 0.000000 0.000000
0.000000 0.000000 0.000000
0.110107 0.110107 0.110107
0.384094 0.384094 0.384094
0.541199 0.541199 0.541199
0.619995 0.619995 0.619995
0.000000 0.000000 0.000000
0.000000 0.000000 0.000000
0.000000 0.000000 0.000000
0.000000 0.000000 0.000000
0.140747 0.140747 0.140747
0.414703 0.414703 0.414703
0.571838 0.571838 0.571838
0.650635 0.650635 0.650635
0.000000 0.000000 0.000000
0.000000 0.000000 0.000000
0.000000 0.000000 0.000000
0.000000 0.000000 0.000000
0.197693 0.197693 0.197693
0.471680 0.471680 0.471680
0.628784 0.628784 0.628784
0.707581 0.707581 0.707581
0.325134 0.325134 0.325134
0.323029 0.323029 0.323029
0.316772 0.316772 0.316772
0.305145 0.305145 0.305145
0.286957 0.286957 0.286957
0.560913 0.560913 0.560913
0.718018 0.718018 0.718018
0.796844 0.796844 0.796844
0.727661 0.727661 0.727661
0.725555 0.725555 0.725555
0.719299 0.719299 0.719299
0.707672 0.707672 0.707672
0.689453 0.689453 0.689453
0.667664 0.667664 0.667664
0.824799 0.824799 0.824799
0.903595 0.903595 0.903595
0.825012 0.825012 0.825012
0.822906 0.822906 0.822906
0.816650 0.816650 0.816650
0.805023 0.805023 0.805023
0.786804 0.786804 0.786804
0.765015 0.765015 0.765015
0.820343 0.820343 0.820343
0.899170 0.899170 0.899170
0.873840 0.873840 0.873840
0.871735 0.871735 0.871735
0.865479 0.865479 0.865479
0.853851 0.853851 0.853851
0.835663 0.835663 0.835663
0.813873 0.813873 0.813873
0.869202 0.869202 0.869202
0.896942 0.896942 0.896942
0.000000 0.000000 0.000000
0.000000 0.000000 0.000000
0.000000 0.000000 0.000000
0.000000 0.000000 0.000000
0.000000 0.000000 0.000000
0.247650 0.247650 0.247650
0.497650 0.497650 0.497650
0.576477 0.576477 0.576477
0.000000 0.000000 0.000000
0.000000 0.000000 0.000000
0.000000 0.000000 0.000000
0.000000 0.000000 0.000000
0.000000 0.000000 0.000000
0.257965 0.257965 0.257965
0.507965 0.507965 0.507965
0.586792 0.586792 0.586792
0.000000 0.000000 0.000000
0.000000 0.000000 0.000000
0.000000 0.000000 0.000000
0.000000 0.000000 0.000000
0.014618 0.014618 0.014618
0.288605 0.288605 0.288605
0.538605 0.538605 0.538605
0.617401 0.617401 0.617401
0.000000 0.000000 0.000000
0.000000 0.000000 0.000000
0.000000 0.000000 0.000000
0.000000 0.000000 0.000000
0.071594 0.071594 0.071594
0.345551 0.345551 0.345551
0.595551 0.595551 0.595551
0.674377 0.674377 0.674377
0.199036 0.199036 0.199036
0.196930 0.196930 0.196930
0.190674 0.190674 0.190674
0.179047 0.179047 0.179047
0.160828 0.160828 0.160828
0.434784 0.434784 0.434784
0.684814 0.684814 0.684814
0.763611 0.763611 0.763611
0.601532 0.601532 0.601532
0.599426 0.599426 0.599426
0.593170 0.593170 0.593170
0.581543 0.581543 0.581543
0.563354 0.563354 0.563354
0.541565 0.541565 0.541565
0.791565 0.791565 0.791565
0.870361 0.870361 0.870361
0.968842 0.968842 0.968842
0.966736 0.966736 0.966736
0.960480 0.960480 0.960480
0.948853 0.948853 0.948853
0.930664 0.930664 0.930664
0.908875 0.908875 0.908875
0.888977 0.888977 0.888977
0.967773 0.967773 0.967773
1.000000 1.000000 1.000000
1.000000 1.000000 1.000000
1.000000 1.000000 1.000000
0.997681 0.997681 0.997681
0.979492 0.979492 0.979492
0.957703 0.957703 0.957703
0.937805 0.937805 0.937805
0.965546 0.965546 0.965546
0.000000 0.000000 0.000000
0.000000 0.000000 0.000000
0.000000 0.000000 0.000000
0.000000 0.000000 0.000000
0.000000 0.000000 0.000000
0.184418 0.184418 0.184418
0.434418 0.434418 0.434418
0.559784 0.559784 0.559784
0.000000 0.000000 0.000000
0.000000 0.000000 0.000000
0.000000 0.000000 0.000000
0.000000 0.000000 0.000000
0.000000 0.000000 0.000000
0.194733 0.194733 0.194733
0.444733 0.444733 0.444733
0.570129 0.570129 0.570129
0.000000 0.000000 0.000000
0.000000 0.000000 0.000000
0.000000 0.000000 0.000000
0.000000 0.000000 0.000000
0.000000 0.000000 0.000000
0.225342 0.225342 0.225342
0.475342 0.475342 0.475342
0.600739 0.600739 0.600739
0.000000 0.000000 0.000000
0.000000 0.000000 0.000000
0.000000 0.000000 0.000000
0.000000 0.000000 0.000000
0.008362 0.008362 0.008362
0.282318 0.282318 0.282318
0.532318 0.532318 0.532318
0.657715 0.657715 0.657715
0.135773 0.135773 0.135773
0.133667 0.133667 0.133667
0.127441 0.127441 0.127441
0.115814 0.115814 0.115814
0.097595 0.097595 0.097595
0.371552 0.371552 0.371552
0.621552 0.621552 0.621552
0.746948 0.746948 0.746948
0.538300 0.538300 0.538300
0.536194 0.536194 0.536194
0.529938 0.529938 0.529938
0.518311 0.518311 0.518311
0.500092 0.500092 0.500092
0.478302 0.478302 0.478302
0.728302 0.728302 0.728302
0.853699 0.853699 0.853699
0.905609 0.905609 0.905609
0.903503 0.903503 0.903503
0.897247 0.897247 0.897247
0.885620 0.885620 0.885620
0.867401 0.867401 0.867401
0.845612 0.845612 0.845612
0.825745 0.825745 0.825745
0.951111 0.951111 0.951111
1.000000 1.000000 1.000000
1.000000 1.000000 1.000000
1.000000 1.000000 1.000000
1.000000 1.000000 1.000000
1.000000 1.000000 1.000000
1.000000 1.000000 1.000000
1.000000 1.000000 1.000000
0.999969 0.999969 0.999969
