custom_nodes/comfyui-vrgamedevgirl/LUTS/High_Contrast_Muted_Cool_Green_Tint.cube
#Created by: Adobe Photoshop Export Color Lookup Plugin
#Copyright: (C) Copyright 2017 PremiumBeat.com
TITLE "Basin"
#LUT size
LUT_3D_SIZE 4
#data domain
DOMAIN_MIN 0.0 0.0 0.0
DOMAIN_MAX 1.0 1.0 1.0
#LUT data points
0.000000 0.000000 0.000000
0.091461 0.091461 0.091461
0.417908 0.417908 0.417908
0.709930 0.709930 0.709930
0.056671 0.056671 0.056671
0.088867 0.088867 0.088867
0.415314 0.415314 0.415314
0.707367 0.707367 0.707367
0.258972 0.258972 0.258972
0.291168 0.291168 0.291168
0.406128 0.406128 0.406128
0.698151 0.698151 0.698151
0.439941 0.439941 0.439941
0.472137 0.472137 0.472137
0.587097 0.587097 0.587097
0.689911 0.689911 0.689911
0.000000 0.000000 0.000000
0.072113 0.072113 0.072113
0.398560 0.398560 0.398560
0.690613 0.690613 0.690613
0.140381 0.140381 0.140381
0.128815 0.128815 0.128815
0.455261 0.455261 0.455261
0.747314 0.747314 0.747314
0.342682 0.342682 0.342682
0.331116 0.331116 0.331116
0.446045 0.446045 0.446045
0.738098 0.738098 0.738098
0.523651 0.523651 0.523651
0.512085 0.512085 0.512085
0.627014 0.627014 0.627014
0.729858 0.729858 0.729858
0.000000 0.000000 0.000000
0.000000 0.000000 0.000000
0.329529 0.329529 0.329529
0.621552 0.621552 0.621552
0.000000 0.000000 0.000000
0.000000 0.000000 0.000000
0.386230 0.386230 0.386230
0.678253 0.678253 0.678253
0.641510 0.641510 0.641510
0.629944 0.629944 0.629944
0.588623 0.588623 0.588623
0.880676 0.880676 0.880676
0.822479 0.822479 0.822479
0.810913 0.810913 0.810913
0.769592 0.769592 0.769592
0.872437 0.872437 0.872437
0.000000 0.000000 0.000000
0.000000 0.000000 0.000000
0.095123 0.095123 0.095123
0.559784 0.559784 0.559784
0.000000 0.000000 0.000000
0.000000 0.000000 0.000000
0.151825 0.151825 0.151825
0.616486 0.616486 0.616486
0.407104 0.407104 0.407104
0.395538 0.395538 0.395538
0.354218 0.354218 0.354218
0.818909 0.818909 0.818909
1.000000 1.000000 1.000000
1.000000 1.000000 1.000000
1.000000 1.000000 1.000000
0.999969 0.999969 0.999969
