custom_nodes/comfyui-vrgamedevgirl/LUTS/High_Contrast_Vivid_Warm_Cinematic_2.cube
#Created by: Adobe Photoshop Export Color Lookup Plugin
#Copyright: (C) Copyright 2017 PremiumBeat
TITLE "Pocatello"
#LUT size
LUT_3D_SIZE 8
#data domain
DOMAIN_MIN 0.0 0.0 0.0
DOMAIN_MAX 1.0 1.0 1.0
#LUT data points
0.000000 0.000000 0.000000
0.004578 0.000000 0.000000
0.153168 0.000000 0.000000
0.298279 0.000000 0.000000
0.519287 0.000000 0.000000
0.732361 0.000000 0.000000
0.866821 0.000000 0.000000
0.954529 0.000000 0.000000
0.000000 0.000000 0.000000
0.000000 0.000000 0.000000
0.148560 0.000000 0.000000
0.293213 0.000000 0.000000
0.513245 0.000000 0.000000
0.726318 0.000000 0.000000
0.861359 0.000000 0.000000
0.949615 0.000000 0.000000
0.000000 0.077209 0.000000
0.000000 0.079346 0.000000
0.137848 0.083374 0.000000
0.282745 0.091064 0.000000
0.502228 0.104370 0.000000
0.716248 0.117279 0.000000
0.852753 0.124878 0.000000
0.942322 0.129517 0.000000
0.000000 0.258698 0.000000
0.000000 0.260284 0.000000
0.111847 0.263153 0.000000
0.261566 0.268616 0.000000
0.483307 0.278076 0.000000
0.702087 0.286957 0.000000
0.844727 0.291992 0.000000
0.938751 0.294891 0.000000
0.000000 0.513794 0.000000
0.000000 0.515442 0.000000
0.055389 0.518250 0.000000
0.231964 0.523193 0.000000
0.469025 0.530548 0.000000
0.702667 0.536102 0.000000
0.857147 0.538879 0.000000
0.959564 0.540588 0.000000
0.000000 0.759521 0.000000
0.000000 0.760742 0.000000
0.016449 0.762695 0.000000
0.231812 0.765747 0.000000
0.488495 0.770081 0.000000
0.744354 0.773621 0.000000
0.908203 0.775482 0.000000
0.999969 0.776581 0.000000
0.000000 0.911285 0.000000
0.000000 0.912109 0.000000
0.062836 0.913513 0.000000
0.255859 0.915863 0.000000
0.521606 0.919220 0.000000
0.782898 0.921936 0.000000
0.947906 0.923370 0.000000
0.999969 0.924225 0.000000
0.000000 0.999969 0.000000
0.000000 0.999969 0.000000
0.096191 0.999969 0.000000
0.278900 0.999969 0.000000
0.546997 0.999969 0.000000
0.808655 0.999969 0.000000
0.972595 0.999969 0.000000
0.999969 0.999969 0.000000
0.000000 0.000000 0.000000
0.000000 0.000000 0.000000
0.152405 0.000000 0.000000
0.297394 0.000000 0.000000
0.518158 0.000000 0.000000
0.731232 0.000000 0.000000
0.865753 0.000000 0.000000
0.953613 0.000000 0.000000
0.000000 0.000000 0.000000
0.000000 0.000000 0.000000
0.147583 0.000000 0.000000
0.292175 0.000000 0.000000
0.512146 0.000000 0.000000
0.725250 0.000000 0.000000
0.860382 0.000000 0.000000
0.948730 0.000000 0.000000
0.000000 0.078003 0.000000
0.000000 0.080200 0.000000
0.136536 0.084167 0.000000
0.281616 0.091919 0.000000
0.501068 0.105255 0.000000
0.715240 0.118134 0.000000
0.851929 0.125671 0.000000
0.941711 0.130219 0.000000
0.000000 0.259277 0.000000
0.000000 0.260834 0.000000
0.110168 0.263794 0.000000
0.260345 0.269257 0.000000
0.482391 0.278656 0.000000
0.701569 0.287506 0.000000
0.844727 0.292480 0.000000
0.938751 0.295319 0.000000
0.000000 0.514435 0.000000
0.000000 0.515991 0.000000
0.053162 0.518829 0.000000
0.231323 0.523743 0.000000
0.469025 0.530975 0.000000
0.703430 0.536407 0.000000
0.858429 0.539215 0.000000
0.961121 0.540833 0.000000
0.000000 0.759979 0.000000
0.000000 0.761139 0.000000
0.016449 0.763062 0.000000
0.232666 0.766052 0.000000
0.489960 0.770325 0.000000
0.746216 0.773804 0.000000
0.910339 0.775665 0.000000
0.999969 0.776764 0.000000
0.000000 0.911591 0.000000
0.000000 0.912384 0.000000
0.065521 0.913788 0.000000
0.257629 0.916107 0.000000
0.523529 0.919434 0.000000
0.784943 0.922119 0.000000
0.950043 0.923553 0.000000
0.999969 0.924377 0.000000
0.000000 0.999969 0.000000
0.000000 0.999969 0.000000
0.098938 0.999969 0.000000
0.280884 0.999969 0.000000
0.549164 0.999969 0.000000
0.810791 0.999969 0.000000
0.974426 0.999969 0.000000
0.999969 0.999969 0.000000
0.000000 0.000000 0.154297
0.000000 0.000000 0.153259
0.150879 0.000000 0.151031
0.295715 0.000000 0.146149
0.516205 0.000000 0.135742
0.729218 0.000000 0.123383
0.863892 0.000000 0.114807
0.951874 0.000000 0.109161
0.000000 0.000000 0.152100
0.000000 0.000000 0.150818
0.145752 0.000000 0.148224
0.290314 0.000000 0.142731
0.510071 0.000000 0.131470
0.723267 0.000000 0.118591
0.858673 0.000000 0.109924
0.947266 0.000000 0.104218
0.000000 0.079407 0.147095
0.000000 0.081635 0.145447
0.134247 0.085693 0.142273
0.279541 0.093445 0.135834
0.499054 0.106873 0.123413
0.713531 0.119598 0.109833
0.850616 0.127014 0.101044
0.940735 0.131500 0.095306
0.000000 0.260315 0.135010
0.000000 0.261932 0.132874
0.107178 0.264832 0.128876
0.258209 0.270386 0.121216
0.480713 0.279785 0.107422
0.700592 0.288513 0.093567
0.844727 0.293335 0.085205
0.938751 0.296082 0.080200
0.000000 0.515472 0.109253
0.000000 0.517059 0.106750
0.049194 0.519836 0.102203
0.230316 0.524689 0.093964
0.469025 0.531738 0.081024
0.704956 0.536957 0.070465
0.860748 0.539703 0.064453
0.963867 0.541290 0.060822
0.000000 0.760773 0.082703
0.000000 0.761871 0.080505
0.016449 0.763702 0.076874
0.234283 0.766602 0.070892
0.492737 0.770813 0.061493
0.749756 0.774200 0.053070
0.914062 0.776001 0.048218
0.999969 0.777069 0.045105
0.000000 0.912140 0.069458
0.000000 0.912933 0.067719
0.070587 0.914246 0.064697
0.260773 0.916504 0.059418
0.527161 0.919769 0.051208
0.788757 0.922394 0.043762
0.953735 0.923798 0.039276
0.999969 0.924622 0.036316
0.000000 0.999969 0.061981
0.000000 0.999969 0.060333
0.103729 0.999969 0.057556
0.284698 0.999969 0.052704
0.552979 0.999969 0.045105
0.814453 0.999969 0.038025
0.977875 0.999969 0.033508
0.999969 0.999969 0.030762
0.000000 0.000000 0.305084
0.000000 0.000000 0.304077
0.147858 0.000000 0.302002
0.292419 0.000000 0.297607
0.512451 0.000000 0.288757
0.725525 0.000000 0.278870
0.860657 0.000000 0.272430
0.949005 0.000000 0.268341
0.000000 0.000000 0.302979
0.000000 0.000000 0.301819
0.142120 0.000000 0.299469
0.286743 0.000000 0.294678
0.506317 0.000000 0.285309
0.719849 0.000000 0.275269
0.855652 0.000000 0.268860
0.944733 0.000000 0.264801
0.000000 0.082062 0.298462
0.000000 0.084351 0.297028
0.129669 0.088562 0.294281
0.275574 0.096344 0.288849
0.495392 0.109680 0.278931
0.710602 0.122192 0.268799
0.848358 0.129425 0.262665
0.939087 0.133728 0.258942
0.000000 0.262238 0.288177
0.000000 0.263855 0.286438
0.101410 0.266876 0.283203
0.254333 0.272430 0.277222
0.477905 0.281738 0.267120
0.699646 0.290222 0.257874
0.844727 0.294861 0.252808
0.938751 0.297424 0.250031
0.000000 0.517365 0.268372
0.000000 0.518890 0.266602
0.041901 0.521637 0.263519
0.229004 0.526337 0.258118
0.469025 0.533020 0.250488
0.708191 0.537933 0.245026
0.865417 0.540558 0.242126
0.969269 0.542084 0.240509
0.000000 0.762115 0.251404
0.000000 0.763123 0.250214
0.024902 0.764801 0.248291
0.237732 0.767578 0.245209
0.498016 0.771576 0.240784
0.756256 0.774841 0.237366
0.921021 0.776581 0.235535
0.999969 0.777588 0.234528
0.000000 0.913086 0.244507
0.000000 0.913818 0.243683
0.079559 0.915100 0.242249
0.266846 0.917297 0.239899
0.534027 0.920410 0.236633
0.795807 0.922913 0.234070
0.960541 0.924225 0.232758
0.999969 0.924988 0.232025
0.000000 0.999969 0.240997
0.000000 0.999969 0.240295
0.112701 0.999969 0.239105
0.291626 0.999969 0.237213
0.560120 0.999969 0.234528
0.821106 0.999969 0.232422
0.983734 0.999969 0.231323
0.999969 0.999969 0.230652
0.000000 0.000000 0.538696
0.000000 0.000000 0.537537
0.141937 0.000000 0.535339
0.286530 0.000000 0.530670
0.506073 0.000000 0.521759
0.719635 0.000000 0.512177
0.855530 0.000000 0.506165
0.944611 0.000000 0.502380
0.000000 0.000000 0.536377
0.000000 0.000000 0.535095
0.135223 0.000000 0.532593
0.280396 0.000000 0.527649
0.499969 0.000000 0.518372
0.714294 0.000000 0.508789
0.851166 0.000000 0.502869
0.941132 0.000000 0.499176
0.000000 0.086792 0.531555
0.000000 0.089081 0.530090
0.121460 0.093384 0.527283
0.268860 0.101288 0.521851
0.489319 0.114441 0.512207
0.706085 0.126465 0.502838
0.845367 0.133270 0.497284
0.938751 0.137299 0.494019
0.000000 0.265594 0.521179
0.000000 0.267242 0.519501
0.091400 0.270325 0.516357
0.248108 0.275909 0.510620
0.473694 0.285004 0.501251
0.699646 0.292999 0.493073
0.844727 0.297180 0.488831
0.940155 0.299408 0.486572
0.000000 0.520477 0.502411
0.000000 0.521973 0.500824
0.027618 0.524597 0.498016
0.229004 0.528992 0.493286
0.469788 0.535004 0.486938
0.714813 0.539490 0.482269
0.874176 0.541931 0.479828
0.979065 0.543365 0.478424
0.000000 0.764130 0.487671
0.000000 0.765015 0.486725
0.042389 0.766541 0.485077
0.244781 0.769165 0.482422
0.507782 0.772858 0.478668
0.767700 0.775879 0.475739
0.932800 0.777466 0.474243
0.999969 0.778412 0.473389
0.000000 0.914612 0.481842
0.000000 0.915283 0.481110
0.094635 0.916473 0.479919
0.277740 0.918488 0.477905
0.545776 0.921356 0.475159
0.807495 0.923676 0.472992
0.971527 0.924927 0.471893
0.999969 0.925629 0.471222
0.000000 0.999969 0.478851
0.000000 0.999969 0.478241
0.127625 0.999969 0.477264
0.303741 0.999969 0.475647
0.572021 0.999969 0.473358
0.831818 0.999969 0.471588
0.993042 0.999969 0.470642
0.999969 0.999969 0.470032
0.000000 0.000000 0.766144
0.000000 0.000000 0.764832
0.135040 0.000000 0.762421
0.280212 0.000000 0.757477
0.499725 0.000000 0.748291
0.714142 0.000000 0.738800
0.851074 0.000000 0.732941
0.941040 0.000000 0.729340
0.000000 0.000000 0.763580
0.000000 0.000000 0.762177
0.127625 0.000000 0.759521
0.273865 0.000000 0.754333
0.493774 0.000000 0.744904
0.709320 0.000000 0.735474
0.847504 0.000000 0.729828
0.938751 0.000000 0.726440
0.000000 0.091522 0.758392
0.000000 0.093903 0.756836
0.112701 0.098236 0.753937
0.262115 0.106171 0.748352
0.483795 0.119019 0.738831
0.702393 0.130554 0.729767
0.844727 0.136841 0.724640
0.938751 0.140472 0.721710
0.000000 0.268982 0.747742
0.000000 0.270691 0.746002
0.081024 0.273743 0.742920
0.242401 0.279266 0.737305
0.470398 0.288116 0.728302
0.699646 0.295502 0.720856
0.845673 0.299164 0.717194
0.944336 0.301208 0.715179
0.000000 0.523499 0.729401
0.000000 0.524933 0.727905
0.016449 0.527374 0.725311
0.229004 0.531433 0.721008
0.473785 0.536713 0.715485
0.722717 0.540924 0.711273
0.883789 0.543213 0.709045
0.989532 0.544525 0.707764
0.000000 0.765900 0.716187
0.000000 0.766754 0.715302
0.058258 0.768188 0.713837
0.253143 0.770599 0.711426
0.518341 0.774048 0.708008
0.779419 0.776825 0.705383
0.944489 0.778320 0.704041
0.999969 0.779205 0.703247
0.000000 0.916016 0.710876
0.000000 0.916656 0.710205
0.109680 0.917786 0.709106
0.289246 0.919617 0.707336
0.557678 0.922302 0.704834
0.818848 0.924408 0.702911
0.981720 0.925568 0.701874
0.999969 0.926239 0.701263
0.000000 0.999969 0.708160
0.000000 0.999969 0.707642
0.142426 0.999969 0.706757
0.316071 0.999969 0.705261
0.583527 0.999969 0.703217
0.841675 0.999969 0.701599
0.999969 0.999969 0.700714
0.999969 0.999969 0.700134
0.000000 0.000000 0.909363
0.000000 0.000000 0.908051
0.130280 0.000000 0.905457
0.276062 0.000000 0.900360
0.495850 0.000000 0.891022
0.710938 0.000000 0.881561
0.848633 0.000000 0.875854
0.939270 0.000000 0.872375
0.000000 0.000000 0.906647
0.000000 0.000000 0.905182
0.122406 0.000000 0.902435
0.269623 0.000000 0.897125
0.489990 0.000000 0.887604
0.706512 0.000000 0.878326
0.845642 0.000000 0.872833
0.938751 0.000000 0.869598
0.000000 0.094574 0.901306
0.000000 0.097015 0.899658
0.106812 0.101349 0.896698
0.257996 0.109161 0.891144
0.480530 0.121857 0.881592
0.700531 0.132965 0.872772
0.844727 0.138947 0.867920
0.938751 0.142334 0.865143
0.000000 0.271149 0.890442
0.000000 0.272888 0.888702
0.074127 0.275909 0.885620
0.239075 0.281433 0.880096
0.469025 0.290009 0.871399
0.699646 0.296967 0.864380
0.848022 0.300354 0.861053
0.947845 0.302307 0.859131
0.000000 0.525330 0.872467
0.000000 0.526733 0.871002
0.016449 0.529053 0.868530
0.229004 0.532806 0.864563
0.477203 0.537781 0.859436
0.728241 0.541809 0.855438
0.890350 0.543976 0.853363
0.996582 0.545227 0.852173
0.000000 0.766998 0.860107
0.000000 0.767792 0.859253
0.068085 0.769165 0.857880
0.259125 0.771454 0.855591
0.525391 0.774750 0.852386
0.786896 0.777405 0.849915
0.951874 0.778809 0.848633
0.999969 0.779633 0.847900
0.000000 0.916809 0.855072
0.000000 0.917480 0.854462
0.119171 0.918518 0.853424
0.296814 0.920319 0.851715
0.565155 0.922791 0.849396
0.825684 0.924835 0.847565
0.987885 0.925964 0.846588
0.999969 0.926636 0.845978
0.000000 0.999969 0.852509
0.000000 0.999969 0.852020
0.151520 0.999969 0.851166
0.323914 0.999969 0.849792
0.590698 0.999969 0.847870
0.847504 0.999969 0.846313
0.999969 0.999969 0.845459
0.999969 0.999969 0.844910
0.000000 0.000000 0.999969
0.000000 0.000000 0.999969
0.127014 0.000000 0.998169
0.273315 0.000000 0.992950
0.493317 0.000000 0.983582
0.708984 0.000000 0.974152
0.847290 0.000000 0.968597
0.938751 0.000000 0.965179
0.000000 0.000000 0.999420
0.000000 0.000000 0.997894
0.118866 0.000000 0.995087
0.266846 0.000000 0.989685
0.487671 0.000000 0.980194
0.704895 0.000000 0.970978
0.844727 0.000000 0.965607
0.938751 0.000000 0.962463
0.000000 0.096588 0.993927
0.000000 0.099030 0.992279
0.102844 0.103363 0.989258
0.255310 0.111145 0.983673
0.478607 0.123596 0.974213
0.699646 0.134460 0.965576
0.844727 0.140228 0.960876
0.938751 0.143433 0.958252
0.000000 0.272583 0.983002
0.000000 0.274261 0.981293
0.069580 0.277344 0.978180
0.237091 0.282776 0.972687
0.469025 0.291138 0.964264
0.699646 0.297821 0.957520
0.849945 0.301086 0.954346
0.950470 0.302979 0.952515
0.000000 0.526489 0.965240
0.000000 0.527802 0.963837
0.016449 0.530029 0.961487
0.229004 0.533661 0.957703
0.479675 0.538452 0.952820
0.732117 0.542358 0.948944
0.894775 0.544434 0.946930
0.999969 0.545624 0.945770
0.000000 0.767639 0.953400
0.000000 0.768433 0.952606
0.074341 0.769775 0.951294
0.263214 0.772003 0.949066
0.529968 0.775177 0.945984
0.791687 0.777740 0.943634
0.956604 0.779114 0.942383
0.999969 0.779938 0.941681
0.000000 0.917358 0.948578
0.000000 0.917938 0.947998
0.125153 0.918976 0.947021
0.301819 0.920715 0.945374
0.570038 0.923126 0.943115
0.830078 0.925110 0.941345
0.991669 0.926208 0.940399
0.999969 0.926819 0.939819
0.000000 0.999969 0.946167
0.000000 0.999969 0.945648
0.157532 0.999969 0.944824
0.328918 0.999969 0.943542
0.595245 0.999969 0.941650
0.851105 0.999969 0.940155
0.999969 0.999969 0.939301
0.999969 0.999969 0.938751
