custom_nodes/comfyui-vrgamedevgirl/LUTS/High_Contrast_Cinematic.cube
#Created by: Adobe Photoshop Export Color Lookup Plugin
#Copyright: (C) Copyright 2017 PremiumBeat
TITLE "Seattle"
#LUT size
LUT_3D_SIZE 8
#data domain
DOMAIN_MIN 0.0 0.0 0.0
DOMAIN_MAX 1.0 1.0 1.0
#LUT data points
0.042084 0.047272 0.048737
0.102753 0.063843 0.065063
0.201080 0.080963 0.082123
0.351318 0.089539 0.090698
0.576324 0.129730 0.130554
0.818420 0.180420 0.180969
0.928955 0.205048 0.205505
0.897369 0.197937 0.198395
0.058807 0.108459 0.064362
0.101807 0.107117 0.063019
0.199493 0.122589 0.077881
0.350586 0.132965 0.086609
0.576233 0.163940 0.127625
0.818634 0.206451 0.178955
0.929260 0.228119 0.203735
0.897644 0.221802 0.196594
0.064209 0.204834 0.070160
0.112305 0.203461 0.069672
0.195679 0.201477 0.063629
0.348175 0.214081 0.071808
0.575378 0.235809 0.117401
0.818512 0.266785 0.171875
0.929352 0.283569 0.197662
0.897675 0.278625 0.190247
0.042236 0.351501 0.050079
0.105499 0.350677 0.050293
0.199707 0.349640 0.041626
0.341003 0.346405 0.014618
0.571869 0.361511 0.082672
0.816895 0.382080 0.149963
0.928253 0.393524 0.179108
0.896454 0.390137 0.170837
0.015930 0.571716 0.023346
0.094391 0.571442 0.023193
0.197083 0.570984 0.013367
0.343353 0.569336 0.000000
0.560638 0.564392 0.000000
0.810547 0.577667 0.055969
0.923248 0.584961 0.111267
0.891083 0.582825 0.097382
0.000000 0.808990 0.000000
0.065216 0.808960 0.000000
0.186462 0.808777 0.000000
0.339966 0.807861 0.000000
0.561218 0.804871 0.000000
0.797150 0.798950 0.000000
0.912140 0.804047 0.000000
0.879364 0.802521 0.000000
0.000000 0.917358 0.000000
0.039673 0.917389 0.000000
0.178802 0.917267 0.000000
0.336914 0.916534 0.000000
0.560364 0.914062 0.000000
0.797241 0.909119 0.000000
0.904907 0.905975 0.000000
0.874146 0.906921 0.000000
0.000000 0.886414 0.000000
0.048370 0.886383 0.000000
0.181152 0.886261 0.000000
0.337860 0.885529 0.000000
0.560669 0.882904 0.000000
0.797272 0.877686 0.000000
0.907074 0.876709 0.000000
0.874146 0.875397 0.000000
0.064148 0.068298 0.113403
0.105255 0.066895 0.112152
0.201172 0.080994 0.127045
0.351410 0.089600 0.137299
0.576447 0.129822 0.167358
0.818512 0.180481 0.209015
0.929047 0.205078 0.230377
0.897491 0.197968 0.224152
0.059570 0.109009 0.110626
0.104126 0.109100 0.110565
0.194122 0.125763 0.127106
0.344513 0.142609 0.143951
0.573120 0.174622 0.175659
0.817474 0.215851 0.216644
0.928741 0.236847 0.237549
0.896973 0.230713 0.231445
0.064270 0.204865 0.120209
0.116730 0.198456 0.122772
0.190887 0.196136 0.120575
0.342072 0.215973 0.136292
0.572174 0.242004 0.169159
0.817291 0.273682 0.211426
0.928802 0.290375 0.232819
0.896973 0.285461 0.226593
0.042358 0.351562 0.113251
0.117981 0.345612 0.124359
0.203094 0.343811 0.122681
0.335663 0.340759 0.112000
0.568787 0.362946 0.147736
0.815735 0.385834 0.194702
0.927734 0.397705 0.217896
0.895782 0.394196 0.211182
0.016144 0.571777 0.101715
0.112305 0.568817 0.118195
0.205780 0.567963 0.116394
0.345459 0.566406 0.104065
0.557861 0.561493 0.059326
0.809448 0.578583 0.136383
0.922760 0.586670 0.168213
0.890442 0.584320 0.159271
0.000000 0.809052 0.073212
0.090729 0.807953 0.096252
0.197662 0.807648 0.093445
0.344757 0.806793 0.077393
0.562378 0.803772 0.010834
0.796143 0.797913 0.000000
0.911743 0.804169 0.000000
0.878815 0.802307 0.000000
0.000000 0.917419 0.049408
0.073395 0.916931 0.078949
0.190948 0.916779 0.075104
0.342407 0.916046 0.054901
0.562408 0.913605 0.000000
0.797424 0.908661 0.000000
0.904510 0.905548 0.000000
0.873932 0.906494 0.000000
0.000000 0.886475 0.057343
0.078949 0.885834 0.084595
0.193085 0.885590 0.081085
0.343170 0.884857 0.062439
0.562500 0.882263 0.000000
0.797180 0.877106 0.000000
0.906708 0.876434 0.000000
0.873596 0.874817 0.000000
0.083405 0.087372 0.213837
0.124481 0.086578 0.212524
0.202789 0.081635 0.210571
0.351562 0.089661 0.222778
0.576599 0.129883 0.243530
0.818695 0.180542 0.273376
0.929260 0.205139 0.289581
0.897675 0.198059 0.284821
0.079010 0.127869 0.212158
0.124939 0.129547 0.205170
0.195953 0.127197 0.202850
0.344666 0.142700 0.222351
0.573303 0.174713 0.247742
0.817657 0.215942 0.278625
0.928955 0.236938 0.294891
0.897156 0.230804 0.290100
0.064423 0.205231 0.206970
0.117126 0.198853 0.200409
0.199127 0.203674 0.204987
0.332031 0.223114 0.224365
0.564392 0.257782 0.258942
0.814026 0.291809 0.292725
0.927185 0.308441 0.309296
0.894928 0.303589 0.304474
0.042572 0.351624 0.209839
0.118164 0.345703 0.211456
0.212341 0.334564 0.217834
0.326874 0.331329 0.214020
0.561096 0.367188 0.247559
0.812469 0.396088 0.282379
0.926178 0.409149 0.299469
0.893738 0.405365 0.294464
0.016388 0.571869 0.205902
0.112549 0.568909 0.212769
0.225983 0.561096 0.230804
0.351440 0.559082 0.227051
0.551086 0.554413 0.211395
0.806335 0.581024 0.249084
0.921295 0.591461 0.268250
0.888519 0.588501 0.262665
0.000000 0.809174 0.194244
0.091034 0.808044 0.203613
0.224365 0.804749 0.228149
0.357819 0.803741 0.223816
0.565521 0.800812 0.206696
0.793457 0.795105 0.170654
0.910492 0.804474 0.196747
0.877167 0.801849 0.189056
0.000000 0.917542 0.186188
0.073792 0.917053 0.196533
0.220184 0.915436 0.223358
0.357239 0.914673 0.218658
0.567963 0.912262 0.200623
0.797974 0.907410 0.162445
0.903412 0.904327 0.133484
0.873260 0.905273 0.142853
0.000000 0.886566 0.188690
0.079376 0.885925 0.198730
0.221588 0.883881 0.224915
0.357574 0.883026 0.220367
0.567474 0.880493 0.202576
0.796936 0.875397 0.165070
0.905518 0.875610 0.155121
0.872040 0.873169 0.145966
0.106903 0.110382 0.365814
0.145233 0.110107 0.364990
0.222015 0.105743 0.363892
0.352661 0.092285 0.360687
0.576843 0.130005 0.374725
0.819000 0.180664 0.394257
0.929535 0.205261 0.405151
0.897949 0.198151 0.401886
0.103119 0.147888 0.364899
0.150269 0.154694 0.358490
0.222168 0.152954 0.356720
0.346222 0.144592 0.353607
0.573547 0.174866 0.374847
0.817963 0.216095 0.396851
0.929230 0.237091 0.408264
0.897430 0.230957 0.404907
0.090790 0.223724 0.362000
0.142822 0.224457 0.355713
0.224365 0.228760 0.343536
0.334137 0.224945 0.340332
0.564667 0.257935 0.375610
0.814301 0.291962 0.404022
0.927521 0.308624 0.416779
0.895203 0.303772 0.413086
0.043793 0.351898 0.353546
0.118866 0.346039 0.347595
0.212921 0.335052 0.336365
0.343536 0.347260 0.348328
0.549103 0.380157 0.381134
0.805115 0.420990 0.421814
0.922302 0.437225 0.437988
0.888885 0.432678 0.433441
0.016754 0.572021 0.353912
0.112915 0.569031 0.355194
0.226288 0.561218 0.358978
0.367065 0.547882 0.370972
0.540680 0.543518 0.364502
0.799469 0.587982 0.404205
0.917755 0.603790 0.420563
0.884033 0.599487 0.415955
0.000000 0.809296 0.349030
0.091553 0.808197 0.352997
0.224762 0.804901 0.363922
0.387909 0.797241 0.390747
0.574036 0.794342 0.383759
0.787506 0.788940 0.368805
0.907440 0.805573 0.385284
0.873230 0.801056 0.380524
0.000000 0.917694 0.345367
0.074310 0.917175 0.350006
0.220581 0.915588 0.362854
0.391968 0.911499 0.394257
0.582214 0.909088 0.386963
0.799561 0.904449 0.371521
0.900696 0.901489 0.361633
0.871735 0.902405 0.364685
0.000000 0.886719 0.346527
0.079865 0.886078 0.350983
0.221954 0.884003 0.363312
0.391083 0.878876 0.393524
0.580200 0.876343 0.386322
0.796539 0.871490 0.371002
0.902679 0.873840 0.368866
0.868408 0.869385 0.364227
0.168671 0.170898 0.592743
0.195679 0.170776 0.592316
0.258148 0.167969 0.591797
0.377167 0.159546 0.590118
0.577820 0.133026 0.585205
0.819397 0.180847 0.597382
0.929962 0.205444 0.604279
0.898407 0.198334 0.602234
0.166260 0.197510 0.592285
0.201172 0.204620 0.589020
0.261993 0.203491 0.588074
0.377655 0.196991 0.586456
0.574738 0.177124 0.581573
0.818359 0.216309 0.597595
0.929688 0.237305 0.605377
0.897858 0.231201 0.603088
0.158691 0.259308 0.590820
0.195526 0.263519 0.587585
0.271118 0.275085 0.579010
0.378937 0.271973 0.576874
0.566223 0.259613 0.572205
0.814758 0.292206 0.598022
0.927948 0.308899 0.608185
0.895660 0.304016 0.605316
0.135010 0.376007 0.586426
0.177948 0.376740 0.583252
0.260590 0.379059 0.574829
0.384338 0.387848 0.560059
0.550964 0.381744 0.555603
0.805603 0.421265 0.599701
0.922791 0.437500 0.615479
0.889343 0.432922 0.611176
0.018646 0.572327 0.573639
0.113983 0.569366 0.570587
0.227051 0.561615 0.562714
0.367767 0.548370 0.549286
0.562836 0.565094 0.565735
0.790894 0.608246 0.608765
0.911682 0.633484 0.633972
0.876862 0.626526 0.627014
0.000000 0.809540 0.572418
0.092224 0.808441 0.573181
0.225281 0.805145 0.575195
0.388367 0.797455 0.581024
0.596893 0.786591 0.598724
0.780762 0.781891 0.591949
0.902527 0.810425 0.616394
0.867340 0.802429 0.609528
0.000000 0.917908 0.570892
0.075104 0.917419 0.572540
0.221100 0.915802 0.577026
0.392426 0.911713 0.588654
0.615509 0.903992 0.616913
0.805267 0.899780 0.609833
0.896545 0.897125 0.605164
0.870239 0.897949 0.606598
0.000000 0.886932 0.571381
0.080750 0.886292 0.572815
0.222504 0.884216 0.576660
0.391541 0.879089 0.586792
0.610565 0.870117 0.612091
0.798706 0.865784 0.605103
0.898285 0.871948 0.608490
0.863129 0.863861 0.601898
0.241089 0.242615 0.836853
0.260284 0.242554 0.836700
0.308960 0.240662 0.836426
0.412170 0.235077 0.835419
0.600342 0.218384 0.832428
0.820374 0.183807 0.826721
0.930450 0.205658 0.831146
0.898834 0.198547 0.829712
0.239532 0.261566 0.836639
0.264984 0.267487 0.835327
0.313324 0.266724 0.834900
0.414764 0.261902 0.833923
0.600891 0.247589 0.830963
0.819397 0.218689 0.825287
0.930145 0.237549 0.830902
0.898376 0.231445 0.829132
0.234558 0.309753 0.835846
0.260864 0.314362 0.834534
0.324036 0.327362 0.830750
0.421509 0.324890 0.829559
0.601898 0.314392 0.826660
0.815918 0.293915 0.821075
0.928467 0.309174 0.829865
0.896149 0.304291 0.827271
0.219666 0.410889 0.833221
0.248230 0.413574 0.831940
0.315155 0.421204 0.828217
0.437286 0.440552 0.819336
0.604340 0.434937 0.816284
0.807007 0.422516 0.811005
0.923309 0.437805 0.827209
0.889862 0.433228 0.822662
0.170380 0.594788 0.825470
0.207886 0.595337 0.824219
0.287537 0.596832 0.820618
0.421387 0.601135 0.812134
0.613556 0.615631 0.799408
0.792297 0.609344 0.794647
0.912170 0.633789 0.822998
0.877319 0.626801 0.814972
0.000000 0.809845 0.810730
0.093658 0.808746 0.809540
0.226166 0.805450 0.806183
0.389008 0.797791 0.798401
0.597443 0.786957 0.787354
0.799103 0.799957 0.800201
0.903778 0.823730 0.823914
0.871338 0.814972 0.815186
0.000000 0.918152 0.810150
0.075989 0.917633 0.810120
0.221680 0.916046 0.809998
0.392914 0.911926 0.809784
0.615906 0.904205 0.811401
0.819458 0.901215 0.820129
0.898560 0.898956 0.817505
0.875641 0.899658 0.818329
0.000000 0.887177 0.810333
0.081573 0.886505 0.810028
0.223083 0.884430 0.809052
0.392029 0.879303 0.806915
0.610962 0.870361 0.804932
0.811798 0.869751 0.812561
0.900024 0.876984 0.819336
0.867676 0.868195 0.810822
0.275146 0.276428 0.948303
0.291840 0.276398 0.948242
0.335358 0.274750 0.947998
0.431396 0.269989 0.947205
0.612823 0.255890 0.944733
0.829132 0.227753 0.939972
0.931122 0.208344 0.936981
0.901825 0.214447 0.937897
0.273804 0.292908 0.948181
0.296204 0.298370 0.947510
0.339661 0.297729 0.947205
0.434357 0.293457 0.946411
0.614197 0.280945 0.943970
0.829315 0.256317 0.939240
0.930847 0.239716 0.936279
0.901703 0.244873 0.937195
0.269562 0.336029 0.947540
0.292572 0.340546 0.946869
0.350372 0.353363 0.944855
0.442230 0.351166 0.943970
0.617432 0.341492 0.941559
0.829010 0.322845 0.936890
0.929230 0.310699 0.933929
0.900421 0.314423 0.934814
0.256989 0.430115 0.945404
0.281555 0.433136 0.944763
0.342255 0.441772 0.942810
0.460663 0.463776 0.937653
0.625092 0.458435 0.935181
0.827454 0.446442 0.930664
0.924225 0.438812 0.927856
0.896393 0.441132 0.928680
0.217346 0.607361 0.938995
0.247406 0.608643 0.938385
0.317139 0.612274 0.936462
0.445343 0.621704 0.931580
0.643066 0.645111 0.921997
0.824524 0.638824 0.917786
0.913116 0.634583 0.915192
0.887543 0.635864 0.915985
0.110291 0.818634 0.926727
0.164856 0.818634 0.926147
0.263184 0.818451 0.924408
0.414215 0.818024 0.919922
0.626831 0.818939 0.911407
0.825958 0.826721 0.907410
0.904297 0.824188 0.905121
0.881592 0.824982 0.905823
0.000000 0.918274 0.918976
0.077087 0.917816 0.918427
0.222168 0.916199 0.916748
0.393250 0.912109 0.912537
0.616180 0.904419 0.904694
0.819641 0.901367 0.901489
0.906464 0.906799 0.906891
0.881378 0.904419 0.904541
0.001587 0.889709 0.921326
0.110901 0.889313 0.920776
0.235443 0.888123 0.919067
0.399750 0.885040 0.914795
0.619476 0.879700 0.906738
0.821594 0.879700 0.903320
0.905121 0.882874 0.905640
0.883087 0.883545 0.906250
0.265381 0.266724 0.916443
0.282745 0.266663 0.916351
0.327637 0.264984 0.916138
0.425690 0.259979 0.915253
0.609100 0.245209 0.912659
0.826508 0.215485 0.907654
0.930603 0.205719 0.906342
0.899445 0.201263 0.905457
0.263977 0.283875 0.916290
0.287170 0.289429 0.915466
0.331970 0.288757 0.915131
0.428589 0.284332 0.914307
0.610291 0.271362 0.911743
0.826416 0.245605 0.906769
0.930298 0.237640 0.905762
0.899017 0.233582 0.904572
0.259521 0.328339 0.915619
0.283417 0.332886 0.914764
0.342712 0.345795 0.912292
0.436188 0.343506 0.911316
0.612946 0.333618 0.908783
0.825317 0.314453 0.903870
0.928619 0.309265 0.903748
0.896881 0.305817 0.901733
0.246399 0.424438 0.913391
0.272003 0.427399 0.912598
0.334381 0.435791 0.910126
0.453979 0.457123 0.903870
0.619293 0.451721 0.901276
0.821869 0.439606 0.896545
0.923492 0.437897 0.898468
0.890778 0.434235 0.894501
0.204376 0.603607 0.906616
0.236237 0.604706 0.905823
0.308563 0.607788 0.903442
0.438477 0.615936 0.897522
0.634796 0.636841 0.886658
0.815582 0.630554 0.882355
0.912323 0.633881 0.888092
0.878265 0.627594 0.880432
0.081696 0.816010 0.893707
0.146973 0.815735 0.893005
0.252625 0.814789 0.890778
0.406982 0.812500 0.885315
0.618561 0.810059 0.875671
0.816315 0.817108 0.874268
0.903900 0.823822 0.881348
0.871765 0.815399 0.872650
0.000000 0.918213 0.887848
0.076263 0.917725 0.887451
0.221863 0.916107 0.886169
0.393066 0.911987 0.883057
0.616058 0.904297 0.877747
0.819550 0.901306 0.877899
0.903412 0.903717 0.881165
0.881317 0.904388 0.881805
0.000000 0.887329 0.888031
0.082550 0.886627 0.887329
0.223511 0.884583 0.885193
0.392303 0.879456 0.879944
0.611206 0.870514 0.870850
0.811981 0.869904 0.870056
0.904877 0.882660 0.882782
0.875854 0.876312 0.876434
