custom_nodes/comfyui-vrgamedevgirl/LUTS/High_Contrast_Cinematic.cube
#Created by: Adobe Photoshop Export Color Lookup Plugin
#Copyright: (C) Copyright 2017 PremiumBeat
TITLE "Seattle"
#LUT size
LUT_3D_SIZE 4
#data domain
DOMAIN_MIN 0.0 0.0 0.0
DOMAIN_MAX 1.0 1.0 1.0
#LUT data points
0.042084 0.047272 0.048737
0.244293 0.079193 0.080475
0.745331 0.164581 0.165192
0.897369 0.197937 0.198395
0.053070 0.247009 0.060150
0.237091 0.242981 0.047729
0.744781 0.288910 0.149841
0.897491 0.308472 0.186066
0.000000 0.737335 0.000000
0.235138 0.736786 0.000000
0.725769 0.728149 0.000000
0.883667 0.735474 0.000000
0.000000 0.886414 0.000000
0.228210 0.886108 0.000000
0.725983 0.879547 0.000000
0.874146 0.875397 0.000000
0.084686 0.088837 0.257782
0.245728 0.079620 0.253845
0.745667 0.164734 0.297546
0.897766 0.198090 0.316315
0.053375 0.247375 0.249146
0.240417 0.244751 0.246002
0.735962 0.318237 0.319214
0.893494 0.339661 0.340515
0.000000 0.737549 0.243530
0.274261 0.728821 0.278046
0.718323 0.720428 0.247223
0.880249 0.736969 0.272247
0.000000 0.886597 0.235992
0.273285 0.882629 0.276306
0.728119 0.876190 0.243652
0.871094 0.872192 0.221527
0.218872 0.220551 0.763123
0.320953 0.216949 0.762329
0.747101 0.167969 0.753784
0.898712 0.198486 0.760376
0.207794 0.321350 0.761261
0.339172 0.342773 0.751434
0.737823 0.320068 0.742920
0.894501 0.340271 0.758911
0.000000 0.738098 0.739136
0.275574 0.729401 0.730194
0.727875 0.729126 0.729462
0.870972 0.759644 0.759949
0.000000 0.887115 0.738312
0.274384 0.883118 0.738922
0.753510 0.867706 0.754486
0.864044 0.864624 0.750732
0.265381 0.266724 0.916443
0.352875 0.263885 0.915955
0.759644 0.226410 0.909424
0.899445 0.201263 0.905457
0.256622 0.353149 0.915161
0.372528 0.375763 0.910278
0.759674 0.355133 0.903809
0.895447 0.341644 0.899994
0.137604 0.750732 0.898285
0.315369 0.751038 0.893890
0.762787 0.763916 0.876068
0.871765 0.760315 0.872955
0.000000 0.887329 0.888031
0.274963 0.883301 0.883881
0.753815 0.867920 0.868134
0.875854 0.876312 0.876434
