custom_nodes/comfyui-vrgamedevgirl/LUTS/Vivid_Warm_Clean_Vintage_Fade.cube
TITLE "Vintage_Fade"
LUT_3D_SIZE 65
DOMAIN_MIN 0 0 0
DOMAIN_MAX 1 1 1
0.030000 0.020000 0.040000
0.050198 0.020000 0.040000
0.069021 0.020000 0.040000
0.087357 0.020000 0.040000
0.105383 0.020000 0.040000
0.123184 0.020000 0.040000
0.140806 0.020000 0.040000
0.158281 0.020000 0.040000
0.175631 0.020000 0.040000
0.192873 0.020000 0.040000
0.210019 0.020000 0.040000
0.227079 0.020000 0.040000
0.244062 0.020000 0.040000
0.260975 0.020000 0.040000
0.277822 0.020000 0.040000
0.294609 0.020000 0.040000
0.311341 0.020000 0.040000
0.328020 0.020000 0.040000
0.344650 0.020000 0.040000
0.361233 0.020000 0.040000
0.377774 0.020000 0.040000
0.394273 0.020000 0.040000
0.410732 0.020000 0.040000
0.427155 0.020000 0.040000
0.443541 0.020000 0.040000
0.459894 0.020000 0.040000
0.476214 0.020000 0.040000
0.492502 0.020000 0.040000
0.508761 0.020000 0.040000
0.524990 0.020000 0.040000
0.541191 0.020000 0.040000
0.557366 0.020000 0.040000
0.573514 0.020000 0.040000
0.589637 0.020000 0.040000
0.605736 0.020000 0.040000
0.621811 0.020000 0.040000
0.637863 0.020000 0.040000
0.653893 0.020000 0.040000
0.669901 0.020000 0.040000
0.685888 0.020000 0.040000
0.701855 0.020000 0.040000
0.717801 0.020000 0.040000
0.733729 0.020000 0.040000
0.749637 0.020000 0.040000
0.765527 0.020000 0.040000
0.781398 0.020000 0.040000
0.797252 0.020000 0.040000
0.813089 0.020000 0.040000
0.828909 0.020000 0.040000
0.844713 0.020000 0.040000
0.860500 0.020000 0.040000
0.876272 0.020000 0.040000
0.892028 0.020000 0.040000
0.907769 0.020000 0.040000
0.923496 0.020000 0.040000
0.939207 0.020000 0.040000
0.954905 0.020000 0.040000
0.970588 0.020000 0.040000
0.986258 0.020000 0.040000
1.000000 0.020000 0.040000
1.000000 0.020000 0.040000
1.000000 0.020000 0.040000
1.000000 0.020000 0.040000
1.000000 0.020000 0.040000
1.000000 0.020000 0.040000
0.030000 0.038055 0.040000
0.050198 0.038055 0.040000
0.069021 0.038055 0.040000
0.087357 0.038055 0.040000
0.105383 0.038055 0.040000
0.123184 0.038055 0.040000
0.140806 0.038055 0.040000
0.158281 0.038055 0.040000
0.175631 0.038055 0.040000
0.192873 0.038055 0.040000
0.210019 0.038055 0.040000
0.227079 0.038055 0.040000
0.244062 0.038055 0.040000
0.260975 0.038055 0.040000
0.277822 0.038055 0.040000
0.294609 0.038055 0.040000
0.311341 0.038055 0.040000
0.328020 0.038055 0.040000
0.344650 0.038055 0.040000
0.361233 0.038055 0.040000
0.377774 0.038055 0.040000
0.394273 0.038055 0.040000
0.410732 0.038055 0.040000
0.427155 0.038055 0.040000
0.443541 0.038055 0.040000
0.459894 0.038055 0.040000
0.476214 0.038055 0.040000
0.492502 0.038055 0.040000
0.508761 0.038055 0.040000
0.524990 0.038055 0.040000
0.541191 0.038055 0.040000
0.557366 0.038055 0.040000
0.573514 0.038055 0.040000
0.589637 0.038055 0.040000
0.605736 0.038055 0.040000
0.621811 0.038055 0.040000
0.637863 0.038055 0.040000
0.653893 0.038055 0.040000
0.669901 0.038055 0.040000
0.685888 0.038055 0.040000
0.701855 0.038055 0.040000
0.717801 0.038055 0.040000
0.733729 0.038055 0.040000
0.749637 0.038055 0.040000
0.765527 0.038055 0.040000
0.781398 0.038055 0.040000
0.797252 0.038055 0.040000
0.813089 0.038055 0.040000
0.828909 0.038055 0.040000
0.844713 0.038055 0.040000
0.860500 0.038055 0.040000
0.876272 0.038055 0.040000
0.892028 0.038055 0.040000
0.907769 0.038055 0.040000
0.923496 0.038055 0.040000
0.939207 0.038055 0.040000
0.954905 0.038055 0.040000
0.970588 0.038055 0.040000
0.986258 0.038055 0.040000
1.000000 0.038055 0.040000
1.000000 0.038055 0.040000
1.000000 0.038055 0.040000
1.000000 0.038055 0.040000
1.000000 0.038055 0.040000
1.000000 0.038055 0.040000
0.030000 0.055368 0.040000
0.050198 0.055368 0.040000
0.069021 0.055368 0.040000
0.087357 0.055368 0.040000
0.105383 0.055368 0.040000
0.123184 0.055368 0.040000
0.140806 0.055368 0.040000
0.158281 0.055368 0.040000
0.175631 0.055368 0.040000
0.192873 0.055368 0.040000
0.210019 0.055368 0.040000
0.227079 0.055368 0.040000
0.244062 0.055368 0.040000
0.260975 0.055368 0.040000
0.277822 0.055368 0.040000
0.294609 0.055368 0.040000
0.311341 0.055368 0.040000
0.328020 0.055368 0.040000
0.344650 0.055368 0.040000
0.361233 0.055368 0.040000
0.377774 0.055368 0.040000
0.394273 0.055368 0.040000
0.410732 0.055368 0.040000
0.427155 0.055368 0.040000
0.443541 0.055368 0.040000
0.459894 0.055368 0.040000
0.476214 0.055368 0.040000
0.492502 0.055368 0.040000
0.508761 0.055368 0.040000
0.524990 0.055368 0.040000
0.541191 0.055368 0.040000
0.557366 0.055368 0.040000
0.573514 0.055368 0.040000
0.589637 0.055368 0.040000
0.605736 0.055368 0.040000
0.621811 0.055368 0.040000
0.637863 0.055368 0.040000
0.653893 0.055368 0.040000
0.669901 0.055368 0.040000
0.685888 0.055368 0.040000
0.701855 0.055368 0.040000
0.717801 0.055368 0.040000
0.733729 0.055368 0.040000
0.749637 0.055368 0.040000
0.765527 0.055368 0.040000
0.781398 0.055368 0.040000
0.797252 0.055368 0.040000
0.813089 0.055368 0.040000
0.828909 0.055368 0.040000
0.844713 0.055368 0.040000
0.860500 0.055368 0.040000
0.876272 0.055368 0.040000
0.892028 0.055368 0.040000
0.907769 0.055368 0.040000
0.923496 0.055368 0.040000
0.939207 0.055368 0.040000
0.954905 0.055368 0.040000
0.970588 0.055368 0.040000
0.986258 0.055368 0.040000
1.000000 0.055368 0.040000
1.000000 0.055368 0.040000
1.000000 0.055368 0.040000
1.000000 0.055368 0.040000
1.000000 0.055368 0.040000
1.000000 0.055368 0.040000
0.030000 0.072410 0.040000
0.050198 0.072410 0.040000
0.069021 0.072410 0.040000
0.087357 0.072410 0.040000
0.105383 0.072410 0.040000
0.123184 0.072410 0.040000
0.140806 0.072410 0.040000
0.158281 0.072410 0.040000
0.175631 0.072410 0.040000
0.192873 0.072410 0.040000
0.210019 0.072410 0.040000
0.227079 0.072410 0.040000
0.244062 0.072410 0.040000
0.260975 0.072410 0.040000
0.277822 0.072410 0.040000
0.294609 0.072410 0.040000
0.311341 0.072410 0.040000
0.328020 0.072410 0.040000
0.344650 0.072410 0.040000
0.361233 0.072410 0.040000
0.377774 0.072410 0.040000
0.394273 0.072410 0.040000
0.410732 0.072410 0.040000
0.427155 0.072410 0.040000
0.443541 0.072410 0.040000
0.459894 0.072410 0.040000
0.476214 0.072410 0.040000
0.492502 0.072410 0.040000
0.508761 0.072410 0.040000
0.524990 0.072410 0.040000
0.541191 0.072410 0.040000
0.557366 0.072410 0.040000
0.573514 0.072410 0.040000
0.589637 0.072410 0.040000
0.605736 0.072410 0.040000
0.621811 0.072410 0.040000
0.637863 0.072410 0.040000
0.653893 0.072410 0.040000
0.669901 0.072410 0.040000
0.685888 0.072410 0.040000
0.701855 0.072410 0.040000
0.717801 0.072410 0.040000
0.733729 0.072410 0.040000
0.749637 0.072410 0.040000
0.765527 0.072410 0.040000
0.781398 0.072410 0.040000
0.797252 0.072410 0.040000
0.813089 0.072410 0.040000
0.828909 0.072410 0.040000
0.844713 0.072410 0.040000
0.860500 0.072410 0.040000
0.876272 0.072410 0.040000
0.892028 0.072410 0.040000
0.907769 0.072410 0.040000
0.923496 0.072410 0.040000
0.939207 0.072410 0.040000
0.954905 0.072410 0.040000
0.970588 0.072410 0.040000
0.986258 0.072410 0.040000
1.000000 0.072410 0.040000
1.000000 0.072410 0.040000
1.000000 0.072410 0.040000
1.000000 0.072410 0.040000
1.000000 0.072410 0.040000
1.000000 0.072410 0.040000
0.030000 0.089279 0.040000
0.050198 0.089279 0.040000
0.069021 0.089279 0.040000
0.087357 0.089279 0.040000
0.105383 0.089279 0.040000
0.123184 0.089279 0.040000
0.140806 0.089279 0.040000
0.158281 0.089279 0.040000
0.175631 0.089279 0.040000
0.192873 0.089279 0.040000
0.210019 0.089279 0.040000
0.227079 0.089279 0.040000
0.244062 0.089279 0.040000
0.260975 0.089279 0.040000
0.277822 0.089279 0.040000
0.294609 0.089279 0.040000
0.311341 0.089279 0.040000
0.328020 0.089279 0.040000
0.344650 0.089279 0.040000
0.361233 0.089279 0.040000
0.377774 0.089279 0.040000
0.394273 0.089279 0.040000
0.410732 0.089279 0.040000
0.427155 0.089279 0.040000
0.443541 0.089279 0.040000
0.459894 0.089279 0.040000
0.476214 0.089279 0.040000
0.492502 0.089279 0.040000
0.508761 0.089279 0.040000
0.524990 0.089279 0.040000
0.541191 0.089279 0.040000
0.557366 0.089279 0.040000
0.573514 0.089279 0.040000
0.589637 0.089279 0.040000
0.605736 0.089279 0.040000
0.621811 0.089279 0.040000
0.637863 0.089279 0.040000
0.653893 0.089279 0.040000
0.669901 0.089279 0.040000
0.685888 0.089279 0.040000
0.701855 0.089279 0.040000
0.717801 0.089279 0.040000
0.733729 0.089279 0.040000
0.749637 0.089279 0.040000
0.765527 0.089279 0.040000
0.781398 0.089279 0.040000
0.797252 0.089279 0.040000
0.813089 0.089279 0.040000
0.828909 0.089279 0.040000
0.844713 0.089279 0.040000
0.860500 0.089279 0.040000
0.876272 0.089279 0.040000
0.892028 0.089279 0.040000
0.907769 0.089279 0.040000
0.923496 0.089279 0.040000
0.939207 0.089279 0.040000
0.954905 0.089279 0.040000
0.970588 0.089279 0.040000
0.986258 0.089279 0.040000
1.000000 0.089279 0.040000
1.000000 0.089279 0.040000
1.000000 0.089279 0.040000
1.000000 0.089279 0.040000
1.000000 0.089279 0.040000
1.000000 0.089279 0.040000
0.030000 0.106021 0.040000
0.050198 0.106021 0.040000
0.069021 0.106021 0.040000
0.087357 0.106021 0.040000
0.105383 0.106021 0.040000
0.123184 0.106021 0.040000
0.140806 0.106021 0.040000
0.158281 0.106021 0.040000
0.175631 0.106021 0.040000
0.192873 0.106021 0.040000
0.210019 0.106021 0.040000
0.227079 0.106021 0.040000
0.244062 0.106021 0.040000
0.260975 0.106021 0.040000
0.277822 0.106021 0.040000
0.294609 0.106021 0.040000
0.311341 0.106021 0.040000
0.328020 0.106021 0.040000
0.344650 0.106021 0.040000
0.361233 0.106021 0.040000
0.377774 0.106021 0.040000
0.394273 0.106021 0.040000
0.410732 0.106021 0.040000
0.427155 0.106021 0.040000
0.443541 0.106021 0.040000
0.459894 0.106021 0.040000
0.476214 0.106021 0.040000
0.492502 0.106021 0.040000
0.508761 0.106021 0.040000
0.524990 0.106021 0.040000
0.541191 0.106021 0.040000
0.557366 0.106021 0.040000
0.573514 0.106021 0.040000
0.589637 0.106021 0.040000
0.605736 0.106021 0.040000
0.621811 0.106021 0.040000
0.637863 0.106021 0.040000
0.653893 0.106021 0.040000
0.669901 0.106021 0.040000
0.685888 0.106021 0.040000
0.701855 0.106021 0.040000
0.717801 0.106021 0.040000
0.733729 0.106021 0.040000
0.749637 0.106021 0.040000
0.765527 0.106021 0.040000
0.781398 0.106021 0.040000
0.797252 0.106021 0.040000
0.813089 0.106021 0.040000
0.828909 0.106021 0.040000
0.844713 0.106021 0.040000
0.860500 0.106021 0.040000
0.876272 0.106021 0.040000
0.892028 0.106021 0.040000
0.907769 0.106021 0.040000
0.923496 0.106021 0.040000
0.939207 0.106021 0.040000
0.954905 0.106021 0.040000
0.970588 0.106021 0.040000
0.986258 0.106021 0.040000
1.000000 0.106021 0.040000
1.000000 0.106021 0.040000
1.000000 0.106021 0.040000
1.000000 0.106021 0.040000
1.000000 0.106021 0.040000
1.000000 0.106021 0.040000
0.030000 0.122663 0.040000
0.050198 0.122663 0.040000
0.069021 0.122663 0.040000
0.087357 0.122663 0.040000
0.105383 0.122663 0.040000
0.123184 0.122663 0.040000
0.140806 0.122663 0.040000
0.158281 0.122663 0.040000
0.175631 0.122663 0.040000
0.192873 0.122663 0.040000
0.210019 0.122663 0.040000
0.227079 0.122663 0.040000
0.244062 0.122663 0.040000
0.260975 0.122663 0.040000
0.277822 0.122663 0.040000
0.294609 0.122663 0.040000
0.311341 0.122663 0.040000
0.328020 0.122663 0.040000
0.344650 0.122663 0.040000
0.361233 0.122663 0.040000
0.377774 0.122663 0.040000
0.394273 0.122663 0.040000
0.410732 0.122663 0.040000
0.427155 0.122663 0.040000
0.443541 0.122663 0.040000
0.459894 0.122663 0.040000
0.476214 0.122663 0.040000
0.492502 0.122663 0.040000
0.508761 0.122663 0.040000
0.524990 0.122663 0.040000
0.541191 0.122663 0.040000
0.557366 0.122663 0.040000
0.573514 0.122663 0.040000
0.589637 0.122663 0.040000
0.605736 0.122663 0.040000
0.621811 0.122663 0.040000
0.637863 0.122663 0.040000
0.653893 0.122663 0.040000
0.669901 0.122663 0.040000
0.685888 0.122663 0.040000
0.701855 0.122663 0.040000
0.717801 0.122663 0.040000
0.733729 0.122663 0.040000
0.749637 0.122663 0.040000
0.765527 0.122663 0.040000
0.781398 0.122663 0.040000
0.797252 0.122663 0.040000
0.813089 0.122663 0.040000
0.828909 0.122663 0.040000
0.844713 0.122663 0.040000
0.860500 0.122663 0.040000
0.876272 0.122663 0.040000
0.892028 0.122663 0.040000
0.907769 0.122663 0.040000
0.923496 0.122663 0.040000
0.939207 0.122663 0.040000
0.954905 0.122663 0.040000
0.970588 0.122663 0.040000
0.986258 0.122663 0.040000
1.000000 0.122663 0.040000
1.000000 0.122663 0.040000
1.000000 0.122663 0.040000
1.000000 0.122663 0.040000
1.000000 0.122663 0.040000
1.000000 0.122663 0.040000
0.030000 0.139220 0.040000
0.050198 0.139220 0.040000
0.069021 0.139220 0.040000
0.087357 0.139220 0.040000
0.105383 0.139220 0.040000
0.123184 0.139220 0.040000
0.140806 0.139220 0.040000
0.158281 0.139220 0.040000
0.175631 0.139220 0.040000
0.192873 0.139220 0.040000
0.210019 0.139220 0.040000
0.227079 0.139220 0.040000
0.244062 0.139220 0.040000
0.260975 0.139220 0.040000
0.277822 0.139220 0.040000
0.294609 0.139220 0.040000
0.311341 0.139220 0.040000
0.328020 0.139220 0.040000
0.344650 0.139220 0.040000
0.361233 0.139220 0.040000
0.377774 0.139220 0.040000
0.394273 0.139220 0.040000
0.410732 0.139220 0.040000
0.427155 0.139220 0.040000
0.443541 0.139220 0.040000
0.459894 0.139220 0.040000
0.476214 0.139220 0.040000
0.492502 0.139220 0.040000
0.508761 0.139220 0.040000
0.524990 0.139220 0.040000
0.541191 0.139220 0.040000
0.557366 0.139220 0.040000
0.573514 0.139220 0.040000
0.589637 0.139220 0.040000
0.605736 0.139220 0.040000
0.621811 0.139220 0.040000
0.637863 0.139220 0.040000
0.653893 0.139220 0.040000
0.669901 0.139220 0.040000
0.685888 0.139220 0.040000
0.701855 0.139220 0.040000
0.717801 0.139220 0.040000
0.733729 0.139220 0.040000
0.749637 0.139220 0.040000
0.765527 0.139220 0.040000
0.781398 0.139220 0.040000
0.797252 0.139220 0.040000
0.813089 0.139220 0.040000
0.828909 0.139220 0.040000
0.844713 0.139220 0.040000
0.860500 0.139220 0.040000
0.876272 0.139220 0.040000
0.892028 0.139220 0.040000
0.907769 0.139220 0.040000
0.923496 0.139220 0.040000
0.939207 0.139220 0.040000
0.954905 0.139220 0.040000
0.970588 0.139220 0.040000
0.986258 0.139220 0.040000
1.000000 0.139220 0.040000
1.000000 0.139220 0.040000
1.000000 0.139220 0.040000
1.000000 0.139220 0.040000
1.000000 0.139220 0.040000
1.000000 0.139220 0.040000
0.030000 0.155707 0.040000
0.050198 0.155707 0.040000
0.069021 0.155707 0.040000
0.087357 0.155707 0.040000
0.105383 0.155707 0.040000
0.123184 0.155707 0.040000
0.140806 0.155707 0.040000
0.158281 0.155707 0.040000
0.175631 0.155707 0.040000
0.192873 0.155707 0.040000
0.210019 0.155707 0.040000
0.227079 0.155707 0.040000
0.244062 0.155707 0.040000
0.260975 0.155707 0.040000
0.277822 0.155707 0.040000
0.294609 0.155707 0.040000
0.311341 0.155707 0.040000
0.328020 0.155707 0.040000
0.344650 0.155707 0.040000
0.361233 0.155707 0.040000
0.377774 0.155707 0.040000
0.394273 0.155707 0.040000
0.410732 0.155707 0.040000
0.427155 0.155707 0.040000
0.443541 0.155707 0.040000
0.459894 0.155707 0.040000
0.476214 0.155707 0.040000
0.492502 0.155707 0.040000
0.508761 0.155707 0.040000
0.524990 0.155707 0.040000
0.541191 0.155707 0.040000
0.557366 0.155707 0.040000
0.573514 0.155707 0.040000
0.589637 0.155707 0.040000
0.605736 0.155707 0.040000
0.621811 0.155707 0.040000
0.637863 0.155707 0.040000
0.653893 0.155707 0.040000
0.669901 0.155707 0.040000
0.685888 0.155707 0.040000
0.701855 0.155707 0.040000
0.717801 0.155707 0.040000
0.733729 0.155707 0.040000
0.749637 0.155707 0.040000
0.765527 0.155707 0.040000
0.781398 0.155707 0.040000
0.797252 0.155707 0.040000
0.813089 0.155707 0.040000
0.828909 0.155707 0.040000
0.844713 0.155707 0.040000
0.860500 0.155707 0.040000
0.876272 0.155707 0.040000
0.892028 0.155707 0.040000
0.907769 0.155707 0.040000
0.923496 0.155707 0.040000
0.939207 0.155707 0.040000
0.954905 0.155707 0.040000
0.970588 0.155707 0.040000
0.986258 0.155707 0.040000
1.000000 0.155707 0.040000
1.000000 0.155707 0.040000
1.000000 0.155707 0.040000
1.000000 0.155707 0.040000
1.000000 0.155707 0.040000
1.000000 0.155707 0.040000
0.030000 0.172132 0.040000
0.050198 0.172132 0.040000
0.069021 0.172132 0.040000
0.087357 0.172132 0.040000
0.105383 0.172132 0.040000
0.123184 0.172132 0.040000
0.140806 0.172132 0.040000
0.158281 0.172132 0.040000
0.175631 0.172132 0.040000
0.192873 0.172132 0.040000
0.210019 0.172132 0.040000
0.227079 0.172132 0.040000
0.244062 0.172132 0.040000
0.260975 0.172132 0.040000
0.277822 0.172132 0.040000
0.294609 0.172132 0.040000
0.311341 0.172132 0.040000
0.328020 0.172132 0.040000
0.344650 0.172132 0.040000
0.361233 0.172132 0.040000
0.377774 0.172132 0.040000
0.394273 0.172132 0.040000
0.410732 0.172132 0.040000
0.427155 0.172132 0.040000
0.443541 0.172132 0.040000
0.459894 0.172132 0.040000
0.476214 0.172132 0.040000
0.492502 0.172132 0.040000
0.508761 0.172132 0.040000
0.524990 0.172132 0.040000
0.541191 0.172132 0.040000
0.557366 0.172132 0.040000
0.573514 0.172132 0.040000
0.589637 0.172132 0.040000
0.605736 0.172132 0.040000
0.621811 0.172132 0.040000
0.637863 0.172132 0.040000
0.653893 0.172132 0.040000
0.669901 0.172132 0.040000
0.685888 0.172132 0.040000
0.701855 0.172132 0.040000
0.717801 0.172132 0.040000
0.733729 0.172132 0.040000
0.749637 0.172132 0.040000
0.765527 0.172132 0.040000
0.781398 0.172132 0.040000
0.797252 0.172132 0.040000
0.813089 0.172132 0.040000
0.828909 0.172132 0.040000
0.844713 0.172132 0.040000
0.860500 0.172132 0.040000
0.876272 0.172132 0.040000
0.892028 0.172132 0.040000
0.907769 0.172132 0.040000
0.923496 0.172132 0.040000
0.939207 0.172132 0.040000
0.954905 0.172132 0.040000
0.970588 0.172132 0.040000
0.986258 0.172132 0.040000
1.000000 0.172132 0.040000
1.000000 0.172132 0.040000
1.000000 0.172132 0.040000
1.000000 0.172132 0.040000
1.000000 0.172132 0.040000
1.000000 0.172132 0.040000
0.030000 0.188502 0.040000
0.050198 0.188502 0.040000
0.069021 0.188502 0.040000
0.087357 0.188502 0.040000
0.105383 0.188502 0.040000
0.123184 0.188502 0.040000
0.140806 0.188502 0.040000
0.158281 0.188502 0.040000
0.175631 0.188502 0.040000
0.192873 0.188502 0.040000
0.210019 0.188502 0.040000
0.227079 0.188502 0.040000
0.244062 0.188502 0.040000
0.260975 0.188502 0.040000
0.277822 0.188502 0.040000
0.294609 0.188502 0.040000
0.311341 0.188502 0.040000
0.328020 0.188502 0.040000
0.344650 0.188502 0.040000
0.361233 0.188502 0.040000
0.377774 0.188502 0.040000
0.394273 0.188502 0.040000
0.410732 0.188502 0.040000
0.427155 0.188502 0.040000
0.443541 0.188502 0.040000
0.459894 0.188502 0.040000
0.476214 0.188502 0.040000
0.492502 0.188502 0.040000
0.508761 0.188502 0.040000
0.524990 0.188502 0.040000
0.541191 0.188502 0.040000
0.557366 0.188502 0.040000
0.573514 0.188502 0.040000
0.589637 0.188502 0.040000
0.605736 0.188502 0.040000
0.621811 0.188502 0.040000
0.637863 0.188502 0.040000
0.653893 0.188502 0.040000
0.669901 0.188502 0.040000
0.685888 0.188502 0.040000
0.701855 0.188502 0.040000
0.717801 0.188502 0.040000
0.733729 0.188502 0.040000
0.749637 0.188502 0.040000
0.765527 0.188502 0.040000
0.781398 0.188502 0.040000
0.797252 0.188502 0.040000
0.813089 0.188502 0.040000
0.828909 0.188502 0.040000
0.844713 0.188502 0.040000
0.860500 0.188502 0.040000
0.876272 0.188502 0.040000
0.892028 0.188502 0.040000
0.907769 0.188502 0.040000
0.923496 0.188502 0.040000
0.939207 0.188502 0.040000
0.954905 0.188502 0.040000
0.970588 0.188502 0.040000
0.986258 0.188502 0.040000
1.000000 0.188502 0.040000
1.000000 0.188502 0.040000
1.000000 0.188502 0.040000
1.000000 0.188502 0.040000
1.000000 0.188502 0.040000
1.000000 0.188502 0.040000
0.030000 0.204823 0.040000
0.050198 0.204823 0.040000
0.069021 0.204823 0.040000
0.087357 0.204823 0.040000
0.105383 0.204823 0.040000
0.123184 0.204823 0.040000
0.140806 0.204823 0.040000
0.158281 0.204823 0.040000
0.175631 0.204823 0.040000
0.192873 0.204823 0.040000
0.210019 0.204823 0.040000
0.227079 0.204823 0.040000
0.244062 0.204823 0.040000
0.260975 0.204823 0.040000
0.277822 0.204823 0.040000
0.294609 0.204823 0.040000
0.311341 0.204823 0.040000
0.328020 0.204823 0.040000
0.344650 0.204823 0.040000
0.361233 0.204823 0.040000
0.377774 0.204823 0.040000
0.394273 0.204823 0.040000
0.410732 0.204823 0.040000
0.427155 0.204823 0.040000
0.443541 0.204823 0.040000
0.459894 0.204823 0.040000
0.476214 0.204823 0.040000
0.492502 0.204823 0.040000
0.508761 0.204823 0.040000
0.524990 0.204823 0.040000
0.541191 0.204823 0.040000
0.557366 0.204823 0.040000
0.573514 0.204823 0.040000
0.589637 0.204823 0.040000
0.605736 0.204823 0.040000
0.621811 0.204823 0.040000
0.637863 0.204823 0.040000
0.653893 0.204823 0.040000
0.669901 0.204823 0.040000
0.685888 0.204823 0.040000
0.701855 0.204823 0.040000
0.717801 0.204823 0.040000
0.733729 0.204823 0.040000
0.749637 0.204823 0.040000
0.765527 0.204823 0.040000
0.781398 0.204823 0.040000
0.797252 0.204823 0.040000
0.813089 0.204823 0.040000
0.828909 0.204823 0.040000
0.844713 0.204823 0.040000
0.860500 0.204823 0.040000
0.876272 0.204823 0.040000
0.892028 0.204823 0.040000
0.907769 0.204823 0.040000
0.923496 0.204823 0.040000
0.939207 0.204823 0.040000
0.954905 0.204823 0.040000
0.970588 0.204823 0.040000
0.986258 0.204823 0.040000
1.000000 0.204823 0.040000
1.000000 0.204823 0.040000
1.000000 0.204823 0.040000
1.000000 0.204823 0.040000
1.000000 0.204823 0.040000
1.000000 0.204823 0.040000
0.030000 0.221100 0.040000
0.050198 0.221100 0.040000
0.069021 0.221100 0.040000
0.087357 0.221100 0.040000
0.105383 0.221100 0.040000
0.123184 0.221100 0.040000
0.140806 0.221100 0.040000
0.158281 0.221100 0.040000
0.175631 0.221100 0.040000
0.192873 0.221100 0.040000
0.210019 0.221100 0.040000
0.227079 0.221100 0.040000
0.244062 0.221100 0.040000
0.260975 0.221100 0.040000
0.277822 0.221100 0.040000
0.294609 0.221100 0.040000
0.311341 0.221100 0.040000
0.328020 0.221100 0.040000
0.344650 0.221100 0.040000
0.361233 0.221100 0.040000
0.377774 0.221100 0.040000
0.394273 0.221100 0.040000
0.410732 0.221100 0.040000
0.427155 0.221100 0.040000
0.443541 0.221100 0.040000
0.459894 0.221100 0.040000
0.476214 0.221100 0.040000
0.492502 0.221100 0.040000
0.508761 0.221100 0.040000
0.524990 0.221100 0.040000
0.541191 0.221100 0.040000
0.557366 0.221100 0.040000
0.573514 0.221100 0.040000
0.589637 0.221100 0.040000
0.605736 0.221100 0.040000
0.621811 0.221100 0.040000
0.637863 0.221100 0.040000
0.653893 0.221100 0.040000
0.669901 0.221100 0.040000
0.685888 0.221100 0.040000
0.701855 0.221100 0.040000
0.717801 0.221100 0.040000
0.733729 0.221100 0.040000
0.749637 0.221100 0.040000
0.765527 0.221100 0.040000
0.781398 0.221100 0.040000
0.797252 0.221100 0.040000
0.813089 0.221100 0.040000
0.828909 0.221100 0.040000
0.844713 0.221100 0.040000
0.860500 0.221100 0.040000
0.876272 0.221100 0.040000
0.892028 0.221100 0.040000
0.907769 0.221100 0.040000
0.923496 0.221100 0.040000
0.939207 0.221100 0.040000
0.954905 0.221100 0.040000
0.970588 0.221100 0.040000
0.986258 0.221100 0.040000
1.000000 0.221100 0.040000
1.000000 0.221100 0.040000
1.000000 0.221100 0.040000
1.000000 0.221100 0.040000
1.000000 0.221100 0.040000
1.000000 0.221100 0.040000
0.030000 0.237335 0.040000
0.050198 0.237335 0.040000
0.069021 0.237335 0.040000
0.087357 0.237335 0.040000
0.105383 0.237335 0.040000
0.123184 0.237335 0.040000
0.140806 0.237335 0.040000
0.158281 0.237335 0.040000
0.175631 0.237335 0.040000
0.192873 0.237335 0.040000
0.210019 0.237335 0.040000
0.227079 0.237335 0.040000
0.244062 0.237335 0.040000
0.260975 0.237335 0.040000
0.277822 0.237335 0.040000
0.294609 0.237335 0.040000
0.311341 0.237335 0.040000
0.328020 0.237335 0.040000
0.344650 0.237335 0.040000
0.361233 0.237335 0.040000
0.377774 0.237335 0.040000
0.394273 0.237335 0.040000
0.410732 0.237335 0.040000
0.427155 0.237335 0.040000
0.443541 0.237335 0.040000
0.459894 0.237335 0.040000
0.476214 0.237335 0.040000
0.492502 0.237335 0.040000
0.508761 0.237335 0.040000
0.524990 0.237335 0.040000
0.541191 0.237335 0.040000
0.557366 0.237335 0.040000
0.573514 0.237335 0.040000
0.589637 0.237335 0.040000
0.605736 0.237335 0.040000
0.621811 0.237335 0.040000
0.637863 0.237335 0.040000
0.653893 0.237335 0.040000
0.669901 0.237335 0.040000
0.685888 0.237335 0.040000
0.701855 0.237335 0.040000
