custom_nodes/comfyui-vrgamedevgirl/LUTS/Vivid_Warm_Clean_Vintage_Fade.cube
TITLE "Vintage_Fade"
LUT_3D_SIZE 5
DOMAIN_MIN 0 0 0
DOMAIN_MAX 1 1 1
0.030000 0.020000 0.040000
0.311341 0.020000 0.040000
0.573514 0.020000 0.040000
0.828909 0.020000 0.040000
1.000000 0.020000 0.040000
0.030000 0.285829 0.040000
0.311341 0.285829 0.040000
0.573514 0.285829 0.040000
0.828909 0.285829 0.040000
1.000000 0.285829 0.040000
0.030000 0.540716 0.040000
0.311341 0.540716 0.040000
0.573514 0.540716 0.040000
0.828909 0.540716 0.040000
1.000000 0.540716 0.040000
0.030000 0.791631 0.040000
0.311341 0.791631 0.040000
0.573514 0.791631 0.040000
0.828909 0.791631 0.040000
1.000000 0.791631 0.040000
0.030000 1.000000 0.040000
0.311341 1.000000 0.040000
0.573514 1.000000 0.040000
0.828909 1.000000 0.040000
1.000000 1.000000 0.040000
0.030000 0.020000 0.261595
0.311341 0.020000 0.261595
0.573514 0.020000 0.261595
0.828909 0.020000 0.261595
1.000000 0.020000 0.261595
0.030000 0.285829 0.261595
0.311341 0.285829 0.261595
0.573514 0.285829 0.261595
0.828909 0.285829 0.261595
1.000000 0.285829 0.261595
0.030000 0.540716 0.261595
0.311341 0.540716 0.261595
0.573514 0.540716 0.261595
0.828909 0.540716 0.261595
1.000000 0.540716 0.261595
0.030000 0.791631 0.261595
0.311341 0.791631 0.261595
0.573514 0.791631 0.261595
0.828909 0.791631 0.261595
1.000000 0.791631 0.261595
0.030000 1.000000 0.261595
0.311341 1.000000 0.261595
0.573514 1.000000 0.261595
0.828909 1.000000 0.261595
1.000000 1.000000 0.261595
0.030000 0.020000 0.498820
0.311341 0.020000 0.498820
0.573514 0.020000 0.498820
0.828909 0.020000 0.498820
1.000000 0.020000 0.498820
0.030000 0.285829 0.498820
0.311341 0.285829 0.498820
0.573514 0.285829 0.498820
0.828909 0.285829 0.498820
1.000000 0.285829 0.498820
0.030000 0.540716 0.498820
0.311341 0.540716 0.498820
0.573514 0.540716 0.498820
0.828909 0.540716 0.498820
1.000000 0.540716 0.498820
0.030000 0.791631 0.498820
0.311341 0.791631 0.498820
0.573514 0.791631 0.498820
0.828909 0.791631 0.498820
1.000000 0.791631 0.498820
0.030000 1.000000 0.498820
0.311341 1.000000 0.498820
0.573514 1.000000 0.498820
0.828909 1.000000 0.498820
1.000000 1.000000 0.498820
0.030000 0.020000 0.742325
0.311341 0.020000 0.742325
0.573514 0.020000 0.742325
0.828909 0.020000 0.742325
1.000000 0.020000 0.742325
0.030000 0.285829 0.742325
0.311341 0.285829 0.742325
0.573514 0.285829 0.742325
0.828909 0.285829 0.742325
1.000000 0.285829 0.742325
0.030000 0.540716 0.742325
0.311341 0.540716 0.742325
0.573514 0.540716 0.742325
0.828909 0.540716 0.742325
1.000000 0.540716 0.742325
0.030000 0.791631 0.742325
0.311341 0.791631 0.742325
0.573514 0.791631 0.742325
0.828909 0.791631 0.742325
1.000000 0.791631 0.742325
0.030000 1.000000 0.742325
0.311341 1.000000 0.742325
0.573514 1.000000 0.742325
0.828909 1.000000 0.742325
1.000000 1.000000 0.742325
0.030000 0.020000 0.990000
0.311341 0.020000 0.990000
0.573514 0.020000 0.990000
0.828909 0.020000 0.990000
1.000000 0.020000 0.990000
0.030000 0.285829 0.990000
0.311341 0.285829 0.990000
0.573514 0.285829 0.990000
0.828909 0.285829 0.990000
1.000000 0.285829 0.990000
0.030000 0.540716 0.990000
0.311341 0.540716 0.990000
0.573514 0.540716 0.990000
0.828909 0.540716 0.990000
1.000000 0.540716 0.990000
0.030000 0.791631 0.990000
0.311341 0.791631 0.990000
0.573514 0.791631 0.990000
0.828909 0.791631 0.990000
1.000000 0.791631 0.990000
0.030000 1.000000 0.990000
0.311341 1.000000 0.990000
0.573514 1.000000 0.990000
0.828909 1.000000 0.990000
1.000000 1.000000 0.990000
