custom_nodes/comfyui-vrgamedevgirl/LUTS/Vivid_Warm_Clean_Filmic_Bright.cube
TITLE "Filmic_Bright"
LUT_3D_SIZE 65
DOMAIN_MIN 0 0 0
DOMAIN_MAX 1 1 1
0.000000 0.000000 0.000000
0.020776 0.000000 0.000000
0.040136 0.000000 0.000000
0.058995 0.000000 0.000000
0.077537 0.000000 0.000000
0.095846 0.000000 0.000000
0.113972 0.000000 0.000000
0.131946 0.000000 0.000000
0.149792 0.000000 0.000000
0.167526 0.000000 0.000000
0.185162 0.000000 0.000000
0.202710 0.000000 0.000000
0.220179 0.000000 0.000000
0.237574 0.000000 0.000000
0.254903 0.000000 0.000000
0.272170 0.000000 0.000000
0.289379 0.000000 0.000000
0.306534 0.000000 0.000000
0.323640 0.000000 0.000000
0.340697 0.000000 0.000000
0.357710 0.000000 0.000000
0.374681 0.000000 0.000000
0.391610 0.000000 0.000000
0.408502 0.000000 0.000000
0.425357 0.000000 0.000000
0.442177 0.000000 0.000000
0.458963 0.000000 0.000000
0.475717 0.000000 0.000000
0.492440 0.000000 0.000000
0.509133 0.000000 0.000000
0.525797 0.000000 0.000000
0.542433 0.000000 0.000000
0.559043 0.000000 0.000000
0.575627 0.000000 0.000000
0.592185 0.000000 0.000000
0.608720 0.000000 0.000000
0.625231 0.000000 0.000000
0.641718 0.000000 0.000000
0.658184 0.000000 0.000000
0.674628 0.000000 0.000000
0.691050 0.000000 0.000000
0.707453 0.000000 0.000000
0.723835 0.000000 0.000000
0.740198 0.000000 0.000000
0.756542 0.000000 0.000000
0.772867 0.000000 0.000000
0.789174 0.000000 0.000000
0.805463 0.000000 0.000000
0.821735 0.000000 0.000000
0.837990 0.000000 0.000000
0.854229 0.000000 0.000000
0.870451 0.000000 0.000000
0.886658 0.000000 0.000000
0.902848 0.000000 0.000000
0.919024 0.000000 0.000000
0.935185 0.000000 0.000000
0.951330 0.000000 0.000000
0.967462 0.000000 0.000000
0.983579 0.000000 0.000000
0.999683 0.000000 0.000000
1.000000 0.000000 0.000000
1.000000 0.000000 0.000000
1.000000 0.000000 0.000000
1.000000 0.000000 0.000000
1.000000 0.000000 0.000000
0.000000 0.017829 0.000000
0.020776 0.017829 0.000000
0.040136 0.017829 0.000000
0.058995 0.017829 0.000000
0.077537 0.017829 0.000000
0.095846 0.017829 0.000000
0.113972 0.017829 0.000000
0.131946 0.017829 0.000000
0.149792 0.017829 0.000000
0.167526 0.017829 0.000000
0.185162 0.017829 0.000000
0.202710 0.017829 0.000000
0.220179 0.017829 0.000000
0.237574 0.017829 0.000000
0.254903 0.017829 0.000000
0.272170 0.017829 0.000000
0.289379 0.017829 0.000000
0.306534 0.017829 0.000000
0.323640 0.017829 0.000000
0.340697 0.017829 0.000000
0.357710 0.017829 0.000000
0.374681 0.017829 0.000000
0.391610 0.017829 0.000000
0.408502 0.017829 0.000000
0.425357 0.017829 0.000000
0.442177 0.017829 0.000000
0.458963 0.017829 0.000000
0.475717 0.017829 0.000000
0.492440 0.017829 0.000000
0.509133 0.017829 0.000000
0.525797 0.017829 0.000000
0.542433 0.017829 0.000000
0.559043 0.017829 0.000000
0.575627 0.017829 0.000000
0.592185 0.017829 0.000000
0.608720 0.017829 0.000000
0.625231 0.017829 0.000000
0.641718 0.017829 0.000000
0.658184 0.017829 0.000000
0.674628 0.017829 0.000000
0.691050 0.017829 0.000000
0.707453 0.017829 0.000000
0.723835 0.017829 0.000000
0.740198 0.017829 0.000000
0.756542 0.017829 0.000000
0.772867 0.017829 0.000000
0.789174 0.017829 0.000000
0.805463 0.017829 0.000000
0.821735 0.017829 0.000000
0.837990 0.017829 0.000000
0.854229 0.017829 0.000000
0.870451 0.017829 0.000000
0.886658 0.017829 0.000000
0.902848 0.017829 0.000000
0.919024 0.017829 0.000000
0.935185 0.017829 0.000000
0.951330 0.017829 0.000000
0.967462 0.017829 0.000000
0.983579 0.017829 0.000000
0.999683 0.017829 0.000000
1.000000 0.017829 0.000000
1.000000 0.017829 0.000000
1.000000 0.017829 0.000000
1.000000 0.017829 0.000000
1.000000 0.017829 0.000000
0.000000 0.035168 0.000000
0.020776 0.035168 0.000000
0.040136 0.035168 0.000000
0.058995 0.035168 0.000000
0.077537 0.035168 0.000000
0.095846 0.035168 0.000000
0.113972 0.035168 0.000000
0.131946 0.035168 0.000000
0.149792 0.035168 0.000000
0.167526 0.035168 0.000000
0.185162 0.035168 0.000000
0.202710 0.035168 0.000000
0.220179 0.035168 0.000000
0.237574 0.035168 0.000000
0.254903 0.035168 0.000000
0.272170 0.035168 0.000000
0.289379 0.035168 0.000000
0.306534 0.035168 0.000000
0.323640 0.035168 0.000000
0.340697 0.035168 0.000000
0.357710 0.035168 0.000000
0.374681 0.035168 0.000000
0.391610 0.035168 0.000000
0.408502 0.035168 0.000000
0.425357 0.035168 0.000000
0.442177 0.035168 0.000000
0.458963 0.035168 0.000000
0.475717 0.035168 0.000000
0.492440 0.035168 0.000000
0.509133 0.035168 0.000000
0.525797 0.035168 0.000000
0.542433 0.035168 0.000000
0.559043 0.035168 0.000000
0.575627 0.035168 0.000000
0.592185 0.035168 0.000000
0.608720 0.035168 0.000000
0.625231 0.035168 0.000000
0.641718 0.035168 0.000000
0.658184 0.035168 0.000000
0.674628 0.035168 0.000000
0.691050 0.035168 0.000000
0.707453 0.035168 0.000000
0.723835 0.035168 0.000000
0.740198 0.035168 0.000000
0.756542 0.035168 0.000000
0.772867 0.035168 0.000000
0.789174 0.035168 0.000000
0.805463 0.035168 0.000000
0.821735 0.035168 0.000000
0.837990 0.035168 0.000000
0.854229 0.035168 0.000000
0.870451 0.035168 0.000000
0.886658 0.035168 0.000000
0.902848 0.035168 0.000000
0.919024 0.035168 0.000000
0.935185 0.035168 0.000000
0.951330 0.035168 0.000000
0.967462 0.035168 0.000000
0.983579 0.035168 0.000000
0.999683 0.035168 0.000000
1.000000 0.035168 0.000000
1.000000 0.035168 0.000000
1.000000 0.035168 0.000000
1.000000 0.035168 0.000000
1.000000 0.035168 0.000000
0.000000 0.052325 0.000000
0.020776 0.052325 0.000000
0.040136 0.052325 0.000000
0.058995 0.052325 0.000000
0.077537 0.052325 0.000000
0.095846 0.052325 0.000000
0.113972 0.052325 0.000000
0.131946 0.052325 0.000000
0.149792 0.052325 0.000000
0.167526 0.052325 0.000000
0.185162 0.052325 0.000000
0.202710 0.052325 0.000000
0.220179 0.052325 0.000000
0.237574 0.052325 0.000000
0.254903 0.052325 0.000000
0.272170 0.052325 0.000000
0.289379 0.052325 0.000000
0.306534 0.052325 0.000000
0.323640 0.052325 0.000000
0.340697 0.052325 0.000000
0.357710 0.052325 0.000000
0.374681 0.052325 0.000000
0.391610 0.052325 0.000000
0.408502 0.052325 0.000000
0.425357 0.052325 0.000000
0.442177 0.052325 0.000000
0.458963 0.052325 0.000000
0.475717 0.052325 0.000000
0.492440 0.052325 0.000000
0.509133 0.052325 0.000000
0.525797 0.052325 0.000000
0.542433 0.052325 0.000000
0.559043 0.052325 0.000000
0.575627 0.052325 0.000000
0.592185 0.052325 0.000000
0.608720 0.052325 0.000000
0.625231 0.052325 0.000000
0.641718 0.052325 0.000000
0.658184 0.052325 0.000000
0.674628 0.052325 0.000000
0.691050 0.052325 0.000000
0.707453 0.052325 0.000000
0.723835 0.052325 0.000000
0.740198 0.052325 0.000000
0.756542 0.052325 0.000000
0.772867 0.052325 0.000000
0.789174 0.052325 0.000000
0.805463 0.052325 0.000000
0.821735 0.052325 0.000000
0.837990 0.052325 0.000000
0.854229 0.052325 0.000000
0.870451 0.052325 0.000000
0.886658 0.052325 0.000000
0.902848 0.052325 0.000000
0.919024 0.052325 0.000000
0.935185 0.052325 0.000000
0.951330 0.052325 0.000000
0.967462 0.052325 0.000000
0.983579 0.052325 0.000000
0.999683 0.052325 0.000000
1.000000 0.052325 0.000000
1.000000 0.052325 0.000000
1.000000 0.052325 0.000000
1.000000 0.052325 0.000000
1.000000 0.052325 0.000000
0.000000 0.069367 0.000000
0.020776 0.069367 0.000000
0.040136 0.069367 0.000000
0.058995 0.069367 0.000000
0.077537 0.069367 0.000000
0.095846 0.069367 0.000000
0.113972 0.069367 0.000000
0.131946 0.069367 0.000000
0.149792 0.069367 0.000000
0.167526 0.069367 0.000000
0.185162 0.069367 0.000000
0.202710 0.069367 0.000000
0.220179 0.069367 0.000000
0.237574 0.069367 0.000000
0.254903 0.069367 0.000000
0.272170 0.069367 0.000000
0.289379 0.069367 0.000000
0.306534 0.069367 0.000000
0.323640 0.069367 0.000000
0.340697 0.069367 0.000000
0.357710 0.069367 0.000000
0.374681 0.069367 0.000000
0.391610 0.069367 0.000000
0.408502 0.069367 0.000000
0.425357 0.069367 0.000000
0.442177 0.069367 0.000000
0.458963 0.069367 0.000000
0.475717 0.069367 0.000000
0.492440 0.069367 0.000000
0.509133 0.069367 0.000000
0.525797 0.069367 0.000000
0.542433 0.069367 0.000000
0.559043 0.069367 0.000000
0.575627 0.069367 0.000000
0.592185 0.069367 0.000000
0.608720 0.069367 0.000000
0.625231 0.069367 0.000000
0.641718 0.069367 0.000000
0.658184 0.069367 0.000000
0.674628 0.069367 0.000000
0.691050 0.069367 0.000000
0.707453 0.069367 0.000000
0.723835 0.069367 0.000000
0.740198 0.069367 0.000000
0.756542 0.069367 0.000000
0.772867 0.069367 0.000000
0.789174 0.069367 0.000000
0.805463 0.069367 0.000000
0.821735 0.069367 0.000000
0.837990 0.069367 0.000000
0.854229 0.069367 0.000000
0.870451 0.069367 0.000000
0.886658 0.069367 0.000000
0.902848 0.069367 0.000000
0.919024 0.069367 0.000000
0.935185 0.069367 0.000000
0.951330 0.069367 0.000000
0.967462 0.069367 0.000000
0.983579 0.069367 0.000000
0.999683 0.069367 0.000000
1.000000 0.069367 0.000000
1.000000 0.069367 0.000000
1.000000 0.069367 0.000000
1.000000 0.069367 0.000000
1.000000 0.069367 0.000000
0.000000 0.086322 0.000000
0.020776 0.086322 0.000000
0.040136 0.086322 0.000000
0.058995 0.086322 0.000000
0.077537 0.086322 0.000000
0.095846 0.086322 0.000000
0.113972 0.086322 0.000000
0.131946 0.086322 0.000000
0.149792 0.086322 0.000000
0.167526 0.086322 0.000000
0.185162 0.086322 0.000000
0.202710 0.086322 0.000000
0.220179 0.086322 0.000000
0.237574 0.086322 0.000000
0.254903 0.086322 0.000000
0.272170 0.086322 0.000000
0.289379 0.086322 0.000000
0.306534 0.086322 0.000000
0.323640 0.086322 0.000000
0.340697 0.086322 0.000000
0.357710 0.086322 0.000000
0.374681 0.086322 0.000000
0.391610 0.086322 0.000000
0.408502 0.086322 0.000000
0.425357 0.086322 0.000000
0.442177 0.086322 0.000000
0.458963 0.086322 0.000000
0.475717 0.086322 0.000000
0.492440 0.086322 0.000000
0.509133 0.086322 0.000000
0.525797 0.086322 0.000000
0.542433 0.086322 0.000000
0.559043 0.086322 0.000000
0.575627 0.086322 0.000000
0.592185 0.086322 0.000000
0.608720 0.086322 0.000000
0.625231 0.086322 0.000000
0.641718 0.086322 0.000000
0.658184 0.086322 0.000000
0.674628 0.086322 0.000000
0.691050 0.086322 0.000000
0.707453 0.086322 0.000000
0.723835 0.086322 0.000000
0.740198 0.086322 0.000000
0.756542 0.086322 0.000000
0.772867 0.086322 0.000000
0.789174 0.086322 0.000000
0.805463 0.086322 0.000000
0.821735 0.086322 0.000000
0.837990 0.086322 0.000000
0.854229 0.086322 0.000000
0.870451 0.086322 0.000000
0.886658 0.086322 0.000000
0.902848 0.086322 0.000000
0.919024 0.086322 0.000000
0.935185 0.086322 0.000000
0.951330 0.086322 0.000000
0.967462 0.086322 0.000000
0.983579 0.086322 0.000000
0.999683 0.086322 0.000000
1.000000 0.086322 0.000000
1.000000 0.086322 0.000000
1.000000 0.086322 0.000000
1.000000 0.086322 0.000000
1.000000 0.086322 0.000000
0.000000 0.103210 0.000000
0.020776 0.103210 0.000000
0.040136 0.103210 0.000000
0.058995 0.103210 0.000000
0.077537 0.103210 0.000000
0.095846 0.103210 0.000000
0.113972 0.103210 0.000000
0.131946 0.103210 0.000000
0.149792 0.103210 0.000000
0.167526 0.103210 0.000000
0.185162 0.103210 0.000000
0.202710 0.103210 0.000000
0.220179 0.103210 0.000000
0.237574 0.103210 0.000000
0.254903 0.103210 0.000000
0.272170 0.103210 0.000000
0.289379 0.103210 0.000000
0.306534 0.103210 0.000000
0.323640 0.103210 0.000000
0.340697 0.103210 0.000000
0.357710 0.103210 0.000000
0.374681 0.103210 0.000000
0.391610 0.103210 0.000000
0.408502 0.103210 0.000000
0.425357 0.103210 0.000000
0.442177 0.103210 0.000000
0.458963 0.103210 0.000000
0.475717 0.103210 0.000000
0.492440 0.103210 0.000000
0.509133 0.103210 0.000000
0.525797 0.103210 0.000000
0.542433 0.103210 0.000000
0.559043 0.103210 0.000000
0.575627 0.103210 0.000000
0.592185 0.103210 0.000000
0.608720 0.103210 0.000000
0.625231 0.103210 0.000000
0.641718 0.103210 0.000000
0.658184 0.103210 0.000000
0.674628 0.103210 0.000000
0.691050 0.103210 0.000000
0.707453 0.103210 0.000000
0.723835 0.103210 0.000000
0.740198 0.103210 0.000000
0.756542 0.103210 0.000000
0.772867 0.103210 0.000000
0.789174 0.103210 0.000000
0.805463 0.103210 0.000000
0.821735 0.103210 0.000000
0.837990 0.103210 0.000000
0.854229 0.103210 0.000000
0.870451 0.103210 0.000000
0.886658 0.103210 0.000000
0.902848 0.103210 0.000000
0.919024 0.103210 0.000000
0.935185 0.103210 0.000000
0.951330 0.103210 0.000000
0.967462 0.103210 0.000000
0.983579 0.103210 0.000000
0.999683 0.103210 0.000000
1.000000 0.103210 0.000000
1.000000 0.103210 0.000000
1.000000 0.103210 0.000000
1.000000 0.103210 0.000000
1.000000 0.103210 0.000000
0.000000 0.120041 0.000000
0.020776 0.120041 0.000000
0.040136 0.120041 0.000000
0.058995 0.120041 0.000000
0.077537 0.120041 0.000000
0.095846 0.120041 0.000000
0.113972 0.120041 0.000000
0.131946 0.120041 0.000000
0.149792 0.120041 0.000000
0.167526 0.120041 0.000000
0.185162 0.120041 0.000000
0.202710 0.120041 0.000000
0.220179 0.120041 0.000000
0.237574 0.120041 0.000000
0.254903 0.120041 0.000000
0.272170 0.120041 0.000000
0.289379 0.120041 0.000000
0.306534 0.120041 0.000000
0.323640 0.120041 0.000000
0.340697 0.120041 0.000000
0.357710 0.120041 0.000000
0.374681 0.120041 0.000000
0.391610 0.120041 0.000000
0.408502 0.120041 0.000000
0.425357 0.120041 0.000000
0.442177 0.120041 0.000000
0.458963 0.120041 0.000000
0.475717 0.120041 0.000000
0.492440 0.120041 0.000000
0.509133 0.120041 0.000000
0.525797 0.120041 0.000000
0.542433 0.120041 0.000000
0.559043 0.120041 0.000000
0.575627 0.120041 0.000000
0.592185 0.120041 0.000000
0.608720 0.120041 0.000000
0.625231 0.120041 0.000000
0.641718 0.120041 0.000000
0.658184 0.120041 0.000000
0.674628 0.120041 0.000000
0.691050 0.120041 0.000000
0.707453 0.120041 0.000000
0.723835 0.120041 0.000000
0.740198 0.120041 0.000000
0.756542 0.120041 0.000000
0.772867 0.120041 0.000000
0.789174 0.120041 0.000000
0.805463 0.120041 0.000000
0.821735 0.120041 0.000000
0.837990 0.120041 0.000000
0.854229 0.120041 0.000000
0.870451 0.120041 0.000000
0.886658 0.120041 0.000000
0.902848 0.120041 0.000000
0.919024 0.120041 0.000000
0.935185 0.120041 0.000000
0.951330 0.120041 0.000000
0.967462 0.120041 0.000000
0.983579 0.120041 0.000000
0.999683 0.120041 0.000000
1.000000 0.120041 0.000000
1.000000 0.120041 0.000000
1.000000 0.120041 0.000000
1.000000 0.120041 0.000000
1.000000 0.120041 0.000000
0.000000 0.136824 0.000000
0.020776 0.136824 0.000000
0.040136 0.136824 0.000000
0.058995 0.136824 0.000000
0.077537 0.136824 0.000000
0.095846 0.136824 0.000000
0.113972 0.136824 0.000000
0.131946 0.136824 0.000000
0.149792 0.136824 0.000000
0.167526 0.136824 0.000000
0.185162 0.136824 0.000000
0.202710 0.136824 0.000000
0.220179 0.136824 0.000000
0.237574 0.136824 0.000000
0.254903 0.136824 0.000000
0.272170 0.136824 0.000000
0.289379 0.136824 0.000000
0.306534 0.136824 0.000000
0.323640 0.136824 0.000000
0.340697 0.136824 0.000000
0.357710 0.136824 0.000000
0.374681 0.136824 0.000000
0.391610 0.136824 0.000000
0.408502 0.136824 0.000000
0.425357 0.136824 0.000000
0.442177 0.136824 0.000000
0.458963 0.136824 0.000000
0.475717 0.136824 0.000000
0.492440 0.136824 0.000000
0.509133 0.136824 0.000000
0.525797 0.136824 0.000000
0.542433 0.136824 0.000000
0.559043 0.136824 0.000000
0.575627 0.136824 0.000000
0.592185 0.136824 0.000000
0.608720 0.136824 0.000000
0.625231 0.136824 0.000000
0.641718 0.136824 0.000000
0.658184 0.136824 0.000000
0.674628 0.136824 0.000000
0.691050 0.136824 0.000000
0.707453 0.136824 0.000000
0.723835 0.136824 0.000000
0.740198 0.136824 0.000000
0.756542 0.136824 0.000000
0.772867 0.136824 0.000000
0.789174 0.136824 0.000000
0.805463 0.136824 0.000000
0.821735 0.136824 0.000000
0.837990 0.136824 0.000000
0.854229 0.136824 0.000000
0.870451 0.136824 0.000000
0.886658 0.136824 0.000000
0.902848 0.136824 0.000000
0.919024 0.136824 0.000000
0.935185 0.136824 0.000000
0.951330 0.136824 0.000000
0.967462 0.136824 0.000000
0.983579 0.136824 0.000000
0.999683 0.136824 0.000000
1.000000 0.136824 0.000000
1.000000 0.136824 0.000000
1.000000 0.136824 0.000000
1.000000 0.136824 0.000000
1.000000 0.136824 0.000000
0.000000 0.153564 0.000000
0.020776 0.153564 0.000000
0.040136 0.153564 0.000000
0.058995 0.153564 0.000000
0.077537 0.153564 0.000000
0.095846 0.153564 0.000000
0.113972 0.153564 0.000000
0.131946 0.153564 0.000000
0.149792 0.153564 0.000000
0.167526 0.153564 0.000000
0.185162 0.153564 0.000000
0.202710 0.153564 0.000000
0.220179 0.153564 0.000000
0.237574 0.153564 0.000000
0.254903 0.153564 0.000000
0.272170 0.153564 0.000000
0.289379 0.153564 0.000000
0.306534 0.153564 0.000000
0.323640 0.153564 0.000000
0.340697 0.153564 0.000000
0.357710 0.153564 0.000000
0.374681 0.153564 0.000000
0.391610 0.153564 0.000000
0.408502 0.153564 0.000000
0.425357 0.153564 0.000000
0.442177 0.153564 0.000000
0.458963 0.153564 0.000000
0.475717 0.153564 0.000000
0.492440 0.153564 0.000000
0.509133 0.153564 0.000000
0.525797 0.153564 0.000000
0.542433 0.153564 0.000000
0.559043 0.153564 0.000000
0.575627 0.153564 0.000000
0.592185 0.153564 0.000000
0.608720 0.153564 0.000000
0.625231 0.153564 0.000000
0.641718 0.153564 0.000000
0.658184 0.153564 0.000000
0.674628 0.153564 0.000000
0.691050 0.153564 0.000000
0.707453 0.153564 0.000000
0.723835 0.153564 0.000000
0.740198 0.153564 0.000000
0.756542 0.153564 0.000000
0.772867 0.153564 0.000000
0.789174 0.153564 0.000000
0.805463 0.153564 0.000000
0.821735 0.153564 0.000000
0.837990 0.153564 0.000000
0.854229 0.153564 0.000000
0.870451 0.153564 0.000000
0.886658 0.153564 0.000000
0.902848 0.153564 0.000000
0.919024 0.153564 0.000000
0.935185 0.153564 0.000000
0.951330 0.153564 0.000000
0.967462 0.153564 0.000000
0.983579 0.153564 0.000000
0.999683 0.153564 0.000000
1.000000 0.153564 0.000000
1.000000 0.153564 0.000000
1.000000 0.153564 0.000000
1.000000 0.153564 0.000000
1.000000 0.153564 0.000000
0.000000 0.170268 0.000000
0.020776 0.170268 0.000000
0.040136 0.170268 0.000000
0.058995 0.170268 0.000000
0.077537 0.170268 0.000000
0.095846 0.170268 0.000000
0.113972 0.170268 0.000000
0.131946 0.170268 0.000000
0.149792 0.170268 0.000000
0.167526 0.170268 0.000000
0.185162 0.170268 0.000000
0.202710 0.170268 0.000000
0.220179 0.170268 0.000000
0.237574 0.170268 0.000000
0.254903 0.170268 0.000000
0.272170 0.170268 0.000000
0.289379 0.170268 0.000000
0.306534 0.170268 0.000000
0.323640 0.170268 0.000000
0.340697 0.170268 0.000000
0.357710 0.170268 0.000000
0.374681 0.170268 0.000000
0.391610 0.170268 0.000000
0.408502 0.170268 0.000000
0.425357 0.170268 0.000000
0.442177 0.170268 0.000000
0.458963 0.170268 0.000000
0.475717 0.170268 0.000000
0.492440 0.170268 0.000000
0.509133 0.170268 0.000000
0.525797 0.170268 0.000000
0.542433 0.170268 0.000000
0.559043 0.170268 0.000000
0.575627 0.170268 0.000000
0.592185 0.170268 0.000000
0.608720 0.170268 0.000000
0.625231 0.170268 0.000000
0.641718 0.170268 0.000000
0.658184 0.170268 0.000000
0.674628 0.170268 0.000000
0.691050 0.170268 0.000000
0.707453 0.170268 0.000000
0.723835 0.170268 0.000000
0.740198 0.170268 0.000000
0.756542 0.170268 0.000000
0.772867 0.170268 0.000000
0.789174 0.170268 0.000000
0.805463 0.170268 0.000000
0.821735 0.170268 0.000000
0.837990 0.170268 0.000000
0.854229 0.170268 0.000000
0.870451 0.170268 0.000000
0.886658 0.170268 0.000000
0.902848 0.170268 0.000000
0.919024 0.170268 0.000000
0.935185 0.170268 0.000000
0.951330 0.170268 0.000000
0.967462 0.170268 0.000000
0.983579 0.170268 0.000000
0.999683 0.170268 0.000000
1.000000 0.170268 0.000000
1.000000 0.170268 0.000000
1.000000 0.170268 0.000000
1.000000 0.170268 0.000000
1.000000 0.170268 0.000000
0.000000 0.186938 0.000000
0.020776 0.186938 0.000000
0.040136 0.186938 0.000000
0.058995 0.186938 0.000000
0.077537 0.186938 0.000000
0.095846 0.186938 0.000000
0.113972 0.186938 0.000000
0.131946 0.186938 0.000000
0.149792 0.186938 0.000000
0.167526 0.186938 0.000000
0.185162 0.186938 0.000000
0.202710 0.186938 0.000000
0.220179 0.186938 0.000000
0.237574 0.186938 0.000000
0.254903 0.186938 0.000000
0.272170 0.186938 0.000000
0.289379 0.186938 0.000000
0.306534 0.186938 0.000000
0.323640 0.186938 0.000000
0.340697 0.186938 0.000000
0.357710 0.186938 0.000000
0.374681 0.186938 0.000000
0.391610 0.186938 0.000000
0.408502 0.186938 0.000000
0.425357 0.186938 0.000000
0.442177 0.186938 0.000000
0.458963 0.186938 0.000000
0.475717 0.186938 0.000000
0.492440 0.186938 0.000000
0.509133 0.186938 0.000000
0.525797 0.186938 0.000000
0.542433 0.186938 0.000000
0.559043 0.186938 0.000000
0.575627 0.186938 0.000000
0.592185 0.186938 0.000000
0.608720 0.186938 0.000000
0.625231 0.186938 0.000000
0.641718 0.186938 0.000000
0.658184 0.186938 0.000000
0.674628 0.186938 0.000000
0.691050 0.186938 0.000000
0.707453 0.186938 0.000000
0.723835 0.186938 0.000000
0.740198 0.186938 0.000000
0.756542 0.186938 0.000000
0.772867 0.186938 0.000000
0.789174 0.186938 0.000000
0.805463 0.186938 0.000000
0.821735 0.186938 0.000000
0.837990 0.186938 0.000000
0.854229 0.186938 0.000000
0.870451 0.186938 0.000000
0.886658 0.186938 0.000000
0.902848 0.186938 0.000000
0.919024 0.186938 0.000000
0.935185 0.186938 0.000000
0.951330 0.186938 0.000000
0.967462 0.186938 0.000000
0.983579 0.186938 0.000000
0.999683 0.186938 0.000000
1.000000 0.186938 0.000000
1.000000 0.186938 0.000000
1.000000 0.186938 0.000000
1.000000 0.186938 0.000000
1.000000 0.186938 0.000000
0.000000 0.203578 0.000000
0.020776 0.203578 0.000000
0.040136 0.203578 0.000000
0.058995 0.203578 0.000000
0.077537 0.203578 0.000000
0.095846 0.203578 0.000000
0.113972 0.203578 0.000000
0.131946 0.203578 0.000000
0.149792 0.203578 0.000000
0.167526 0.203578 0.000000
0.185162 0.203578 0.000000
0.202710 0.203578 0.000000
0.220179 0.203578 0.000000
0.237574 0.203578 0.000000
0.254903 0.203578 0.000000
0.272170 0.203578 0.000000
0.289379 0.203578 0.000000
0.306534 0.203578 0.000000
0.323640 0.203578 0.000000
0.340697 0.203578 0.000000
0.357710 0.203578 0.000000
0.374681 0.203578 0.000000
0.391610 0.203578 0.000000
0.408502 0.203578 0.000000
0.425357 0.203578 0.000000
0.442177 0.203578 0.000000
0.458963 0.203578 0.000000
0.475717 0.203578 0.000000
0.492440 0.203578 0.000000
0.509133 0.203578 0.000000
0.525797 0.203578 0.000000
0.542433 0.203578 0.000000
0.559043 0.203578 0.000000
0.575627 0.203578 0.000000
0.592185 0.203578 0.000000
0.608720 0.203578 0.000000
0.625231 0.203578 0.000000
0.641718 0.203578 0.000000
0.658184 0.203578 0.000000
0.674628 0.203578 0.000000
0.691050 0.203578 0.000000
0.707453 0.203578 0.000000
0.723835 0.203578 0.000000
0.740198 0.203578 0.000000
0.756542 0.203578 0.000000
0.772867 0.203578 0.000000
0.789174 0.203578 0.000000
0.805463 0.203578 0.000000
0.821735 0.203578 0.000000
0.837990 0.203578 0.000000
0.854229 0.203578 0.000000
0.870451 0.203578 0.000000
0.886658 0.203578 0.000000
0.902848 0.203578 0.000000
0.919024 0.203578 0.000000
0.935185 0.203578 0.000000
0.951330 0.203578 0.000000
0.967462 0.203578 0.000000
0.983579 0.203578 0.000000
0.999683 0.203578 0.000000
1.000000 0.203578 0.000000
1.000000 0.203578 0.000000
1.000000 0.203578 0.000000
1.000000 0.203578 0.000000
1.000000 0.203578 0.000000
0.000000 0.220190 0.000000
0.020776 0.220190 0.000000
0.040136 0.220190 0.000000
0.058995 0.220190 0.000000
0.077537 0.220190 0.000000
0.095846 0.220190 0.000000
0.113972 0.220190 0.000000
0.131946 0.220190 0.000000
0.149792 0.220190 0.000000
0.167526 0.220190 0.000000
0.185162 0.220190 0.000000
0.202710 0.220190 0.000000
0.220179 0.220190 0.000000
0.237574 0.220190 0.000000
0.254903 0.220190 0.000000
0.272170 0.220190 0.000000
0.289379 0.220190 0.000000
0.306534 0.220190 0.000000
0.323640 0.220190 0.000000
0.340697 0.220190 0.000000
0.357710 0.220190 0.000000
0.374681 0.220190 0.000000
0.391610 0.220190 0.000000
0.408502 0.220190 0.000000
0.425357 0.220190 0.000000
0.442177 0.220190 0.000000
0.458963 0.220190 0.000000
0.475717 0.220190 0.000000
0.492440 0.220190 0.000000
0.509133 0.220190 0.000000
0.525797 0.220190 0.000000
0.542433 0.220190 0.000000
0.559043 0.220190 0.000000
0.575627 0.220190 0.000000
0.592185 0.220190 0.000000
0.608720 0.220190 0.000000
0.625231 0.220190 0.000000
0.641718 0.220190 0.000000
0.658184 0.220190 0.000000
0.674628 0.220190 0.000000
0.691050 0.220190 0.000000
