custom_nodes/comfyui-vrgamedevgirl/LUTS/Vivid_Warm_Clean_Vintage_Fade.cube
TITLE "Vintage_Fade"
LUT_3D_SIZE 9
DOMAIN_MIN 0 0 0
DOMAIN_MAX 1 1 1
0.030000 0.020000 0.040000
0.175631 0.020000 0.040000
0.311341 0.020000 0.040000
0.443541 0.020000 0.040000
0.573514 0.020000 0.040000
0.701855 0.020000 0.040000
0.828909 0.020000 0.040000
0.954905 0.020000 0.040000
1.000000 0.020000 0.040000
0.030000 0.155707 0.040000
0.175631 0.155707 0.040000
0.311341 0.155707 0.040000
0.443541 0.155707 0.040000
0.573514 0.155707 0.040000
0.701855 0.155707 0.040000
0.828909 0.155707 0.040000
0.954905 0.155707 0.040000
1.000000 0.155707 0.040000
0.030000 0.285829 0.040000
0.175631 0.285829 0.040000
0.311341 0.285829 0.040000
0.443541 0.285829 0.040000
0.573514 0.285829 0.040000
0.701855 0.285829 0.040000
0.828909 0.285829 0.040000
0.954905 0.285829 0.040000
1.000000 0.285829 0.040000
0.030000 0.413922 0.040000
0.175631 0.413922 0.040000
0.311341 0.413922 0.040000
0.443541 0.413922 0.040000
0.573514 0.413922 0.040000
0.701855 0.413922 0.040000
0.828909 0.413922 0.040000
0.954905 0.413922 0.040000
1.000000 0.413922 0.040000
0.030000 0.540716 0.040000
0.175631 0.540716 0.040000
0.311341 0.540716 0.040000
0.443541 0.540716 0.040000
0.573514 0.540716 0.040000
0.701855 0.540716 0.040000
0.828909 0.540716 0.040000
0.954905 0.540716 0.040000
1.000000 0.540716 0.040000
0.030000 0.666552 0.040000
0.175631 0.666552 0.040000
0.311341 0.666552 0.040000
0.443541 0.666552 0.040000
0.573514 0.666552 0.040000
0.701855 0.666552 0.040000
0.828909 0.666552 0.040000
0.954905 0.666552 0.040000
1.000000 0.666552 0.040000
0.030000 0.791631 0.040000
0.175631 0.791631 0.040000
0.311341 0.791631 0.040000
0.443541 0.791631 0.040000
0.573514 0.791631 0.040000
0.701855 0.791631 0.040000
0.828909 0.791631 0.040000
0.954905 0.791631 0.040000
1.000000 0.791631 0.040000
0.030000 0.916082 0.040000
0.175631 0.916082 0.040000
0.311341 0.916082 0.040000
0.443541 0.916082 0.040000
0.573514 0.916082 0.040000
0.701855 0.916082 0.040000
0.828909 0.916082 0.040000
0.954905 0.916082 0.040000
1.000000 0.916082 0.040000
0.030000 1.000000 0.040000
0.175631 1.000000 0.040000
0.311341 1.000000 0.040000
0.443541 1.000000 0.040000
0.573514 1.000000 0.040000
0.701855 1.000000 0.040000
0.828909 1.000000 0.040000
0.954905 1.000000 0.040000
1.000000 1.000000 0.040000
0.030000 0.020000 0.147023
0.175631 0.020000 0.147023
0.311341 0.020000 0.147023
0.443541 0.020000 0.147023
0.573514 0.020000 0.147023
0.701855 0.020000 0.147023
0.828909 0.020000 0.147023
0.954905 0.020000 0.147023
1.000000 0.020000 0.147023
0.030000 0.155707 0.147023
0.175631 0.155707 0.147023
0.311341 0.155707 0.147023
0.443541 0.155707 0.147023
0.573514 0.155707 0.147023
0.701855 0.155707 0.147023
0.828909 0.155707 0.147023
0.954905 0.155707 0.147023
1.000000 0.155707 0.147023
0.030000 0.285829 0.147023
0.175631 0.285829 0.147023
0.311341 0.285829 0.147023
0.443541 0.285829 0.147023
0.573514 0.285829 0.147023
0.701855 0.285829 0.147023
0.828909 0.285829 0.147023
0.954905 0.285829 0.147023
1.000000 0.285829 0.147023
0.030000 0.413922 0.147023
0.175631 0.413922 0.147023
0.311341 0.413922 0.147023
0.443541 0.413922 0.147023
0.573514 0.413922 0.147023
0.701855 0.413922 0.147023
0.828909 0.413922 0.147023
0.954905 0.413922 0.147023
1.000000 0.413922 0.147023
0.030000 0.540716 0.147023
0.175631 0.540716 0.147023
0.311341 0.540716 0.147023
0.443541 0.540716 0.147023
0.573514 0.540716 0.147023
0.701855 0.540716 0.147023
0.828909 0.540716 0.147023
0.954905 0.540716 0.147023
1.000000 0.540716 0.147023
0.030000 0.666552 0.147023
0.175631 0.666552 0.147023
0.311341 0.666552 0.147023
0.443541 0.666552 0.147023
0.573514 0.666552 0.147023
0.701855 0.666552 0.147023
0.828909 0.666552 0.147023
0.954905 0.666552 0.147023
1.000000 0.666552 0.147023
0.030000 0.791631 0.147023
0.175631 0.791631 0.147023
0.311341 0.791631 0.147023
0.443541 0.791631 0.147023
0.573514 0.791631 0.147023
0.701855 0.791631 0.147023
0.828909 0.791631 0.147023
0.954905 0.791631 0.147023
1.000000 0.791631 0.147023
0.030000 0.916082 0.147023
0.175631 0.916082 0.147023
0.311341 0.916082 0.147023
0.443541 0.916082 0.147023
0.573514 0.916082 0.147023
0.701855 0.916082 0.147023
0.828909 0.916082 0.147023
0.954905 0.916082 0.147023
1.000000 0.916082 0.147023
0.030000 1.000000 0.147023
0.175631 1.000000 0.147023
0.311341 1.000000 0.147023
0.443541 1.000000 0.147023
0.573514 1.000000 0.147023
0.701855 1.000000 0.147023
0.828909 1.000000 0.147023
0.954905 1.000000 0.147023
1.000000 1.000000 0.147023
0.030000 0.020000 0.261595
0.175631 0.020000 0.261595
0.311341 0.020000 0.261595
0.443541 0.020000 0.261595
0.573514 0.020000 0.261595
0.701855 0.020000 0.261595
0.828909 0.020000 0.261595
0.954905 0.020000 0.261595
1.000000 0.020000 0.261595
0.030000 0.155707 0.261595
0.175631 0.155707 0.261595
0.311341 0.155707 0.261595
0.443541 0.155707 0.261595
0.573514 0.155707 0.261595
0.701855 0.155707 0.261595
0.828909 0.155707 0.261595
0.954905 0.155707 0.261595
1.000000 0.155707 0.261595
0.030000 0.285829 0.261595
0.175631 0.285829 0.261595
0.311341 0.285829 0.261595
0.443541 0.285829 0.261595
0.573514 0.285829 0.261595
0.701855 0.285829 0.261595
0.828909 0.285829 0.261595
0.954905 0.285829 0.261595
1.000000 0.285829 0.261595
0.030000 0.413922 0.261595
0.175631 0.413922 0.261595
0.311341 0.413922 0.261595
0.443541 0.413922 0.261595
0.573514 0.413922 0.261595
0.701855 0.413922 0.261595
0.828909 0.413922 0.261595
0.954905 0.413922 0.261595
1.000000 0.413922 0.261595
0.030000 0.540716 0.261595
0.175631 0.540716 0.261595
0.311341 0.540716 0.261595
0.443541 0.540716 0.261595
0.573514 0.540716 0.261595
0.701855 0.540716 0.261595
0.828909 0.540716 0.261595
0.954905 0.540716 0.261595
1.000000 0.540716 0.261595
0.030000 0.666552 0.261595
0.175631 0.666552 0.261595
0.311341 0.666552 0.261595
0.443541 0.666552 0.261595
0.573514 0.666552 0.261595
0.701855 0.666552 0.261595
0.828909 0.666552 0.261595
0.954905 0.666552 0.261595
1.000000 0.666552 0.261595
0.030000 0.791631 0.261595
0.175631 0.791631 0.261595
0.311341 0.791631 0.261595
0.443541 0.791631 0.261595
0.573514 0.791631 0.261595
0.701855 0.791631 0.261595
0.828909 0.791631 0.261595
0.954905 0.791631 0.261595
1.000000 0.791631 0.261595
0.030000 0.916082 0.261595
0.175631 0.916082 0.261595
0.311341 0.916082 0.261595
0.443541 0.916082 0.261595
0.573514 0.916082 0.261595
0.701855 0.916082 0.261595
0.828909 0.916082 0.261595
0.954905 0.916082 0.261595
1.000000 0.916082 0.261595
0.030000 1.000000 0.261595
0.175631 1.000000 0.261595
0.311341 1.000000 0.261595
0.443541 1.000000 0.261595
0.573514 1.000000 0.261595
0.701855 1.000000 0.261595
0.828909 1.000000 0.261595
0.954905 1.000000 0.261595
1.000000 1.000000 0.261595
0.030000 0.020000 0.379200
0.175631 0.020000 0.379200
0.311341 0.020000 0.379200
0.443541 0.020000 0.379200
0.573514 0.020000 0.379200
0.701855 0.020000 0.379200
0.828909 0.020000 0.379200
0.954905 0.020000 0.379200
1.000000 0.020000 0.379200
0.030000 0.155707 0.379200
0.175631 0.155707 0.379200
0.311341 0.155707 0.379200
0.443541 0.155707 0.379200
0.573514 0.155707 0.379200
0.701855 0.155707 0.379200
0.828909 0.155707 0.379200
0.954905 0.155707 0.379200
1.000000 0.155707 0.379200
0.030000 0.285829 0.379200
0.175631 0.285829 0.379200
0.311341 0.285829 0.379200
0.443541 0.285829 0.379200
0.573514 0.285829 0.379200
0.701855 0.285829 0.379200
0.828909 0.285829 0.379200
0.954905 0.285829 0.379200
1.000000 0.285829 0.379200
0.030000 0.413922 0.379200
0.175631 0.413922 0.379200
0.311341 0.413922 0.379200
0.443541 0.413922 0.379200
0.573514 0.413922 0.379200
0.701855 0.413922 0.379200
0.828909 0.413922 0.379200
0.954905 0.413922 0.379200
1.000000 0.413922 0.379200
0.030000 0.540716 0.379200
0.175631 0.540716 0.379200
0.311341 0.540716 0.379200
0.443541 0.540716 0.379200
0.573514 0.540716 0.379200
0.701855 0.540716 0.379200
0.828909 0.540716 0.379200
0.954905 0.540716 0.379200
1.000000 0.540716 0.379200
0.030000 0.666552 0.379200
0.175631 0.666552 0.379200
0.311341 0.666552 0.379200
0.443541 0.666552 0.379200
0.573514 0.666552 0.379200
0.701855 0.666552 0.379200
0.828909 0.666552 0.379200
0.954905 0.666552 0.379200
1.000000 0.666552 0.379200
0.030000 0.791631 0.379200
0.175631 0.791631 0.379200
0.311341 0.791631 0.379200
0.443541 0.791631 0.379200
0.573514 0.791631 0.379200
0.701855 0.791631 0.379200
0.828909 0.791631 0.379200
0.954905 0.791631 0.379200
1.000000 0.791631 0.379200
0.030000 0.916082 0.379200
0.175631 0.916082 0.379200
0.311341 0.916082 0.379200
0.443541 0.916082 0.379200
0.573514 0.916082 0.379200
0.701855 0.916082 0.379200
0.828909 0.916082 0.379200
0.954905 0.916082 0.379200
1.000000 0.916082 0.379200
0.030000 1.000000 0.379200
0.175631 1.000000 0.379200
0.311341 1.000000 0.379200
0.443541 1.000000 0.379200
0.573514 1.000000 0.379200
0.701855 1.000000 0.379200
0.828909 1.000000 0.379200
0.954905 1.000000 0.379200
1.000000 1.000000 0.379200
0.030000 0.020000 0.498820
0.175631 0.020000 0.498820
0.311341 0.020000 0.498820
0.443541 0.020000 0.498820
0.573514 0.020000 0.498820
0.701855 0.020000 0.498820
0.828909 0.020000 0.498820
0.954905 0.020000 0.498820
1.000000 0.020000 0.498820
0.030000 0.155707 0.498820
0.175631 0.155707 0.498820
0.311341 0.155707 0.498820
0.443541 0.155707 0.498820
0.573514 0.155707 0.498820
0.701855 0.155707 0.498820
0.828909 0.155707 0.498820
0.954905 0.155707 0.498820
1.000000 0.155707 0.498820
0.030000 0.285829 0.498820
0.175631 0.285829 0.498820
0.311341 0.285829 0.498820
0.443541 0.285829 0.498820
0.573514 0.285829 0.498820
0.701855 0.285829 0.498820
0.828909 0.285829 0.498820
0.954905 0.285829 0.498820
1.000000 0.285829 0.498820
0.030000 0.413922 0.498820
0.175631 0.413922 0.498820
0.311341 0.413922 0.498820
0.443541 0.413922 0.498820
0.573514 0.413922 0.498820
0.701855 0.413922 0.498820
0.828909 0.413922 0.498820
0.954905 0.413922 0.498820
1.000000 0.413922 0.498820
0.030000 0.540716 0.498820
0.175631 0.540716 0.498820
0.311341 0.540716 0.498820
0.443541 0.540716 0.498820
0.573514 0.540716 0.498820
0.701855 0.540716 0.498820
0.828909 0.540716 0.498820
0.954905 0.540716 0.498820
1.000000 0.540716 0.498820
0.030000 0.666552 0.498820
0.175631 0.666552 0.498820
0.311341 0.666552 0.498820
0.443541 0.666552 0.498820
0.573514 0.666552 0.498820
0.701855 0.666552 0.498820
0.828909 0.666552 0.498820
0.954905 0.666552 0.498820
1.000000 0.666552 0.498820
0.030000 0.791631 0.498820
0.175631 0.791631 0.498820
0.311341 0.791631 0.498820
0.443541 0.791631 0.498820
0.573514 0.791631 0.498820
0.701855 0.791631 0.498820
0.828909 0.791631 0.498820
0.954905 0.791631 0.498820
1.000000 0.791631 0.498820
0.030000 0.916082 0.498820
0.175631 0.916082 0.498820
0.311341 0.916082 0.498820
0.443541 0.916082 0.498820
0.573514 0.916082 0.498820
0.701855 0.916082 0.498820
0.828909 0.916082 0.498820
0.954905 0.916082 0.498820
1.000000 0.916082 0.498820
0.030000 1.000000 0.498820
0.175631 1.000000 0.498820
0.311341 1.000000 0.498820
0.443541 1.000000 0.498820
0.573514 1.000000 0.498820
0.701855 1.000000 0.498820
0.828909 1.000000 0.498820
0.954905 1.000000 0.498820
1.000000 1.000000 0.498820
0.030000 0.020000 0.619959
0.175631 0.020000 0.619959
0.311341 0.020000 0.619959
0.443541 0.020000 0.619959
0.573514 0.020000 0.619959
0.701855 0.020000 0.619959
0.828909 0.020000 0.619959
0.954905 0.020000 0.619959
1.000000 0.020000 0.619959
0.030000 0.155707 0.619959
0.175631 0.155707 0.619959
0.311341 0.155707 0.619959
0.443541 0.155707 0.619959
0.573514 0.155707 0.619959
0.701855 0.155707 0.619959
0.828909 0.155707 0.619959
0.954905 0.155707 0.619959
1.000000 0.155707 0.619959
0.030000 0.285829 0.619959
0.175631 0.285829 0.619959
0.311341 0.285829 0.619959
0.443541 0.285829 0.619959
0.573514 0.285829 0.619959
0.701855 0.285829 0.619959
0.828909 0.285829 0.619959
0.954905 0.285829 0.619959
1.000000 0.285829 0.619959
0.030000 0.413922 0.619959
0.175631 0.413922 0.619959
0.311341 0.413922 0.619959
0.443541 0.413922 0.619959
0.573514 0.413922 0.619959
0.701855 0.413922 0.619959
0.828909 0.413922 0.619959
0.954905 0.413922 0.619959
1.000000 0.413922 0.619959
0.030000 0.540716 0.619959
0.175631 0.540716 0.619959
0.311341 0.540716 0.619959
0.443541 0.540716 0.619959
0.573514 0.540716 0.619959
0.701855 0.540716 0.619959
0.828909 0.540716 0.619959
0.954905 0.540716 0.619959
1.000000 0.540716 0.619959
0.030000 0.666552 0.619959
0.175631 0.666552 0.619959
0.311341 0.666552 0.619959
0.443541 0.666552 0.619959
0.573514 0.666552 0.619959
0.701855 0.666552 0.619959
0.828909 0.666552 0.619959
0.954905 0.666552 0.619959
1.000000 0.666552 0.619959
0.030000 0.791631 0.619959
0.175631 0.791631 0.619959
0.311341 0.791631 0.619959
0.443541 0.791631 0.619959
0.573514 0.791631 0.619959
0.701855 0.791631 0.619959
0.828909 0.791631 0.619959
0.954905 0.791631 0.619959
1.000000 0.791631 0.619959
0.030000 0.916082 0.619959
0.175631 0.916082 0.619959
0.311341 0.916082 0.619959
0.443541 0.916082 0.619959
0.573514 0.916082 0.619959
0.701855 0.916082 0.619959
0.828909 0.916082 0.619959
0.954905 0.916082 0.619959
1.000000 0.916082 0.619959
0.030000 1.000000 0.619959
0.175631 1.000000 0.619959
0.311341 1.000000 0.619959
0.443541 1.000000 0.619959
0.573514 1.000000 0.619959
0.701855 1.000000 0.619959
0.828909 1.000000 0.619959
0.954905 1.000000 0.619959
1.000000 1.000000 0.619959
0.030000 0.020000 0.742325
0.175631 0.020000 0.742325
0.311341 0.020000 0.742325
0.443541 0.020000 0.742325
0.573514 0.020000 0.742325
0.701855 0.020000 0.742325
0.828909 0.020000 0.742325
0.954905 0.020000 0.742325
1.000000 0.020000 0.742325
0.030000 0.155707 0.742325
0.175631 0.155707 0.742325
0.311341 0.155707 0.742325
0.443541 0.155707 0.742325
0.573514 0.155707 0.742325
0.701855 0.155707 0.742325
0.828909 0.155707 0.742325
0.954905 0.155707 0.742325
1.000000 0.155707 0.742325
0.030000 0.285829 0.742325
0.175631 0.285829 0.742325
0.311341 0.285829 0.742325
0.443541 0.285829 0.742325
0.573514 0.285829 0.742325
0.701855 0.285829 0.742325
0.828909 0.285829 0.742325
0.954905 0.285829 0.742325
1.000000 0.285829 0.742325
0.030000 0.413922 0.742325
0.175631 0.413922 0.742325
0.311341 0.413922 0.742325
0.443541 0.413922 0.742325
0.573514 0.413922 0.742325
0.701855 0.413922 0.742325
0.828909 0.413922 0.742325
0.954905 0.413922 0.742325
1.000000 0.413922 0.742325
0.030000 0.540716 0.742325
0.175631 0.540716 0.742325
0.311341 0.540716 0.742325
0.443541 0.540716 0.742325
0.573514 0.540716 0.742325
0.701855 0.540716 0.742325
0.828909 0.540716 0.742325
0.954905 0.540716 0.742325
1.000000 0.540716 0.742325
0.030000 0.666552 0.742325
0.175631 0.666552 0.742325
0.311341 0.666552 0.742325
0.443541 0.666552 0.742325
0.573514 0.666552 0.742325
0.701855 0.666552 0.742325
0.828909 0.666552 0.742325
0.954905 0.666552 0.742325
1.000000 0.666552 0.742325
0.030000 0.791631 0.742325
0.175631 0.791631 0.742325
0.311341 0.791631 0.742325
0.443541 0.791631 0.742325
0.573514 0.791631 0.742325
0.701855 0.791631 0.742325
0.828909 0.791631 0.742325
0.954905 0.791631 0.742325
1.000000 0.791631 0.742325
0.030000 0.916082 0.742325
0.175631 0.916082 0.742325
0.311341 0.916082 0.742325
0.443541 0.916082 0.742325
0.573514 0.916082 0.742325
0.701855 0.916082 0.742325
0.828909 0.916082 0.742325
0.954905 0.916082 0.742325
1.000000 0.916082 0.742325
0.030000 1.000000 0.742325
0.175631 1.000000 0.742325
0.311341 1.000000 0.742325
0.443541 1.000000 0.742325
0.573514 1.000000 0.742325
0.701855 1.000000 0.742325
0.828909 1.000000 0.742325
0.954905 1.000000 0.742325
1.000000 1.000000 0.742325
0.030000 0.020000 0.865719
0.175631 0.020000 0.865719
0.311341 0.020000 0.865719
0.443541 0.020000 0.865719
0.573514 0.020000 0.865719
0.701855 0.020000 0.865719
0.828909 0.020000 0.865719
0.954905 0.020000 0.865719
1.000000 0.020000 0.865719
0.030000 0.155707 0.865719
0.175631 0.155707 0.865719
0.311341 0.155707 0.865719
0.443541 0.155707 0.865719
0.573514 0.155707 0.865719
0.701855 0.155707 0.865719
0.828909 0.155707 0.865719
0.954905 0.155707 0.865719
1.000000 0.155707 0.865719
0.030000 0.285829 0.865719
0.175631 0.285829 0.865719
0.311341 0.285829 0.865719
0.443541 0.285829 0.865719
0.573514 0.285829 0.865719
0.701855 0.285829 0.865719
0.828909 0.285829 0.865719
0.954905 0.285829 0.865719
1.000000 0.285829 0.865719
0.030000 0.413922 0.865719
0.175631 0.413922 0.865719
0.311341 0.413922 0.865719
0.443541 0.413922 0.865719
0.573514 0.413922 0.865719
0.701855 0.413922 0.865719
0.828909 0.413922 0.865719
0.954905 0.413922 0.865719
1.000000 0.413922 0.865719
0.030000 0.540716 0.865719
0.175631 0.540716 0.865719
0.311341 0.540716 0.865719
0.443541 0.540716 0.865719
0.573514 0.540716 0.865719
0.701855 0.540716 0.865719
0.828909 0.540716 0.865719
0.954905 0.540716 0.865719
1.000000 0.540716 0.865719
0.030000 0.666552 0.865719
0.175631 0.666552 0.865719
0.311341 0.666552 0.865719
0.443541 0.666552 0.865719
0.573514 0.666552 0.865719
0.701855 0.666552 0.865719
0.828909 0.666552 0.865719
0.954905 0.666552 0.865719
1.000000 0.666552 0.865719
0.030000 0.791631 0.865719
0.175631 0.791631 0.865719
0.311341 0.791631 0.865719
0.443541 0.791631 0.865719
0.573514 0.791631 0.865719
0.701855 0.791631 0.865719
0.828909 0.791631 0.865719
0.954905 0.791631 0.865719
1.000000 0.791631 0.865719
0.030000 0.916082 0.865719
0.175631 0.916082 0.865719
0.311341 0.916082 0.865719
0.443541 0.916082 0.865719
0.573514 0.916082 0.865719
0.701855 0.916082 0.865719
0.828909 0.916082 0.865719
0.954905 0.916082 0.865719
1.000000 0.916082 0.865719
0.030000 1.000000 0.865719
0.175631 1.000000 0.865719
0.311341 1.000000 0.865719
0.443541 1.000000 0.865719
0.573514 1.000000 0.865719
0.701855 1.000000 0.865719
0.828909 1.000000 0.865719
0.954905 1.000000 0.865719
1.000000 1.000000 0.865719
0.030000 0.020000 0.990000
0.175631 0.020000 0.990000
0.311341 0.020000 0.990000
0.443541 0.020000 0.990000
0.573514 0.020000 0.990000
0.701855 0.020000 0.990000
0.828909 0.020000 0.990000
0.954905 0.020000 0.990000
1.000000 0.020000 0.990000
0.030000 0.155707 0.990000
0.175631 0.155707 0.990000
0.311341 0.155707 0.990000
0.443541 0.155707 0.990000
0.573514 0.155707 0.990000
0.701855 0.155707 0.990000
0.828909 0.155707 0.990000
0.954905 0.155707 0.990000
1.000000 0.155707 0.990000
0.030000 0.285829 0.990000
0.175631 0.285829 0.990000
0.311341 0.285829 0.990000
0.443541 0.285829 0.990000
0.573514 0.285829 0.990000
0.701855 0.285829 0.990000
0.828909 0.285829 0.990000
0.954905 0.285829 0.990000
1.000000 0.285829 0.990000
0.030000 0.413922 0.990000
0.175631 0.413922 0.990000
0.311341 0.413922 0.990000
0.443541 0.413922 0.990000
0.573514 0.413922 0.990000
0.701855 0.413922 0.990000
0.828909 0.413922 0.990000
0.954905 0.413922 0.990000
1.000000 0.413922 0.990000
0.030000 0.540716 0.990000
0.175631 0.540716 0.990000
0.311341 0.540716 0.990000
0.443541 0.540716 0.990000
0.573514 0.540716 0.990000
0.701855 0.540716 0.990000
0.828909 0.540716 0.990000
0.954905 0.540716 0.990000
1.000000 0.540716 0.990000
0.030000 0.666552 0.990000
0.175631 0.666552 0.990000
0.311341 0.666552 0.990000
0.443541 0.666552 0.990000
0.573514 0.666552 0.990000
0.701855 0.666552 0.990000
0.828909 0.666552 0.990000
0.954905 0.666552 0.990000
1.000000 0.666552 0.990000
0.030000 0.791631 0.990000
0.175631 0.791631 0.990000
0.311341 0.791631 0.990000
0.443541 0.791631 0.990000
0.573514 0.791631 0.990000
0.701855 0.791631 0.990000
0.828909 0.791631 0.990000
0.954905 0.791631 0.990000
1.000000 0.791631 0.990000
0.030000 0.916082 0.990000
0.175631 0.916082 0.990000
0.311341 0.916082 0.990000
0.443541 0.916082 0.990000
0.573514 0.916082 0.990000
0.701855 0.916082 0.990000
0.828909 0.916082 0.990000
0.954905 0.916082 0.990000
1.000000 0.916082 0.990000
0.030000 1.000000 0.990000
0.175631 1.000000 0.990000
0.311341 1.000000 0.990000
0.443541 1.000000 0.990000
0.573514 1.000000 0.990000
0.701855 1.000000 0.990000
0.828909 1.000000 0.990000
0.954905 1.000000 0.990000
1.000000 1.000000 0.990000
