custom_nodes/comfyui-vrgamedevgirl/LUTS/Vivid_Warm_Clean_Filmic_Bright.cube
TITLE "Filmic_Bright"
LUT_3D_SIZE 9
DOMAIN_MIN 0 0 0
DOMAIN_MAX 1 1 1
0.000000 0.000000 0.000000
0.149792 0.000000 0.000000
0.289379 0.000000 0.000000
0.425357 0.000000 0.000000
0.559043 0.000000 0.000000
0.691050 0.000000 0.000000
0.821735 0.000000 0.000000
0.951330 0.000000 0.000000
1.000000 0.000000 0.000000
0.000000 0.136824 0.000000
0.149792 0.136824 0.000000
0.289379 0.136824 0.000000
0.425357 0.136824 0.000000
0.559043 0.136824 0.000000
0.691050 0.136824 0.000000
0.821735 0.136824 0.000000
0.951330 0.136824 0.000000
1.000000 0.136824 0.000000
0.000000 0.269880 0.000000
0.149792 0.269880 0.000000
0.289379 0.269880 0.000000
0.425357 0.269880 0.000000
0.559043 0.269880 0.000000
0.691050 0.269880 0.000000
0.821735 0.269880 0.000000
0.951330 0.269880 0.000000
1.000000 0.269880 0.000000
0.000000 0.401550 0.000000
0.149792 0.401550 0.000000
0.289379 0.401550 0.000000
0.425357 0.401550 0.000000
0.559043 0.401550 0.000000
0.691050 0.401550 0.000000
0.821735 0.401550 0.000000
0.951330 0.401550 0.000000
1.000000 0.401550 0.000000
0.000000 0.532329 0.000000
0.149792 0.532329 0.000000
0.289379 0.532329 0.000000
0.425357 0.532329 0.000000
0.559043 0.532329 0.000000
0.691050 0.532329 0.000000
0.821735 0.532329 0.000000
0.951330 0.532329 0.000000
1.000000 0.532329 0.000000
0.000000 0.662448 0.000000
0.149792 0.662448 0.000000
0.289379 0.662448 0.000000
0.425357 0.662448 0.000000
0.559043 0.662448 0.000000
0.691050 0.662448 0.000000
0.821735 0.662448 0.000000
0.951330 0.662448 0.000000
1.000000 0.662448 0.000000
0.000000 0.792044 0.000000
0.149792 0.792044 0.000000
0.289379 0.792044 0.000000
0.425357 0.792044 0.000000
0.559043 0.792044 0.000000
0.691050 0.792044 0.000000
0.821735 0.792044 0.000000
0.951330 0.792044 0.000000
1.000000 0.792044 0.000000
0.000000 0.921207 0.000000
0.149792 0.921207 0.000000
0.289379 0.921207 0.000000
0.425357 0.921207 0.000000
0.559043 0.921207 0.000000
0.691050 0.921207 0.000000
0.821735 0.921207 0.000000
0.951330 0.921207 0.000000
1.000000 0.921207 0.000000
0.000000 1.000000 0.000000
0.149792 1.000000 0.000000
0.289379 1.000000 0.000000
0.425357 1.000000 0.000000
0.559043 1.000000 0.000000
0.691050 1.000000 0.000000
0.821735 1.000000 0.000000
0.951330 1.000000 0.000000
1.000000 1.000000 0.000000
0.000000 0.000000 0.117510
0.149792 0.000000 0.117510
0.289379 0.000000 0.117510
0.425357 0.000000 0.117510
0.559043 0.000000 0.117510
0.691050 0.000000 0.117510
0.821735 0.000000 0.117510
0.951330 0.000000 0.117510
1.000000 0.000000 0.117510
0.000000 0.136824 0.117510
0.149792 0.136824 0.117510
0.289379 0.136824 0.117510
0.425357 0.136824 0.117510
0.559043 0.136824 0.117510
0.691050 0.136824 0.117510
0.821735 0.136824 0.117510
0.951330 0.136824 0.117510
1.000000 0.136824 0.117510
0.000000 0.269880 0.117510
0.149792 0.269880 0.117510
0.289379 0.269880 0.117510
0.425357 0.269880 0.117510
0.559043 0.269880 0.117510
0.691050 0.269880 0.117510
0.821735 0.269880 0.117510
0.951330 0.269880 0.117510
1.000000 0.269880 0.117510
0.000000 0.401550 0.117510
0.149792 0.401550 0.117510
0.289379 0.401550 0.117510
0.425357 0.401550 0.117510
0.559043 0.401550 0.117510
0.691050 0.401550 0.117510
0.821735 0.401550 0.117510
0.951330 0.401550 0.117510
1.000000 0.401550 0.117510
0.000000 0.532329 0.117510
0.149792 0.532329 0.117510
0.289379 0.532329 0.117510
0.425357 0.532329 0.117510
0.559043 0.532329 0.117510
0.691050 0.532329 0.117510
0.821735 0.532329 0.117510
0.951330 0.532329 0.117510
1.000000 0.532329 0.117510
0.000000 0.662448 0.117510
0.149792 0.662448 0.117510
0.289379 0.662448 0.117510
0.425357 0.662448 0.117510
0.559043 0.662448 0.117510
0.691050 0.662448 0.117510
0.821735 0.662448 0.117510
0.951330 0.662448 0.117510
1.000000 0.662448 0.117510
0.000000 0.792044 0.117510
0.149792 0.792044 0.117510
0.289379 0.792044 0.117510
0.425357 0.792044 0.117510
0.559043 0.792044 0.117510
0.691050 0.792044 0.117510
0.821735 0.792044 0.117510
0.951330 0.792044 0.117510
1.000000 0.792044 0.117510
0.000000 0.921207 0.117510
0.149792 0.921207 0.117510
0.289379 0.921207 0.117510
0.425357 0.921207 0.117510
0.559043 0.921207 0.117510
0.691050 0.921207 0.117510
0.821735 0.921207 0.117510
0.951330 0.921207 0.117510
1.000000 0.921207 0.117510
0.000000 1.000000 0.117510
0.149792 1.000000 0.117510
0.289379 1.000000 0.117510
0.425357 1.000000 0.117510
0.559043 1.000000 0.117510
0.691050 1.000000 0.117510
0.821735 1.000000 0.117510
0.951330 1.000000 0.117510
1.000000 1.000000 0.117510
0.000000 0.000000 0.238300
0.149792 0.000000 0.238300
0.289379 0.000000 0.238300
0.425357 0.000000 0.238300
0.559043 0.000000 0.238300
0.691050 0.000000 0.238300
0.821735 0.000000 0.238300
0.951330 0.000000 0.238300
1.000000 0.000000 0.238300
0.000000 0.136824 0.238300
0.149792 0.136824 0.238300
0.289379 0.136824 0.238300
0.425357 0.136824 0.238300
0.559043 0.136824 0.238300
0.691050 0.136824 0.238300
0.821735 0.136824 0.238300
0.951330 0.136824 0.238300
1.000000 0.136824 0.238300
0.000000 0.269880 0.238300
0.149792 0.269880 0.238300
0.289379 0.269880 0.238300
0.425357 0.269880 0.238300
0.559043 0.269880 0.238300
0.691050 0.269880 0.238300
0.821735 0.269880 0.238300
0.951330 0.269880 0.238300
1.000000 0.269880 0.238300
0.000000 0.401550 0.238300
0.149792 0.401550 0.238300
0.289379 0.401550 0.238300
0.425357 0.401550 0.238300
0.559043 0.401550 0.238300
0.691050 0.401550 0.238300
0.821735 0.401550 0.238300
0.951330 0.401550 0.238300
1.000000 0.401550 0.238300
0.000000 0.532329 0.238300
0.149792 0.532329 0.238300
0.289379 0.532329 0.238300
0.425357 0.532329 0.238300
0.559043 0.532329 0.238300
0.691050 0.532329 0.238300
0.821735 0.532329 0.238300
0.951330 0.532329 0.238300
1.000000 0.532329 0.238300
0.000000 0.662448 0.238300
0.149792 0.662448 0.238300
0.289379 0.662448 0.238300
0.425357 0.662448 0.238300
0.559043 0.662448 0.238300
0.691050 0.662448 0.238300
0.821735 0.662448 0.238300
0.951330 0.662448 0.238300
1.000000 0.662448 0.238300
0.000000 0.792044 0.238300
0.149792 0.792044 0.238300
0.289379 0.792044 0.238300
0.425357 0.792044 0.238300
0.559043 0.792044 0.238300
0.691050 0.792044 0.238300
0.821735 0.792044 0.238300
0.951330 0.792044 0.238300
1.000000 0.792044 0.238300
0.000000 0.921207 0.238300
0.149792 0.921207 0.238300
0.289379 0.921207 0.238300
0.425357 0.921207 0.238300
0.559043 0.921207 0.238300
0.691050 0.921207 0.238300
0.821735 0.921207 0.238300
0.951330 0.921207 0.238300
1.000000 0.921207 0.238300
0.000000 1.000000 0.238300
0.149792 1.000000 0.238300
0.289379 1.000000 0.238300
0.425357 1.000000 0.238300
0.559043 1.000000 0.238300
0.691050 1.000000 0.238300
0.821735 1.000000 0.238300
0.951330 1.000000 0.238300
1.000000 1.000000 0.238300
0.000000 0.000000 0.360361
0.149792 0.000000 0.360361
0.289379 0.000000 0.360361
0.425357 0.000000 0.360361
0.559043 0.000000 0.360361
0.691050 0.000000 0.360361
0.821735 0.000000 0.360361
0.951330 0.000000 0.360361
1.000000 0.000000 0.360361
0.000000 0.136824 0.360361
0.149792 0.136824 0.360361
0.289379 0.136824 0.360361
0.425357 0.136824 0.360361
0.559043 0.136824 0.360361
0.691050 0.136824 0.360361
0.821735 0.136824 0.360361
0.951330 0.136824 0.360361
1.000000 0.136824 0.360361
0.000000 0.269880 0.360361
0.149792 0.269880 0.360361
0.289379 0.269880 0.360361
0.425357 0.269880 0.360361
0.559043 0.269880 0.360361
0.691050 0.269880 0.360361
0.821735 0.269880 0.360361
0.951330 0.269880 0.360361
1.000000 0.269880 0.360361
0.000000 0.401550 0.360361
0.149792 0.401550 0.360361
0.289379 0.401550 0.360361
0.425357 0.401550 0.360361
0.559043 0.401550 0.360361
0.691050 0.401550 0.360361
0.821735 0.401550 0.360361
0.951330 0.401550 0.360361
1.000000 0.401550 0.360361
0.000000 0.532329 0.360361
0.149792 0.532329 0.360361
0.289379 0.532329 0.360361
0.425357 0.532329 0.360361
0.559043 0.532329 0.360361
0.691050 0.532329 0.360361
0.821735 0.532329 0.360361
0.951330 0.532329 0.360361
1.000000 0.532329 0.360361
0.000000 0.662448 0.360361
0.149792 0.662448 0.360361
0.289379 0.662448 0.360361
0.425357 0.662448 0.360361
0.559043 0.662448 0.360361
0.691050 0.662448 0.360361
0.821735 0.662448 0.360361
0.951330 0.662448 0.360361
1.000000 0.662448 0.360361
0.000000 0.792044 0.360361
0.149792 0.792044 0.360361
0.289379 0.792044 0.360361
0.425357 0.792044 0.360361
0.559043 0.792044 0.360361
0.691050 0.792044 0.360361
0.821735 0.792044 0.360361
0.951330 0.792044 0.360361
1.000000 0.792044 0.360361
0.000000 0.921207 0.360361
0.149792 0.921207 0.360361
0.289379 0.921207 0.360361
0.425357 0.921207 0.360361
0.559043 0.921207 0.360361
0.691050 0.921207 0.360361
0.821735 0.921207 0.360361
0.951330 0.921207 0.360361
1.000000 0.921207 0.360361
0.000000 1.000000 0.360361
0.149792 1.000000 0.360361
0.289379 1.000000 0.360361
0.425357 1.000000 0.360361
0.559043 1.000000 0.360361
0.691050 1.000000 0.360361
0.821735 1.000000 0.360361
0.951330 1.000000 0.360361
1.000000 1.000000 0.360361
0.000000 0.000000 0.483254
0.149792 0.000000 0.483254
0.289379 0.000000 0.483254
0.425357 0.000000 0.483254
0.559043 0.000000 0.483254
0.691050 0.000000 0.483254
0.821735 0.000000 0.483254
0.951330 0.000000 0.483254
1.000000 0.000000 0.483254
0.000000 0.136824 0.483254
0.149792 0.136824 0.483254
0.289379 0.136824 0.483254
0.425357 0.136824 0.483254
0.559043 0.136824 0.483254
0.691050 0.136824 0.483254
0.821735 0.136824 0.483254
0.951330 0.136824 0.483254
1.000000 0.136824 0.483254
0.000000 0.269880 0.483254
0.149792 0.269880 0.483254
0.289379 0.269880 0.483254
0.425357 0.269880 0.483254
0.559043 0.269880 0.483254
0.691050 0.269880 0.483254
0.821735 0.269880 0.483254
0.951330 0.269880 0.483254
1.000000 0.269880 0.483254
0.000000 0.401550 0.483254
0.149792 0.401550 0.483254
0.289379 0.401550 0.483254
0.425357 0.401550 0.483254
0.559043 0.401550 0.483254
0.691050 0.401550 0.483254
0.821735 0.401550 0.483254
0.951330 0.401550 0.483254
1.000000 0.401550 0.483254
0.000000 0.532329 0.483254
0.149792 0.532329 0.483254
0.289379 0.532329 0.483254
0.425357 0.532329 0.483254
0.559043 0.532329 0.483254
0.691050 0.532329 0.483254
0.821735 0.532329 0.483254
0.951330 0.532329 0.483254
1.000000 0.532329 0.483254
0.000000 0.662448 0.483254
0.149792 0.662448 0.483254
0.289379 0.662448 0.483254
0.425357 0.662448 0.483254
0.559043 0.662448 0.483254
0.691050 0.662448 0.483254
0.821735 0.662448 0.483254
0.951330 0.662448 0.483254
1.000000 0.662448 0.483254
0.000000 0.792044 0.483254
0.149792 0.792044 0.483254
0.289379 0.792044 0.483254
0.425357 0.792044 0.483254
0.559043 0.792044 0.483254
0.691050 0.792044 0.483254
0.821735 0.792044 0.483254
0.951330 0.792044 0.483254
1.000000 0.792044 0.483254
0.000000 0.921207 0.483254
0.149792 0.921207 0.483254
0.289379 0.921207 0.483254
0.425357 0.921207 0.483254
0.559043 0.921207 0.483254
0.691050 0.921207 0.483254
0.821735 0.921207 0.483254
0.951330 0.921207 0.483254
1.000000 0.921207 0.483254
0.000000 1.000000 0.483254
0.149792 1.000000 0.483254
0.289379 1.000000 0.483254
0.425357 1.000000 0.483254
0.559043 1.000000 0.483254
0.691050 1.000000 0.483254
0.821735 1.000000 0.483254
0.951330 1.000000 0.483254
1.000000 1.000000 0.483254
0.000000 0.000000 0.606769
0.149792 0.000000 0.606769
0.289379 0.000000 0.606769
0.425357 0.000000 0.606769
0.559043 0.000000 0.606769
0.691050 0.000000 0.606769
0.821735 0.000000 0.606769
0.951330 0.000000 0.606769
1.000000 0.000000 0.606769
0.000000 0.136824 0.606769
0.149792 0.136824 0.606769
0.289379 0.136824 0.606769
0.425357 0.136824 0.606769
0.559043 0.136824 0.606769
0.691050 0.136824 0.606769
0.821735 0.136824 0.606769
0.951330 0.136824 0.606769
1.000000 0.136824 0.606769
0.000000 0.269880 0.606769
0.149792 0.269880 0.606769
0.289379 0.269880 0.606769
0.425357 0.269880 0.606769
0.559043 0.269880 0.606769
0.691050 0.269880 0.606769
0.821735 0.269880 0.606769
0.951330 0.269880 0.606769
1.000000 0.269880 0.606769
0.000000 0.401550 0.606769
0.149792 0.401550 0.606769
0.289379 0.401550 0.606769
0.425357 0.401550 0.606769
0.559043 0.401550 0.606769
0.691050 0.401550 0.606769
0.821735 0.401550 0.606769
0.951330 0.401550 0.606769
1.000000 0.401550 0.606769
0.000000 0.532329 0.606769
0.149792 0.532329 0.606769
0.289379 0.532329 0.606769
0.425357 0.532329 0.606769
0.559043 0.532329 0.606769
0.691050 0.532329 0.606769
0.821735 0.532329 0.606769
0.951330 0.532329 0.606769
1.000000 0.532329 0.606769
0.000000 0.662448 0.606769
0.149792 0.662448 0.606769
0.289379 0.662448 0.606769
0.425357 0.662448 0.606769
0.559043 0.662448 0.606769
0.691050 0.662448 0.606769
0.821735 0.662448 0.606769
0.951330 0.662448 0.606769
1.000000 0.662448 0.606769
0.000000 0.792044 0.606769
0.149792 0.792044 0.606769
0.289379 0.792044 0.606769
0.425357 0.792044 0.606769
0.559043 0.792044 0.606769
0.691050 0.792044 0.606769
0.821735 0.792044 0.606769
0.951330 0.792044 0.606769
1.000000 0.792044 0.606769
0.000000 0.921207 0.606769
0.149792 0.921207 0.606769
0.289379 0.921207 0.606769
0.425357 0.921207 0.606769
0.559043 0.921207 0.606769
0.691050 0.921207 0.606769
0.821735 0.921207 0.606769
0.951330 0.921207 0.606769
1.000000 0.921207 0.606769
0.000000 1.000000 0.606769
0.149792 1.000000 0.606769
0.289379 1.000000 0.606769
0.425357 1.000000 0.606769
0.559043 1.000000 0.606769
0.691050 1.000000 0.606769
0.821735 1.000000 0.606769
0.951330 1.000000 0.606769
1.000000 1.000000 0.606769
0.000000 0.000000 0.730783
0.149792 0.000000 0.730783
0.289379 0.000000 0.730783
0.425357 0.000000 0.730783
0.559043 0.000000 0.730783
0.691050 0.000000 0.730783
0.821735 0.000000 0.730783
0.951330 0.000000 0.730783
1.000000 0.000000 0.730783
0.000000 0.136824 0.730783
0.149792 0.136824 0.730783
0.289379 0.136824 0.730783
0.425357 0.136824 0.730783
0.559043 0.136824 0.730783
0.691050 0.136824 0.730783
0.821735 0.136824 0.730783
0.951330 0.136824 0.730783
1.000000 0.136824 0.730783
0.000000 0.269880 0.730783
0.149792 0.269880 0.730783
0.289379 0.269880 0.730783
0.425357 0.269880 0.730783
0.559043 0.269880 0.730783
0.691050 0.269880 0.730783
0.821735 0.269880 0.730783
0.951330 0.269880 0.730783
1.000000 0.269880 0.730783
0.000000 0.401550 0.730783
0.149792 0.401550 0.730783
0.289379 0.401550 0.730783
0.425357 0.401550 0.730783
0.559043 0.401550 0.730783
0.691050 0.401550 0.730783
0.821735 0.401550 0.730783
0.951330 0.401550 0.730783
1.000000 0.401550 0.730783
0.000000 0.532329 0.730783
0.149792 0.532329 0.730783
0.289379 0.532329 0.730783
0.425357 0.532329 0.730783
0.559043 0.532329 0.730783
0.691050 0.532329 0.730783
0.821735 0.532329 0.730783
0.951330 0.532329 0.730783
1.000000 0.532329 0.730783
0.000000 0.662448 0.730783
0.149792 0.662448 0.730783
0.289379 0.662448 0.730783
0.425357 0.662448 0.730783
0.559043 0.662448 0.730783
0.691050 0.662448 0.730783
0.821735 0.662448 0.730783
0.951330 0.662448 0.730783
1.000000 0.662448 0.730783
0.000000 0.792044 0.730783
0.149792 0.792044 0.730783
0.289379 0.792044 0.730783
0.425357 0.792044 0.730783
0.559043 0.792044 0.730783
0.691050 0.792044 0.730783
0.821735 0.792044 0.730783
0.951330 0.792044 0.730783
1.000000 0.792044 0.730783
0.000000 0.921207 0.730783
0.149792 0.921207 0.730783
0.289379 0.921207 0.730783
0.425357 0.921207 0.730783
0.559043 0.921207 0.730783
0.691050 0.921207 0.730783
0.821735 0.921207 0.730783
0.951330 0.921207 0.730783
1.000000 0.921207 0.730783
0.000000 1.000000 0.730783
0.149792 1.000000 0.730783
0.289379 1.000000 0.730783
0.425357 1.000000 0.730783
0.559043 1.000000 0.730783
0.691050 1.000000 0.730783
0.821735 1.000000 0.730783
0.951330 1.000000 0.730783
1.000000 1.000000 0.730783
0.000000 0.000000 0.855213
0.149792 0.000000 0.855213
0.289379 0.000000 0.855213
0.425357 0.000000 0.855213
0.559043 0.000000 0.855213
0.691050 0.000000 0.855213
0.821735 0.000000 0.855213
0.951330 0.000000 0.855213
1.000000 0.000000 0.855213
0.000000 0.136824 0.855213
0.149792 0.136824 0.855213
0.289379 0.136824 0.855213
0.425357 0.136824 0.855213
0.559043 0.136824 0.855213
0.691050 0.136824 0.855213
0.821735 0.136824 0.855213
0.951330 0.136824 0.855213
1.000000 0.136824 0.855213
0.000000 0.269880 0.855213
0.149792 0.269880 0.855213
0.289379 0.269880 0.855213
0.425357 0.269880 0.855213
0.559043 0.269880 0.855213
0.691050 0.269880 0.855213
0.821735 0.269880 0.855213
0.951330 0.269880 0.855213
1.000000 0.269880 0.855213
0.000000 0.401550 0.855213
0.149792 0.401550 0.855213
0.289379 0.401550 0.855213
0.425357 0.401550 0.855213
0.559043 0.401550 0.855213
0.691050 0.401550 0.855213
0.821735 0.401550 0.855213
0.951330 0.401550 0.855213
1.000000 0.401550 0.855213
0.000000 0.532329 0.855213
0.149792 0.532329 0.855213
0.289379 0.532329 0.855213
0.425357 0.532329 0.855213
0.559043 0.532329 0.855213
0.691050 0.532329 0.855213
0.821735 0.532329 0.855213
0.951330 0.532329 0.855213
1.000000 0.532329 0.855213
0.000000 0.662448 0.855213
0.149792 0.662448 0.855213
0.289379 0.662448 0.855213
0.425357 0.662448 0.855213
0.559043 0.662448 0.855213
0.691050 0.662448 0.855213
0.821735 0.662448 0.855213
0.951330 0.662448 0.855213
1.000000 0.662448 0.855213
0.000000 0.792044 0.855213
0.149792 0.792044 0.855213
0.289379 0.792044 0.855213
0.425357 0.792044 0.855213
0.559043 0.792044 0.855213
0.691050 0.792044 0.855213
0.821735 0.792044 0.855213
0.951330 0.792044 0.855213
1.000000 0.792044 0.855213
0.000000 0.921207 0.855213
0.149792 0.921207 0.855213
0.289379 0.921207 0.855213
0.425357 0.921207 0.855213
0.559043 0.921207 0.855213
0.691050 0.921207 0.855213
0.821735 0.921207 0.855213
0.951330 0.921207 0.855213
1.000000 0.921207 0.855213
0.000000 1.000000 0.855213
0.149792 1.000000 0.855213
0.289379 1.000000 0.855213
0.425357 1.000000 0.855213
0.559043 1.000000 0.855213
0.691050 1.000000 0.855213
0.821735 1.000000 0.855213
0.951330 1.000000 0.855213
1.000000 1.000000 0.855213
0.000000 0.000000 0.980000
0.149792 0.000000 0.980000
0.289379 0.000000 0.980000
0.425357 0.000000 0.980000
0.559043 0.000000 0.980000
0.691050 0.000000 0.980000
0.821735 0.000000 0.980000
0.951330 0.000000 0.980000
1.000000 0.000000 0.980000
0.000000 0.136824 0.980000
0.149792 0.136824 0.980000
0.289379 0.136824 0.980000
0.425357 0.136824 0.980000
0.559043 0.136824 0.980000
0.691050 0.136824 0.980000
0.821735 0.136824 0.980000
0.951330 0.136824 0.980000
1.000000 0.136824 0.980000
0.000000 0.269880 0.980000
0.149792 0.269880 0.980000
0.289379 0.269880 0.980000
0.425357 0.269880 0.980000
0.559043 0.269880 0.980000
0.691050 0.269880 0.980000
0.821735 0.269880 0.980000
0.951330 0.269880 0.980000
1.000000 0.269880 0.980000
0.000000 0.401550 0.980000
0.149792 0.401550 0.980000
0.289379 0.401550 0.980000
0.425357 0.401550 0.980000
0.559043 0.401550 0.980000
0.691050 0.401550 0.980000
0.821735 0.401550 0.980000
0.951330 0.401550 0.980000
1.000000 0.401550 0.980000
0.000000 0.532329 0.980000
0.149792 0.532329 0.980000
0.289379 0.532329 0.980000
0.425357 0.532329 0.980000
0.559043 0.532329 0.980000
0.691050 0.532329 0.980000
0.821735 0.532329 0.980000
0.951330 0.532329 0.980000
1.000000 0.532329 0.980000
0.000000 0.662448 0.980000
0.149792 0.662448 0.980000
0.289379 0.662448 0.980000
0.425357 0.662448 0.980000
0.559043 0.662448 0.980000
0.691050 0.662448 0.980000
0.821735 0.662448 0.980000
0.951330 0.662448 0.980000
1.000000 0.662448 0.980000
0.000000 0.792044 0.980000
0.149792 0.792044 0.980000
0.289379 0.792044 0.980000
0.425357 0.792044 0.980000
0.559043 0.792044 0.980000
0.691050 0.792044 0.980000
0.821735 0.792044 0.980000
0.951330 0.792044 0.980000
1.000000 0.792044 0.980000
0.000000 0.921207 0.980000
0.149792 0.921207 0.980000
0.289379 0.921207 0.980000
0.425357 0.921207 0.980000
0.559043 0.921207 0.980000
0.691050 0.921207 0.980000
0.821735 0.921207 0.980000
0.951330 0.921207 0.980000
1.000000 0.921207 0.980000
0.000000 1.000000 0.980000
0.149792 1.000000 0.980000
0.289379 1.000000 0.980000
0.425357 1.000000 0.980000
0.559043 1.000000 0.980000
0.691050 1.000000 0.980000
0.821735 1.000000 0.980000
0.951330 1.000000 0.980000
1.000000 1.000000 0.980000
