custom_nodes/comfyui-vrgamedevgirl/LUTS/Vivid_Warm_Clean_Filmic_Bright.cube
TITLE "Filmic_Bright"
LUT_3D_SIZE 5
DOMAIN_MIN 0 0 0
DOMAIN_MAX 1 1 1
0.000000 0.000000 0.000000
0.289379 0.000000 0.000000
0.559043 0.000000 0.000000
0.821735 0.000000 0.000000
1.000000 0.000000 0.000000
0.000000 0.269880 0.000000
0.289379 0.269880 0.000000
0.559043 0.269880 0.000000
0.821735 0.269880 0.000000
1.000000 0.269880 0.000000
0.000000 0.532329 0.000000
0.289379 0.532329 0.000000
0.559043 0.532329 0.000000
0.821735 0.532329 0.000000
1.000000 0.532329 0.000000
0.000000 0.792044 0.000000
0.289379 0.792044 0.000000
0.559043 0.792044 0.000000
0.821735 0.792044 0.000000
1.000000 0.792044 0.000000
0.000000 1.000000 0.000000
0.289379 1.000000 0.000000
0.559043 1.000000 0.000000
0.821735 1.000000 0.000000
1.000000 1.000000 0.000000
0.000000 0.000000 0.238300
0.289379 0.000000 0.238300
0.559043 0.000000 0.238300
0.821735 0.000000 0.238300
1.000000 0.000000 0.238300
0.000000 0.269880 0.238300
0.289379 0.269880 0.238300
0.559043 0.269880 0.238300
0.821735 0.269880 0.238300
1.000000 0.269880 0.238300
0.000000 0.532329 0.238300
0.289379 0.532329 0.238300
0.559043 0.532329 0.238300
0.821735 0.532329 0.238300
1.000000 0.532329 0.238300
0.000000 0.792044 0.238300
0.289379 0.792044 0.238300
0.559043 0.792044 0.238300
0.821735 0.792044 0.238300
1.000000 0.792044 0.238300
0.000000 1.000000 0.238300
0.289379 1.000000 0.238300
0.559043 1.000000 0.238300
0.821735 1.000000 0.238300
1.000000 1.000000 0.238300
0.000000 0.000000 0.483254
0.289379 0.000000 0.483254
0.559043 0.000000 0.483254
0.821735 0.000000 0.483254
1.000000 0.000000 0.483254
0.000000 0.269880 0.483254
0.289379 0.269880 0.483254
0.559043 0.269880 0.483254
0.821735 0.269880 0.483254
1.000000 0.269880 0.483254
0.000000 0.532329 0.483254
0.289379 0.532329 0.483254
0.559043 0.532329 0.483254
0.821735 0.532329 0.483254
1.000000 0.532329 0.483254
0.000000 0.792044 0.483254
0.289379 0.792044 0.483254
0.559043 0.792044 0.483254
0.821735 0.792044 0.483254
1.000000 0.792044 0.483254
0.000000 1.000000 0.483254
0.289379 1.000000 0.483254
0.559043 1.000000 0.483254
0.821735 1.000000 0.483254
1.000000 1.000000 0.483254
0.000000 0.000000 0.730783
0.289379 0.000000 0.730783
0.559043 0.000000 0.730783
0.821735 0.000000 0.730783
1.000000 0.000000 0.730783
0.000000 0.269880 0.730783
0.289379 0.269880 0.730783
0.559043 0.269880 0.730783
0.821735 0.269880 0.730783
1.000000 0.269880 0.730783
0.000000 0.532329 0.730783
0.289379 0.532329 0.730783
0.559043 0.532329 0.730783
0.821735 0.532329 0.730783
1.000000 0.532329 0.730783
0.000000 0.792044 0.730783
0.289379 0.792044 0.730783
0.559043 0.792044 0.730783
0.821735 0.792044 0.730783
1.000000 0.792044 0.730783
0.000000 1.000000 0.730783
0.289379 1.000000 0.730783
0.559043 1.000000 0.730783
0.821735 1.000000 0.730783
1.000000 1.000000 0.730783
0.000000 0.000000 0.980000
0.289379 0.000000 0.980000
0.559043 0.000000 0.980000
0.821735 0.000000 0.980000
1.000000 0.000000 0.980000
0.000000 0.269880 0.980000
0.289379 0.269880 0.980000
0.559043 0.269880 0.980000
0.821735 0.269880 0.980000
1.000000 0.269880 0.980000
0.000000 0.532329 0.980000
0.289379 0.532329 0.980000
0.559043 0.532329 0.980000
0.821735 0.532329 0.980000
1.000000 0.532329 0.980000
0.000000 0.792044 0.980000
0.289379 0.792044 0.980000
0.559043 0.792044 0.980000
0.821735 0.792044 0.980000
1.000000 0.792044 0.980000
0.000000 1.000000 0.980000
0.289379 1.000000 0.980000
0.559043 1.000000 0.980000
0.821735 1.000000 0.980000
1.000000 1.000000 0.980000
